(1001)
(T1 D=3.175 CR=0. - ZMIN=-12. - FLAT END MILL)
G0 G90 G94 G17
G21
(-ATTENTION- PROPERTY SAFE RETRACTS IS SET TO CLEARANCE HEIGHT.)
(ENSURE THE CLEARANCE HEIGHT WILL CLEAR THE PART AND OR FIXTURES.)
(RAISE THE Z-AXIS TO A SAFE HEIGHT BEFORE STARTING THE PROGRAM.)
M5

(FACE2)
T1
M3 S15000
G90 G94 G17
G54
M8
G0 X52.064 Y1.443
Z15.
G0 Z5.
G1 Z-0.683 F300.
X52.056 Z-0.753 F1000.
X52.032 Z-0.82
X51.994 Z-0.88
X51.944 Z-0.931
X51.884 Z-0.969
X51.817 Z-0.992
X51.746 Z-1.
X50.
X0.
G2 X-1.299 Y3.693 I0. J1.5
X0. Y4.443 I1.299 J-0.75
G1 X50.
G3 X51.299 Y6.694 I0. J1.5
X50. Y7.444 I-1.299 J-0.75
G1 X0.
G2 X-1.299 Y9.694 I0. J1.5
X0. Y10.444 I1.299 J-0.75
G1 X50.
G3 X51.299 Y12.694 I0. J1.5
X50. Y13.445 I-1.299 J-0.75
G1 X0.
G2 X-1.299 Y15.695 I0. J1.5
X0. Y16.445 I1.299 J-0.75
G1 X50.
G3 X51.299 Y18.695 I0. J1.5
X50. Y19.445 I-1.299 J-0.75
G1 X0.
G2 X-1.299 Y21.696 I0. J1.5
X0. Y22.446 I1.299 J-0.75
G1 X50.
G3 X51.299 Y24.696 I0. J1.5
X50. Y25.446 I-1.299 J-0.75
G1 X0.
G2 X-1.299 Y27.696 I0. J1.5
X0. Y28.446 I1.299 J-0.75
G1 X50.
G3 X51.299 Y30.697 I0. J1.5
X50. Y31.447 I-1.299 J-0.75
G1 X0.
G2 X-1.299 Y33.697 I0. J1.5
X0. Y34.447 I1.299 J-0.75
G1 X50.
G3 X51.299 Y36.698 I0. J1.5
X50. Y37.448 I-1.299 J-0.75
G1 X0.
G2 X-1.299 Y39.698 I0. J1.5
X0. Y40.448 I1.299 J-0.75
G1 X50.
G3 X51.299 Y42.698 I0. J1.5
X50. Y43.448 I-1.299 J-0.75
G1 X0.
G2 X-1.299 Y45.699 I0. J1.5
X0. Y46.449 I1.299 J-0.75
G1 X50.
G3 X51.299 Y48.699 I0. J1.5
X50. Y49.449 I-1.299 J-0.75
G1 X0.
G2 X-1.299 Y51.699 I0. J1.5
X0. Y52.45 I1.299 J-0.75
G1 X50.
G3 X51.299 Y54.7 I0. J1.5
X50. Y55.45 I-1.299 J-0.75
G1 X0.
G2 X-1.299 Y57.7 I0. J1.5
X0. Y58.45 I1.299 J-0.75
G1 X50.
G3 X51.299 Y60.701 I0. J1.5
X50. Y61.451 I-1.299 J-0.75
G1 X0.
G2 X-1.299 Y63.701 I0. J1.5
X0. Y64.451 I1.299 J-0.75
G1 X50.
G3 X51.299 Y66.701 I0. J1.5
X50. Y67.451 I-1.299 J-0.75
G1 X0.
G2 X-1.299 Y69.702 I0. J1.5
X0. Y70.452 I1.299 J-0.75
G1 X50.
G3 X51.299 Y72.702 I0. J1.5
X50. Y73.452 I-1.299 J-0.75
G1 X0.
G2 X-1.299 Y75.702 I0. J1.5
X0. Y76.453 I1.299 J-0.75
G1 X50.
G3 X51.299 Y78.703 I0. J1.5
X50. Y79.453 I-1.299 J-0.75
G1 X0.
G2 X-1.299 Y81.703 I0. J1.5
X0. Y82.453 I1.299 J-0.75
G1 X50.
G3 X51.299 Y84.704 I0. J1.5
X50. Y85.454 I-1.299 J-0.75
G1 X0.
G2 X-1.299 Y87.704 I0. J1.5
X0. Y88.454 I1.299 J-0.75
G1 X50.
G3 X51.299 Y90.704 I0. J1.5
X50. Y91.454 I-1.299 J-0.75
G1 X0.
G2 X-1.299 Y93.705 I0. J1.5
X0. Y94.455 I1.299 J-0.75
G1 X50.
G3 X51.299 Y96.705 I0. J1.5
X50. Y97.455 I-1.299 J-0.75
G1 X0.
G2 X-1.299 Y99.706 I0. J1.5
X0. Y100.456 I1.299 J-0.75
G1 X50.
G3 X51.299 Y102.706 I0. J1.5
X50. Y103.456 I-1.299 J-0.75
G1 X0.
G2 X-1.299 Y105.706 I0. J1.5
X0. Y106.456 I1.299 J-0.75
G1 X50.
G3 X51.299 Y108.707 I0. J1.5
X50. Y109.457 I-1.299 J-0.75
G1 X0.
G2 X-1.299 Y111.707 I0. J1.5
X0. Y112.457 I1.299 J-0.75
G1 X50.
G3 X51.299 Y114.707 I0. J1.5
X50. Y115.458 I-1.299 J-0.75
G1 X0.
G2 X-1.299 Y117.708 I0. J1.5
X0. Y118.458 I1.299 J-0.75
G1 X50.
G3 X51.299 Y120.708 I0. J1.5
X50. Y121.458 I-1.299 J-0.75
G1 X0.
G2 X-1.299 Y123.709 I0. J1.5
X0. Y124.459 I1.299 J-0.75
G1 X50.
G3 X51.299 Y126.709 I0. J1.5
X50. Y127.459 I-1.299 J-0.75
G1 X0.
G2 X-1.299 Y129.709 I0. J1.5
X0. Y130.459 I1.299 J-0.75
G1 X50.
G3 X51.299 Y132.71 I0. J1.5
X50. Y133.46 I-1.299 J-0.75
G1 X0.
G2 X-1.299 Y135.71 I0. J1.5
X0. Y136.46 I1.299 J-0.75
G1 X50.
G3 X51.299 Y138.71 I0. J1.5
X50. Y139.461 I-1.299 J-0.75
G1 X0.
G2 X-1.299 Y141.711 I0. J1.5
X0. Y142.461 I1.299 J-0.75
G1 X50.
G3 X51.299 Y144.711 I0. J1.5
X50. Y145.461 I-1.299 J-0.75
G1 X0.
G2 X-1.299 Y147.712 I0. J1.5
X0. Y148.462 I1.299 J-0.75
G1 X50.
X50.071 Z-0.992
X50.138 Z-0.969
X50.198 Z-0.931
X50.248 Z-0.88
X50.286 Z-0.82
X50.31 Z-0.753
X50.318 Z-0.683
G0 Z15.

(2D CONTOUR1)
G0 X45.952 Y150.318
Z15.
Z5.
G1 Z-0.683 F300.
X45.945 Z-0.753 F1000.
X45.921 Z-0.82
X45.883 Z-0.88
X45.833 Z-0.931
X45.773 Z-0.969
X45.706 Z-0.992
X45.635 Z-1.
X45.318
G3 X45. Y150. I0. J-0.318
G1 Y63.229
G3 X50. Y50. I20. J0.
G1 Y0.
X0.
Y50.
G3 X5. Y63.229 I-15. J13.229
G1 Y150.
X45.
G3 X45.318 Y150.318 I0. J0.318
G1 Y150.635
Y150.706 Z-0.992
Y150.773 Z-0.969
Y150.833 Z-0.931
Y150.883 Z-0.88
Y150.921 Z-0.82
Y150.945 Z-0.753
Y150.952 Z-0.683
G0 Z5.
X45.952 Y150.318
G1 Z-1.683 F300.
X45.945 Z-1.753 F1000.
X45.921 Z-1.82
X45.883 Z-1.88
X45.833 Z-1.931
X45.773 Z-1.969
X45.706 Z-1.992
X45.635 Z-2.
X45.318
G3 X45. Y150. I0. J-0.318
G1 Y63.229
G3 X50. Y50. I20. J0.
G1 Y0.
X0.
Y50.
G3 X5. Y63.229 I-15. J13.229
G1 Y150.
X45.
G3 X45.318 Y150.318 I0. J0.318
G1 Y150.635
Y150.706 Z-1.992
Y150.773 Z-1.969
Y150.833 Z-1.931
Y150.883 Z-1.88
Y150.921 Z-1.82
Y150.945 Z-1.753
Y150.952 Z-1.683
G0 Z5.
X45.952 Y150.318
G1 Z-2.683 F300.
X45.945 Z-2.753 F1000.
X45.921 Z-2.82
X45.883 Z-2.88
X45.833 Z-2.931
X45.773 Z-2.969
X45.706 Z-2.992
X45.635 Z-3.
X45.318
G3 X45. Y150. I0. J-0.318
G1 Y63.229
G3 X50. Y50. I20. J0.
G1 Y0.
X0.
Y50.
G3 X5. Y63.229 I-15. J13.229
G1 Y150.
X45.
G3 X45.318 Y150.318 I0. J0.318
G1 Y150.635
Y150.706 Z-2.992
Y150.773 Z-2.969
Y150.833 Z-2.931
Y150.883 Z-2.88
Y150.921 Z-2.82
Y150.945 Z-2.753
Y150.952 Z-2.683
G0 Z5.
X45.952 Y150.318
G1 Z-3.683 F300.
X45.945 Z-3.753 F1000.
X45.921 Z-3.82
X45.883 Z-3.88
X45.833 Z-3.931
X45.773 Z-3.969
X45.706 Z-3.992
X45.635 Z-4.
X45.318
G3 X45. Y150. I0. J-0.318
G1 Y63.229
G3 X50. Y50. I20. J0.
G1 Y0.
X0.
Y50.
G3 X5. Y63.229 I-15. J13.229
G1 Y150.
X45.
G3 X45.318 Y150.318 I0. J0.318
G1 Y150.635
Y150.706 Z-3.992
Y150.773 Z-3.969
Y150.833 Z-3.931
Y150.883 Z-3.88
Y150.921 Z-3.82
Y150.945 Z-3.753
Y150.952 Z-3.683
G0 Z5.
X45.952 Y150.318
G1 Z-4.683 F300.
X45.945 Z-4.753 F1000.
X45.921 Z-4.82
X45.883 Z-4.88
X45.833 Z-4.931
X45.773 Z-4.969
X45.706 Z-4.992
X45.635 Z-5.
X45.318
G3 X45. Y150. I0. J-0.318
G1 Y63.229
G3 X50. Y50. I20. J0.
G1 Y0.
X0.
Y50.
G3 X5. Y63.229 I-15. J13.229
G1 Y150.
X45.
G3 X45.318 Y150.318 I0. J0.318
G1 Y150.635
Y150.706 Z-4.992
Y150.773 Z-4.969
Y150.833 Z-4.931
Y150.883 Z-4.88
Y150.921 Z-4.82
Y150.945 Z-4.753
Y150.952 Z-4.683
G0 Z5.
X45.952 Y150.318
G1 Z-5.683 F300.
X45.945 Z-5.753 F1000.
X45.921 Z-5.82
X45.883 Z-5.88
X45.833 Z-5.931
X45.773 Z-5.969
X45.706 Z-5.992
X45.635 Z-6.
X45.318
G3 X45. Y150. I0. J-0.318
G1 Y63.229
G3 X50. Y50. I20. J0.
G1 Y0.
X0.
Y50.
G3 X5. Y63.229 I-15. J13.229
G1 Y150.
X45.
G3 X45.318 Y150.318 I0. J0.318
G1 Y150.635
Y150.706 Z-5.992
Y150.773 Z-5.969
Y150.833 Z-5.931
Y150.883 Z-5.88
Y150.921 Z-5.82
Y150.945 Z-5.753
Y150.952 Z-5.683
G0 Z5.
X45.952 Y150.318
G1 Z-6.683 F300.
X45.945 Z-6.753 F1000.
X45.921 Z-6.82
X45.883 Z-6.88
X45.833 Z-6.931
X45.773 Z-6.969
X45.706 Z-6.992
X45.635 Z-7.
X45.318
G3 X45. Y150. I0. J-0.318
G1 Y63.229
G3 X50. Y50. I20. J0.
G1 Y0.
X0.
Y50.
G3 X5. Y63.229 I-15. J13.229
G1 Y150.
X45.
G3 X45.318 Y150.318 I0. J0.318
G1 Y150.635
Y150.706 Z-6.992
Y150.773 Z-6.969
Y150.833 Z-6.931
Y150.883 Z-6.88
Y150.921 Z-6.82
Y150.945 Z-6.753
Y150.952 Z-6.683
G0 Z5.
X45.952 Y150.318
G1 Z-7.683 F300.
X45.945 Z-7.753 F1000.
X45.921 Z-7.82
X45.883 Z-7.88
X45.833 Z-7.931
X45.773 Z-7.969
X45.706 Z-7.992
X45.635 Z-8.
X45.318
G3 X45. Y150. I0. J-0.318
G1 Y63.229
G3 X50. Y50. I20. J0.
G1 Y0.
X0.
Y50.
G3 X5. Y63.229 I-15. J13.229
G1 Y150.
X45.
G3 X45.318 Y150.318 I0. J0.318
G1 Y150.635
Y150.706 Z-7.992
Y150.773 Z-7.969
Y150.833 Z-7.931
Y150.883 Z-7.88
Y150.921 Z-7.82
Y150.945 Z-7.753
Y150.952 Z-7.683
G0 Z5.
X45.952 Y150.318
G1 Z-8.683 F300.
X45.945 Z-8.753 F1000.
X45.921 Z-8.82
X45.883 Z-8.88
X45.833 Z-8.931
X45.773 Z-8.969
X45.706 Z-8.992
X45.635 Z-9.
X45.318
G3 X45. Y150. I0. J-0.318
G1 Y63.229
G3 X50. Y50. I20. J0.
G1 Y0.
X0.
Y50.
G3 X5. Y63.229 I-15. J13.229
G1 Y150.
X45.
G3 X45.318 Y150.318 I0. J0.318
G1 Y150.635
Y150.706 Z-8.992
Y150.773 Z-8.969
Y150.833 Z-8.931
Y150.883 Z-8.88
Y150.921 Z-8.82
Y150.945 Z-8.753
Y150.952 Z-8.683
G0 Z5.
X45.952 Y150.318
G1 Z-9.683 F300.
X45.945 Z-9.753 F1000.
X45.921 Z-9.82
X45.883 Z-9.88
X45.833 Z-9.931
X45.773 Z-9.969
X45.706 Z-9.992
X45.635 Z-10.
X45.318
G3 X45. Y150. I0. J-0.318
G1 Y63.229
G3 X50. Y50. I20. J0.
G1 Y0.
X0.
Y50.
G3 X5. Y63.229 I-15. J13.229
G1 Y150.
X45.
G3 X45.318 Y150.318 I0. J0.318
G1 Y150.635
Y150.706 Z-9.992
Y150.773 Z-9.969
Y150.833 Z-9.931
Y150.883 Z-9.88
Y150.921 Z-9.82
Y150.945 Z-9.753
Y150.952 Z-9.683
G0 Z5.
X45.952 Y150.318
G1 Z-10.683 F300.
X45.945 Z-10.753 F1000.
X45.921 Z-10.82
X45.883 Z-10.88
X45.833 Z-10.931
X45.773 Z-10.969
X45.706 Z-10.992
X45.635 Z-11.
X45.318
G3 X45. Y150. I0. J-0.318
G1 Y139.26
Y138.626 F250.
Z-10. F1000.
Y132.451
Z-11. F300.
Y110.337 F1000.
Y109.701 F250.
Z-10. F1000.
Y103.526
Z-11. F300.
Y81.413 F1000.
Y80.778 F250.
Z-10. F1000.
Y74.603
Z-11. F300.
Y63.229 F1000.
G3 X50. Y50. I20. J0.
G1 Y28.722
Y28.087 F250.
Z-10. F1000.
Y21.913
Z-11. F300.
Y0. F1000.
X28.722
X28.087 F250.
Z-10. F1000.
X21.913
Z-11. F300.
X0. F1000.
Y21.278
Y21.913 F250.
Z-10. F1000.
Y28.087
Z-11. F300.
Y50. F1000.
G3 X5. Y63.229 I-15. J13.229
G1 Y73.968
Y74.603 F250.
Z-10. F1000.
Y80.778
Z-11. F300.
Y102.891 F1000.
Y103.526 F250.
Z-10. F1000.
Y109.701
Z-11. F300.
Y131.816 F1000.
Y132.451 F250.
Z-10. F1000.
Y138.626
Z-11. F300.
Y150. F1000.
X21.278
X21.913 F250.
Z-10. F1000.
X28.087
Z-11. F300.
X45. F1000.
G3 X45.318 Y150.318 I0. J0.318
G1 Y150.635
Y150.706 Z-10.992
Y150.773 Z-10.969
Y150.833 Z-10.931
Y150.883 Z-10.88
Y150.921 Z-10.82
Y150.945 Z-10.753
Y150.952 Z-10.683
G0 Z5.
X45.952 Y150.318
G1 Z-11.683 F300.
X45.945 Z-11.753 F1000.
X45.921 Z-11.82
X45.883 Z-11.88
X45.833 Z-11.931
X45.773 Z-11.969
X45.706 Z-11.992
X45.635 Z-12.
X45.318
G3 X45. Y150. I0. J-0.318
G1 Y139.26
Y138.626 F250.
Z-10. F1000.
Y132.451
Z-12. F300.
Y110.337 F1000.
Y109.701 F250.
Z-10. F1000.
Y103.526
Z-12. F300.
Y81.413 F1000.
Y80.778 F250.
Z-10. F1000.
Y74.603
Z-12. F300.
Y63.229 F1000.
G3 X50. Y50. I20. J0.
G1 Y28.722
Y28.087 F250.
Z-10. F1000.
Y21.913
Z-12. F300.
Y0. F1000.
X28.722
X28.087 F250.
Z-10. F1000.
X21.913
Z-12. F300.
X0. F1000.
Y21.278
Y21.913 F250.
Z-10. F1000.
Y28.087
Z-12. F300.
Y50. F1000.
G3 X5. Y63.229 I-15. J13.229
G1 Y73.968
Y74.603 F250.
Z-10. F1000.
Y80.778
Z-12. F300.
Y102.891 F1000.
Y103.526 F250.
Z-10. F1000.
Y109.701
Z-12. F300.
Y131.816 F1000.
Y132.451 F250.
Z-10. F1000.
Y138.626
Z-12. F300.
Y150. F1000.
X21.278
X21.913 F250.
Z-10. F1000.
X28.087
Z-12. F300.
X45. F1000.
G3 X45.318 Y150.318 I0. J0.318
G1 Y150.635
Y150.706 Z-11.992
Y150.773 Z-11.969
Y150.833 Z-11.931
Y150.883 Z-11.88
Y150.921 Z-11.82
Y150.945 Z-11.753
Y150.952 Z-11.683
G0 Z15.

(ADAPTIVE1)
G0 X-3.097 Y50.715
Z15.
Z-1.027
G1 Z-1.344 F1000.
X-3.09 Y50.718 Z-1.415
X-3.068 Y50.727 Z-1.482
X-3.033 Y50.741 Z-1.542
X-2.986 Y50.76 Z-1.592
X-2.931 Y50.782 Z-1.63
X-2.868 Y50.807 Z-1.654
X-2.803 Y50.834 Z-1.662
G3 X-1.263 Y51.657 I-3.031 J7.517
G2 X0.018 Y52.087 I1.271 J-1.666
G1 X0.739 Y52.088
G0 Z5.
X1.237
Z-1.027
G1 Z-1.344 F1000.
X1.245 Z-1.415
X1.269 Z-1.482
X1.307 Z-1.542
X1.357 Z-1.592
X1.417 Z-1.63
X1.484 Z-1.654
X1.555 Z-1.662
X1.828
X1.978 Y52.095
G3 X2.99 Y52.727 I-0.724 J2.285
G1 X3.257 Y53.002
X3.595 Y53.419
X3.893 Y53.852
G3 X5.104 Y56.508 I-11.587 J6.888
X6.188 Y62.289 I-19.076 J6.569
X6.264 Y65.977 I-58.76 J3.047
G1 X6.269 Y67.453
X6.271 Y74.831
X6.274 Y101.392
X6.281 Y146.952
X6.326 Y147.131
X6.491 Y147.461
X6.743 Y147.731
X7.342 Y148.161
X8.037 Y148.408
X8.763 Y148.544
X9.497 Y148.617
X10.233 Y148.656
G2 X14.66 Y148.702 I3.694 J-143.871
G1 X21.3 Y148.707
X41.959 Y148.721
X42.137 Y148.673
X42.466 Y148.505
X42.734 Y148.252
X43.162 Y147.651
X43.407 Y146.955
X43.542 Y146.229
G2 X43.687 Y142.545 I-31.803 J-3.101
G1 X43.696 Y141.808
X43.699 Y140.332
X43.704 Y133.692
X43.706 Y130.74
X43.74 Y80.569
X43.751 Y64.337
G3 X44.167 Y59.198 I25.673 J-0.512
X45.457 Y54.97 I22.029 J4.412
X46.731 Y52.455 I22.569 J9.855
X47.374 Y52.087 I0.648 J0.386
G1 X47.559 Y52.088
G3 X47.834 Y52.564 I0. J0.317
X47.756 Y52.654 I-0.275 J-0.159
G1 X47.735 Y52.67
X47.06 Y53.117
G3 X46.567 Y52.872 I-0.175 J-0.265
X46.722 Y52.58 I0.317 J-0.02
X48.398 Y52.088 I1.798 J3.024
G1 X49.647 Y52.087
X49.948 Y52.086
G0 Z5.
X1.44 Y52.143
Z0.656
G1 Z-1.662 F1000.
G3 X1.828 Y52.088 I0.452 J1.766
G1 X2.793
G3 X3.968 Y52.549 I-0.122 J2.039
X5.013 Y53.639 I-2.639 J3.577
X6.28 Y56.18 I-8.278 J5.711
X7.414 Y61.952 I-19.262 J6.785
X7.531 Y67.114 I-70.908 J4.178
G1 X7.539 Y68.59
X7.541 Y74.492
X7.544 Y101.053
X7.55 Y145.322
X7.628 Y145.683
X7.801 Y146.008
X8.043 Y146.288
X8.617 Y146.751
X9.297 Y147.038
X10.015 Y147.208
G2 X12.956 Y147.407 I2.812 J-19.644
X16.645 Y147.433 I3.188 J-192.661
G1 X22.548 Y147.438
X40.255 Y147.45
X40.62 Y147.394
X40.953 Y147.235
X41.241 Y147.004
X41.719 Y146.442
X42.017 Y145.767
X42.194 Y145.051
G2 X42.403 Y142.11 I-18.787 J-2.814
X42.43 Y138.421 I-183.578 J-3.185
G1 X42.435 Y133.257
X42.44 Y125.141
X42.474 Y74.969
X42.481 Y64.64
G3 X42.851 Y59.495 I30.5 J-0.394
X45.325 Y52.43 I22.06 J3.76
X45.961 Y52.087 I0.653 J0.45
G1 X47.374 Y52.088
G3 X47.632 Y52.573 I-0.011 J0.317
X47.551 Y52.661 I-0.269 J-0.168
G1 X47.494 Y52.703 Z-1.654
X47.44 Y52.742 Z-1.63
X47.391 Y52.778 Z-1.592
X47.351 Y52.808 Z-1.542
X47.32 Y52.83 Z-1.482
X47.301 Y52.844 Z-1.415
X47.295 Y52.849 Z-1.344
G0 Z5.
X1.708 Y52.278
Z-1.027
G1 Z-1.344 F1000.
X1.716 Y52.276 Z-1.415
X1.738 Y52.27 Z-1.482
X1.775 Y52.261 Z-1.542
X1.824 Y52.248 Z-1.592
X1.882 Y52.233 Z-1.63
X1.947 Y52.217 Z-1.654
X2.015 Y52.199 Z-1.662
G3 X2.793 Y52.088 I0.905 J3.532
G1 X4.042
G3 X5.25 Y52.565 I-0.14 J2.121
X6.328 Y53.681 I-2.726 J3.71
X7.562 Y56.169 I-7.859 J5.45
X8.663 Y61.949 I-20.138 J6.83
X8.798 Y67.111 I-68.712 J4.379
G1 X8.808 Y68.586
X8.81 Y71.538
X8.814 Y101.05
X8.82 Y143.843
X8.879 Y144.208
X9.022 Y144.548
X9.239 Y144.846
X9.776 Y145.352
X10.437 Y145.679
X11.148 Y145.879
G2 X14.084 Y146.129 I2.869 J-16.352
G1 X14.822 Y146.146
X15.56 Y146.154
X16.298 Y146.159
X17.035 Y146.161
X18.511 Y146.164
X25.151 Y146.17
X38.801 Y146.179
X39.167 Y146.13
X39.51 Y145.997
X39.814 Y145.787
X40.33 Y145.259
X40.664 Y144.602
X40.869 Y143.893
G2 X41.125 Y140.957 I-15.935 J-2.869
X41.162 Y136.53 I-183.403 J-3.729
G1 X41.167 Y129.89
X41.174 Y120.298
X41.207 Y70.127
G3 X41.233 Y63.487 I293.165 J-2.174
X42.358 Y56.217 I27.092 J0.471
X43.912 Y52.457 I21.304 J6.601
X44.386 Y52.108 I0.706 J0.463
G1 X44.565 Y52.088
X45.961
G3 X46.219 Y52.573 I-0.011 J0.317
X46.138 Y52.661 I-0.269 J-0.168
G1 X46.081 Y52.703 Z-1.654
X46.027 Y52.742 Z-1.63
X45.978 Y52.778 Z-1.592
X45.938 Y52.808 Z-1.542
X45.907 Y52.83 Z-1.482
X45.888 Y52.844 Z-1.415
X45.882 Y52.849 Z-1.344
G0 Z5.
X3.015 Y52.471
Z-1.027
G1 Z-1.344 F1000.
X3.022 Y52.467 Z-1.415
X3.043 Y52.455 Z-1.482
X3.075 Y52.436 Z-1.542
X3.118 Y52.41 Z-1.592
X3.17 Y52.379 Z-1.63
X3.228 Y52.345 Z-1.654
X3.288 Y52.309 Z-1.662
G3 X4.042 Y52.088 I0.809 J1.36
G1 X5.216
G3 X6.658 Y52.665 I-0.078 J2.285
X7.762 Y53.894 I-3.009 J3.814
X8.952 Y56.488 I-8.521 J5.479
X9.937 Y62.292 I-22.157 J6.745
X10.067 Y67.454 I-75.876 J4.495
G1 X10.075 Y68.192
X10.078 Y69.667
X10.08 Y73.356
X10.084 Y100.656
X10.09 Y142.711
X10.196 Y143.064
X10.379 Y143.385
X10.863 Y143.942
X11.501 Y144.313
X12.201 Y144.547
G2 X15.131 Y144.849 I2.906 J-13.79
G1 X15.868 Y144.871
X16.606 Y144.881
X17.344 Y144.887
X18.082 Y144.891
X19.557 Y144.895
X23.984 Y144.899
X37.265 Y144.908
X37.634 Y144.897
X37.993 Y144.811
X38.322 Y144.644
X38.898 Y144.183
X39.284 Y143.555
X39.528 Y142.859
X39.676 Y142.136
G2 X39.872 Y138.455 I-27.002 J-3.283
X39.896 Y131.815 I-454.279 J-4.915
G1 X39.907 Y115.583
X39.94 Y66.887
X39.941 Y66.149
X39.944 Y65.411
G3 X40.322 Y59.526 I39.749 J-0.395
X42.405 Y52.685 I24.951 J3.86
G1 X42.547 Y52.456
G3 X43.188 Y52.088 I0.641 J0.372
G1 X44.565
G3 X44.823 Y52.573 I-0.011 J0.317
X44.742 Y52.661 I-0.269 J-0.168
G1 X44.685 Y52.703 Z-1.654
X44.631 Y52.742 Z-1.63
X44.582 Y52.778 Z-1.592
X44.541 Y52.808 Z-1.542
X44.511 Y52.83 Z-1.482
X44.492 Y52.844 Z-1.415
X44.486 Y52.849 Z-1.344
G0 Z5.
X4.189 Y52.471
Z-1.027
G1 Z-1.344 F1000.
X4.196 Y52.467 Z-1.415
X4.216 Y52.455 Z-1.482
X4.249 Y52.436 Z-1.542
X4.292 Y52.41 Z-1.592
X4.344 Y52.379 Z-1.63
X4.401 Y52.345 Z-1.654
X4.462 Y52.309 Z-1.662
G3 X5.216 Y52.088 I0.809 J1.36
G1 X6.557
G3 X7.984 Y52.694 I-0.14 J2.309
X9.113 Y53.99 I-3.159 J3.893
X10.257 Y56.589 I-8.645 J5.36
X11.198 Y62.401 I-23.654 J6.809
X11.335 Y67.563 I-77.495 J4.643
G1 X11.343 Y68.301
X11.347 Y69.777
X11.35 Y72.728
X11.354 Y100.765
X11.36 Y141.345
X11.445 Y141.704
X11.612 Y142.033
X12.071 Y142.61
X12.697 Y143.001
X13.392 Y143.249
X14.114 Y143.401
G2 X17.794 Y143.605 I3.302 J-26.265
G1 X18.532 Y143.617
X19.27 Y143.621
X20.008 Y143.624
X22.221 Y143.627
X36.24 Y143.637
X36.603 Y143.576
X36.943 Y143.432
X37.244 Y143.218
X37.761 Y142.692
X38.099 Y142.036
X38.309 Y141.329
G2 X38.581 Y138.394 I-15.474 J-2.916
X38.622 Y133.968 I-158.581 J-3.663
G1 X38.627 Y129.541
X38.64 Y110.358
X38.67 Y66.827
G3 X38.88 Y60.93 I61.512 J-0.763
G1 X38.972 Y60.198
G3 X40.861 Y53.089 I26.715 J3.293
G1 X41.069 Y52.658
X41.185 Y52.458
G3 X41.826 Y52.088 I0.642 J0.37
G1 X43.188
G3 X43.446 Y52.573 I-0.011 J0.317
X43.364 Y52.661 I-0.269 J-0.168
G1 X43.307 Y52.703 Z-1.654
X43.253 Y52.742 Z-1.63
X43.205 Y52.778 Z-1.592
X43.164 Y52.808 Z-1.542
X43.134 Y52.83 Z-1.482
X43.115 Y52.844 Z-1.415
X43.108 Y52.849 Z-1.344
G0 Z5.
X5.53 Y52.471
Z-1.027
G1 Z-1.344 F1000.
X5.537 Y52.467 Z-1.415
X5.557 Y52.455 Z-1.482
X5.59 Y52.436 Z-1.542
X5.633 Y52.41 Z-1.592
X5.685 Y52.379 Z-1.63
X5.743 Y52.345 Z-1.654
X5.803 Y52.309 Z-1.662
G3 X6.557 Y52.088 I0.809 J1.36
G1 X7.823
G3 X9.234 Y52.664 I-0.113 J2.29
X10.327 Y53.881 I-2.964 J3.763
X11.488 Y56.457 I-8.218 J5.252
X12.445 Y62.268 I-23.944 J6.929
X12.604 Y68.167 I-83.065 J5.194
G1 X12.613 Y68.905
X12.617 Y70.38
X12.62 Y73.331
X12.624 Y100.631
X12.63 Y139.735
X12.65 Y140.103
X12.741 Y140.461
X12.913 Y140.787
X13.382 Y141.356
X14.012 Y141.741
X14.708 Y141.985
X15.431 Y142.134
G2 X19.111 Y142.336 I3.308 J-26.742
X22.8 Y142.356 I2.955 J-197.4
G1 X29.441 Y142.363
X34.605 Y142.366
X34.974 Y142.364
X35.337 Y142.296
X35.675 Y142.149
X35.975 Y141.934
X36.487 Y141.403
X36.825 Y140.747
X37.036 Y140.04
G2 X37.311 Y137.106 I-15.401 J-2.925
X37.358 Y128.99 I-331.128 J-5.959
G1 X37.374 Y105.38
X37.399 Y67.752
G3 X37.601 Y61.117 I75.975 J-1.006
X38.727 Y55.33 I31.523 J3.131
X39.673 Y52.745 I21.779 J6.501
G1 X39.827 Y52.467
G3 X40.476 Y52.087 I0.652 J0.37
G1 X41.826 Y52.088
G3 X42.084 Y52.573 I-0.011 J0.317
X42.003 Y52.661 I-0.269 J-0.168
G1 X41.946 Y52.703 Z-1.654
X41.892 Y52.742 Z-1.63
X41.843 Y52.778 Z-1.592
X41.803 Y52.808 Z-1.542
X41.772 Y52.83 Z-1.482
X41.753 Y52.844 Z-1.415
X41.747 Y52.849 Z-1.344
G0 Z5.
X6.796 Y52.471
Z-1.027
G1 Z-1.344 F1000.
X6.803 Y52.467 Z-1.415
X6.823 Y52.455 Z-1.482
X6.856 Y52.436 Z-1.542
X6.899 Y52.41 Z-1.592
X6.951 Y52.379 Z-1.63
X7.009 Y52.345 Z-1.654
X7.069 Y52.309 Z-1.662
G3 X7.823 Y52.088 I0.809 J1.36
G1 X9.164
G3 X10.378 Y52.553 I-0.129 J2.151
X11.732 Y54.08 I-2.922 J3.955
X12.835 Y56.722 I-8.712 J5.189
X13.719 Y62.545 I-26.096 J6.94
X13.87 Y67.707 I-79.709 J4.913
X13.89 Y72.872 I-426.536 J4.217
G1 X13.892 Y82.463
X13.894 Y100.909
X13.899 Y138.537
X13.935 Y138.904
X14.043 Y139.257
X14.229 Y139.576
X14.72 Y140.127
X15.358 Y140.497
X16.058 Y140.731
G2 X18.987 Y141.039 I2.929 J-13.775
X25.627 Y141.087 I4.93 J-221.556
G1 X33.743 Y141.096
X34.103 Y141.016
X34.437 Y140.857
X34.732 Y140.636
X35.234 Y140.095
X35.564 Y139.436
X35.771 Y138.728
G2 X36.042 Y135.793 I-15.732 J-2.931
X36.088 Y127.677 I-334.431 J-5.967
G1 X36.108 Y99.64
X36.129 Y67.914
G3 X36.329 Y61.279 I80.385 J-0.907
X37.821 Y54.069 I32.23 J2.914
X38.503 Y52.438 I9.215 J2.894
X39.138 Y52.087 I0.642 J0.412
G1 X40.476 Y52.088
G3 X40.734 Y52.573 I-0.011 J0.317
X40.652 Y52.661 I-0.269 J-0.168
G1 X40.595 Y52.703 Z-1.654
X40.541 Y52.742 Z-1.63
X40.493 Y52.778 Z-1.592
X40.452 Y52.808 Z-1.542
X40.422 Y52.83 Z-1.482
X40.403 Y52.844 Z-1.415
X40.396 Y52.849 Z-1.344
G0 Z5.
X8.138 Y52.471
Z-1.027
G1 Z-1.344 F1000.
X8.144 Y52.467 Z-1.415
X8.165 Y52.455 Z-1.482
X8.197 Y52.436 Z-1.542
X8.24 Y52.41 Z-1.592
X8.292 Y52.379 Z-1.63
X8.35 Y52.345 Z-1.654
X8.411 Y52.309 Z-1.662
G3 X9.164 Y52.088 I0.809 J1.36
G1 X10.413
G3 X11.82 Y52.679 I-0.131 J2.28
X12.902 Y53.907 I-3.006 J3.738
X14.036 Y56.495 I-8.178 J5.126
X14.907 Y61.576 I-24.087 J6.744
X15.137 Y68.21 I-78.37 J6.045
G1 X15.149 Y68.948
X15.155 Y70.424
X15.159 Y72.637
X15.161 Y77.802
X15.164 Y100.674
X15.169 Y137.565
X15.27 Y137.92
X15.446 Y138.244
X15.917 Y138.811
X16.547 Y139.195
X17.243 Y139.44
X17.966 Y139.591
G2 X21.646 Y139.796 I3.321 J-26.435
X27.548 Y139.821 I4.449 J-363.651
G1 X32.344 Y139.825
X32.709 Y139.768
X33.053 Y139.636
X33.362 Y139.434
X33.894 Y138.923
X34.249 Y138.276
X34.472 Y137.573
G2 X34.768 Y134.642 I-14.445 J-2.939
X34.814 Y130.215 I-143.01 J-3.683
G1 X34.819 Y126.526
X34.84 Y95.538
X34.858 Y68.977
G3 X34.949 Y63.075 I133.346 J-0.91
X36.2 Y55.073 I36.257 J1.569
X37.063 Y52.621 I17.982 J4.956
G1 X37.161 Y52.462
G3 X37.805 Y52.088 I0.644 J0.366
G1 X39.138
G3 X39.396 Y52.573 I-0.011 J0.317
X39.315 Y52.661 I-0.269 J-0.168
G1 X39.258 Y52.703 Z-1.654
X39.204 Y52.742 Z-1.63
X39.155 Y52.778 Z-1.592
X39.115 Y52.808 Z-1.542
X39.084 Y52.83 Z-1.482
X39.065 Y52.844 Z-1.415
X39.059 Y52.849 Z-1.344
G0 Z5.
X9.387 Y52.471
Z-1.027
G1 Z-1.344 F1000.
X9.394 Y52.467 Z-1.415
X9.414 Y52.455 Z-1.482
X9.446 Y52.436 Z-1.542
X9.489 Y52.41 Z-1.592
X9.541 Y52.379 Z-1.63
X9.599 Y52.345 Z-1.654
X9.66 Y52.309 Z-1.662
G3 X10.413 Y52.088 I0.809 J1.36
G1 X11.679
G3 X13.078 Y52.663 I-0.113 J2.261
X14.148 Y53.865 I-2.934 J3.692
X15.279 Y56.424 I-7.985 J5.057
X16.157 Y61.504 I-24.234 J6.806
X16.404 Y68.138 I-77.026 J6.183
X16.429 Y73.303 I-315.48 J4.141
G1 X16.431 Y79.205
X16.434 Y100.602
X16.439 Y136.017
X16.478 Y136.384
X16.592 Y136.734
X16.782 Y137.051
X17.278 Y137.597
X17.918 Y137.963
X18.619 Y138.195
G2 X21.549 Y138.5 I2.934 J-13.934
X30.402 Y138.548 I6.114 J-312.466
G1 X31.14 Y138.554
X31.502 Y138.486
X31.841 Y138.34
X32.143 Y138.127
X32.659 Y137.6
X33.001 Y136.947
X33.217 Y136.241
G2 X33.501 Y133.308 I-15.058 J-2.939
X33.55 Y125.192 I-315.032 J-5.964
G1 X33.574 Y89.777
X33.589 Y69.118
G3 X33.769 Y61.744 I106.27 J-1.089
X34.871 Y55.204 I37.915 J3.023
X35.705 Y52.695 I18.81 J4.861
G1 X35.847 Y52.442
G3 X36.479 Y52.087 I0.633 J0.387
G1 X37.805 Y52.088
G3 X38.063 Y52.573 I-0.011 J0.317
X37.982 Y52.661 I-0.269 J-0.168
G1 X37.925 Y52.703 Z-1.654
X37.871 Y52.742 Z-1.63
X37.822 Y52.778 Z-1.592
X37.782 Y52.808 Z-1.542
X37.751 Y52.83 Z-1.482
X37.732 Y52.844 Z-1.415
X37.726 Y52.849 Z-1.344
G0 Z5.
X10.653 Y52.471
Z-1.027
G1 Z-1.344 F1000.
X10.659 Y52.467 Z-1.415
X10.68 Y52.455 Z-1.482
X10.712 Y52.436 Z-1.542
X10.755 Y52.41 Z-1.592
X10.807 Y52.379 Z-1.63
X10.865 Y52.345 Z-1.654
X10.926 Y52.309 Z-1.662
G3 X11.679 Y52.088 I0.809 J1.36
G1 X12.928
G3 X14.344 Y52.658 I-0.083 J2.25
X15.403 Y53.842 I-2.895 J3.656
X16.527 Y56.374 I-7.866 J5.006
X17.41 Y61.453 I-24.396 J6.857
X17.67 Y68.086 I-76.272 J6.314
X17.701 Y77.678 I-683.131 J7.003
G1 X17.704 Y100.55
X17.709 Y134.489
X17.712 Y134.858
X17.772 Y135.222
X17.914 Y135.563
X18.123 Y135.867
X18.646 Y136.388
X19.298 Y136.733
X20.003 Y136.95
G2 X22.936 Y137.235 I2.933 J-14.954
X29.944 Y137.272 I4.664 J-217.505
G1 X30.303 Y137.185
X30.635 Y137.023
X31.222 Y136.576
X31.621 Y135.956
X31.877 Y135.264
X32.036 Y134.543
G2 X32.244 Y131.601 I-20.858 J-2.952
X32.278 Y127.175 I-212.619 J-3.839
G1 X32.282 Y122.01
X32.307 Y85.119
X32.318 Y69.625
G3 X32.473 Y62.25 I123.524 J-1.101
X33.636 Y54.974 I39.862 J2.641
X34.424 Y52.621 I15.821 J3.991
G1 X34.516 Y52.468
G3 X35.164 Y52.088 I0.647 J0.36
G1 X36.479
G3 X36.737 Y52.573 I-0.011 J0.317
X36.656 Y52.661 I-0.269 J-0.168
G1 X36.599 Y52.703 Z-1.654
X36.545 Y52.742 Z-1.63
X36.496 Y52.778 Z-1.592
X36.456 Y52.808 Z-1.542
X36.425 Y52.83 Z-1.482
X36.406 Y52.844 Z-1.415
X36.4 Y52.849 Z-1.344
G0 Z5.
X11.902 Y52.471
Z-1.027
G1 Z-1.344 F1000.
X11.909 Y52.467 Z-1.415
X11.929 Y52.455 Z-1.482
X11.961 Y52.436 Z-1.542
X12.004 Y52.41 Z-1.592
X12.056 Y52.379 Z-1.63
X12.114 Y52.345 Z-1.654
X12.175 Y52.309 Z-1.662
G3 X12.928 Y52.088 I0.809 J1.36
G1 X14.269
G3 X15.702 Y52.727 I-0.166 J2.297
X16.777 Y54.007 I-3.137 J3.728
X17.86 Y56.615 I-8.429 J5.028
X18.689 Y61.704 I-26.269 J6.894
X18.94 Y68.338 I-81.439 J6.394
X18.971 Y77.93 I-694.186 J7.07
G1 X18.974 Y100.802
X18.979 Y133.266
X18.986 Y133.634
X19.058 Y133.996
X19.21 Y134.333
X19.426 Y134.631
X19.96 Y135.141
X20.616 Y135.478
X21.323 Y135.689
G2 X24.257 Y135.967 I2.936 J-15.383
X28.683 Y136.009 I3.688 J-152.955
G1 X29.042 Y135.926
X29.374 Y135.764
X29.956 Y135.311
X30.355 Y134.69
X30.61 Y133.998
X30.768 Y133.277
G2 X30.975 Y130.336 I-20.947 J-2.951
X31.008 Y125.909 I-213.493 J-3.841
G1 X31.013 Y120.744
X31.041 Y80.164
X31.048 Y69.835
G3 X31.199 Y62.459 I130.529 J-1.03
X32.293 Y55.172 I42.329 J2.634
X33.079 Y52.69 I17.444 J4.159
G1 X33.217 Y52.443
G3 X33.85 Y52.087 I0.633 J0.386
G1 X35.164 Y52.088
G3 X35.422 Y52.573 I-0.011 J0.317
X35.34 Y52.661 I-0.269 J-0.168
G1 X35.283 Y52.703 Z-1.654
X35.229 Y52.742 Z-1.63
X35.181 Y52.778 Z-1.592
X35.14 Y52.808 Z-1.542
X35.11 Y52.83 Z-1.482
X35.091 Y52.844 Z-1.415
X35.084 Y52.849 Z-1.344
G0 Z5.
X13.243 Y52.471
Z-1.027
G1 Z-1.344 F1000.
X13.25 Y52.467 Z-1.415
X13.27 Y52.455 Z-1.482
X13.303 Y52.436 Z-1.542
X13.346 Y52.41 Z-1.592
X13.398 Y52.379 Z-1.63
X13.455 Y52.345 Z-1.654
X13.516 Y52.309 Z-1.662
G3 X14.269 Y52.088 I0.809 J1.36
G1 X15.535
G3 X16.727 Y52.535 I-0.111 J2.106
X18.007 Y53.948 I-2.737 J3.766
X19.101 Y56.544 I-8.228 J4.994
X19.941 Y61.632 I-26.161 J6.936
X20.205 Y68.265 I-80.22 J6.517
X20.241 Y78.594 I-703.749 J7.588
G1 X20.244 Y100.728
X20.249 Y132.455
X20.346 Y132.81
X20.517 Y133.137
X20.979 Y133.712
X21.605 Y134.103
X22.3 Y134.352
X23.021 Y134.507
G2 X26.701 Y134.719 I3.329 J-25.753
G1 X27.439 Y134.731
X27.797 Y134.644
X28.126 Y134.478
X28.704 Y134.019
X29.097 Y133.395
X29.348 Y132.701
X29.504 Y131.98
G2 X29.716 Y128.3 I-25.671 J-3.327
G1 X29.729 Y127.562
X29.733 Y126.824
X29.738 Y125.349
X29.742 Y122.398
X29.774 Y75.177
X29.778 Y70.013
G3 X29.926 Y62.637 I136.361 J-0.955
X31.142 Y54.624 I43.667 J2.526
G1 X31.345 Y53.915
X31.568 Y53.211
X31.73 Y52.801
X31.869 Y52.517
G3 X32.545 Y52.087 I0.684 J0.33
G1 X33.85 Y52.088
G3 X34.108 Y52.573 I-0.011 J0.317
X34.027 Y52.661 I-0.269 J-0.168
G1 X33.97 Y52.703 Z-1.654
X33.916 Y52.742 Z-1.63
X33.867 Y52.778 Z-1.592
X33.827 Y52.808 Z-1.542
X33.796 Y52.83 Z-1.482
X33.777 Y52.844 Z-1.415
X33.771 Y52.849 Z-1.344
G0 Z5.
X14.509 Y52.471
Z-1.027
G1 Z-1.344 F1000.
X14.516 Y52.467 Z-1.415
X14.536 Y52.455 Z-1.482
X14.568 Y52.436 Z-1.542
X14.612 Y52.41 Z-1.592
X14.663 Y52.379 Z-1.63
X14.721 Y52.345 Z-1.654
X14.782 Y52.309 Z-1.662
G3 X15.535 Y52.088 I0.809 J1.36
G1 X16.784
G3 X18.18 Y52.678 I-0.128 J2.247
X19.232 Y53.883 I-2.939 J3.629
X20.336 Y56.454 I-8.041 J4.975
X21.192 Y61.539 I-25.914 J6.976
X21.477 Y68.909 I-84.892 J6.981
X21.511 Y77.763 I-592.487 J6.651
G1 X21.514 Y100.635
X21.518 Y130.885
X21.55 Y131.253
X21.653 Y131.607
X21.834 Y131.929
X22.316 Y132.487
X22.95 Y132.864
X23.648 Y133.103
G2 X26.208 Y133.388 I2.419 J-10.101
G1 X26.567 Y133.299
X26.895 Y133.13
X27.466 Y132.662
X27.851 Y132.033
X28.095 Y131.337
X28.245 Y130.614
G2 X28.448 Y126.934 I-26.715 J-3.317
X28.472 Y120.294 I-417.849 J-4.814
G1 X28.507 Y70.86
X28.509 Y70.122
G3 X28.704 Y62.01 I127.175 J-1.001
X29.827 Y54.726 I45.549 J3.295
G1 X30.022 Y54.014
X30.235 Y53.308
X30.401 Y52.865
X30.543 Y52.564
G3 X31.052 Y52.112 I0.739 J0.32
G1 X31.245 Y52.088
X32.545
G3 X32.804 Y52.573 I-0.011 J0.317
X32.722 Y52.661 I-0.269 J-0.168
G1 X32.665 Y52.703 Z-1.654
X32.611 Y52.742 Z-1.63
X32.563 Y52.778 Z-1.592
X32.522 Y52.808 Z-1.542
X32.492 Y52.83 Z-1.482
X32.473 Y52.844 Z-1.415
X32.466 Y52.849 Z-1.344
G0 Z5.
X15.758 Y52.471
Z-1.027
G1 Z-1.344 F1000.
X15.765 Y52.467 Z-1.415
X15.785 Y52.455 Z-1.482
X15.818 Y52.436 Z-1.542
X15.861 Y52.41 Z-1.592
X15.912 Y52.379 Z-1.63
X15.97 Y52.345 Z-1.654
X16.031 Y52.309 Z-1.662
G3 X16.784 Y52.088 I0.809 J1.36
G1 X18.05
G3 X19.445 Y52.678 I-0.127 J2.243
X20.496 Y53.885 I-2.954 J3.635
X21.593 Y56.441 I-8.005 J4.946
X22.449 Y61.526 I-26.09 J7.011
X22.745 Y68.896 I-84.799 J7.086
X22.781 Y79.226 I-681.015 J7.577
G1 X22.784 Y100.622
X22.788 Y129.397
X22.791 Y129.766
X22.849 Y130.13
X22.987 Y130.472
X23.195 Y130.777
X23.714 Y131.302
X24.364 Y131.65
X24.717 Y131.758
X25.085 Y131.783
X25.441 Y131.687
X25.759 Y131.5
X26.304 Y131.003
X26.659 Y130.356
X26.878 Y129.652
G2 X27.158 Y126.718 I-14.915 J-2.904
X27.203 Y118.603 I-319.742 J-5.831
G1 X27.207 Y114.914
X27.237 Y71.383
G3 X27.306 Y64.743 I237.556 J-0.844
X28.259 Y55.951 I53.395 J1.34
X28.994 Y53.133 I28.505 J5.923
G1 X29.153 Y52.747
X29.281 Y52.492
G3 X29.943 Y52.087 I0.667 J0.346
G1 X31.245 Y52.088
G3 X31.503 Y52.573 I-0.011 J0.317
X31.422 Y52.661 I-0.269 J-0.168
G1 X31.365 Y52.703 Z-1.654
X31.311 Y52.742 Z-1.63
X31.262 Y52.778 Z-1.592
X31.222 Y52.808 Z-1.542
X31.191 Y52.83 Z-1.482
X31.172 Y52.844 Z-1.415
X31.166 Y52.849 Z-1.344
G0 Z5.
X17.024 Y52.471
Z-1.027
G1 Z-1.344 F1000.
X17.031 Y52.467 Z-1.415
X17.051 Y52.455 Z-1.482
X17.083 Y52.436 Z-1.542
X17.127 Y52.41 Z-1.592
X17.178 Y52.379 Z-1.63
X17.236 Y52.345 Z-1.654
X17.297 Y52.309 Z-1.662
G3 X18.05 Y52.088 I0.809 J1.36
G1 X19.299
G3 X20.911 Y52.778 I-0.027 J2.289
X22.153 Y54.454 I-3.476 J3.874
X23.251 Y57.745 I-11.164 J5.555
X23.895 Y62.546 I-30.087 J6.478
X24.129 Y69.122 I-87.408 J6.402
X24.165 Y79.451 I-715.759 J7.674
G1 X24.169 Y100.848
X24.172 Y128.147
X24.177 Y128.516
X24.213 Y128.697
X24.241 Y128.784
G3 X23.859 Y129.18 I-0.305 J0.087
X23.75 Y129.129 I0.077 J-0.308
G1 X23.693 Y129.088 Z-1.654
X23.639 Y129.049 Z-1.63
X23.59 Y129.013 Z-1.592
X23.549 Y128.984 Z-1.542
X23.518 Y128.962 Z-1.482
X23.499 Y128.948 Z-1.415
X23.493 Y128.944 Z-1.344
G0 Z5.
X18.273 Y52.471
Z-1.027
G1 Z-1.344 F1000.
X18.28 Y52.467 Z-1.415
X18.3 Y52.455 Z-1.482
X18.332 Y52.436 Z-1.542
X18.376 Y52.41 Z-1.592
X18.427 Y52.379 Z-1.63
X18.485 Y52.345 Z-1.654
X18.546 Y52.309 Z-1.662
G3 X19.299 Y52.088 I0.809 J1.36
G1 X20.641
G3 X22.255 Y52.777 I-0.016 J2.269
X23.492 Y54.457 I-3.514 J3.885
X24.597 Y57.73 I-11.289 J5.636
X25.27 Y62.649 I-30.284 J6.646
X25.415 Y65.051 I-41.959 J3.746
G1 X25.409 Y65.116
X25.39 Y65.178
X25.358 Y65.235
X25.315 Y65.284
X25.263 Y65.324
X25.204 Y65.352
X25.141 Y65.367
X25.076 Y65.369
X25.011 Y65.358
X24.951 Y65.333
X24.896 Y65.297
X24.851 Y65.251
X24.821 Y65.207
X24.799 Y65.158
X20.415 Y52.69
X20.352 Y52.51
G3 X20.641 Y52.088 I0.3 J-0.105
G1 X21.982
G3 X23.353 Y52.647 I-0.092 J2.188
X24.389 Y53.813 I-2.847 J3.574
G1 X24.695 Y54.321
X25.019 Y54.979
G3 X25.59 Y56.634 I-12.053 J5.08
G1 X25.598 Y56.699
X25.593 Y56.765
X25.574 Y56.827
X25.543 Y56.885
X25.501 Y56.935
X25.45 Y56.976
X25.391 Y57.005
X25.328 Y57.021
X25.262 Y57.024
X25.198 Y57.014
X25.137 Y56.99
X25.082 Y56.955
X25.053 Y56.929
X25.028 Y56.899
X21.796 Y52.67
X21.741 Y52.598
G3 X21.706 Y52.269 I0.252 J-0.193
X21.982 Y52.088 I0.287 J0.136
G1 X23.248
G3 X24.857 Y52.783 I-0.032 J2.283
X25.899 Y54.095 I-3.125 J3.553
G2 X27.04 Y54.131 I0.585 J-0.468
G1 X27.459 Y53.523
G3 X27.888 Y52.475 I6.279 J1.96
X28.541 Y52.087 I0.656 J0.362
G1 X29.943 Y52.088
G3 X30.202 Y52.573 I-0.011 J0.317
X30.12 Y52.661 I-0.269 J-0.168
G1 X30.063 Y52.703 Z-1.654
X30.009 Y52.742 Z-1.63
X29.961 Y52.778 Z-1.592
X29.92 Y52.808 Z-1.542
X29.889 Y52.83 Z-1.482
X29.871 Y52.844 Z-1.415
X29.864 Y52.849 Z-1.344
G0 Z5.
X22.221 Y52.471
Z-1.027
G1 Z-1.344 F1000.
X22.228 Y52.467 Z-1.415
X22.248 Y52.455 Z-1.482
X22.281 Y52.436 Z-1.542
X22.324 Y52.41 Z-1.592
X22.376 Y52.379 Z-1.63
X22.434 Y52.345 Z-1.654
X22.494 Y52.309 Z-1.662
G3 X23.248 Y52.088 I0.809 J1.36
G1 X24.589
X28.541
G3 X28.8 Y52.573 I-0.011 J0.317
X28.718 Y52.661 I-0.269 J-0.168
G1 X28.661 Y52.703 Z-1.654
X28.607 Y52.742 Z-1.63
X28.558 Y52.778 Z-1.592
X28.518 Y52.808 Z-1.542
X28.487 Y52.83 Z-1.482
X28.469 Y52.844 Z-1.415
X28.462 Y52.849 Z-1.344
G0 Z5.
X1.859 Y52.262
Z-1.027
G1 Z-1.344 F1000.
X1.852 Y52.261 Z-1.415
X1.828 Z-1.482
X1.79 Y52.26 Z-1.542
X1.74 Y52.258 Z-1.592
X1.68 Y52.257 Z-1.63
X1.613 Y52.255 Z-1.654
X1.542 Y52.253 Z-1.662
X0.015 Y52.213
X0.061 Y52.215 F900.
X-0.106 Y52.933 F1000.
G2 X-0.286 Y55.876 I19.935 J2.694
X-0.304 Y63.254 I503.467 J4.936
G1 X-0.301 Y102.359
X-0.298 Y148.472
X-0.278 Y148.655
X-0.149 Y149.001
X0.088 Y149.283
X0.671 Y149.736
X1.361 Y149.997
X1.723 Y150.069
X1.905 Y150.097
X2.089 Y150.079
X2.262 Y150.016
X2.571 Y149.814
X3.071 Y149.271
X3.361 Y148.593
X3.522 Y147.873
G2 X3.691 Y144.929 I-21.298 J-2.698
G1 X3.701 Y144.191
X3.704 Y143.453
X3.707 Y141.978
X3.709 Y136.813
X3.713 Y99.184
X3.716 Y63.031
G2 X2.26 Y56.03 I-19.141 J0.328
G1 X2.242 Y55.968
X2.236 Y55.903
X2.245 Y55.839
X2.266 Y55.778
X2.299 Y55.722
X2.343 Y55.674
X2.396 Y55.636
X2.455 Y55.61
X2.519 Y55.597
X2.584 Y55.596
X2.648 Y55.61
X2.708 Y55.636
G3 X2.865 Y55.866 I-0.157 J0.276
G1 X3.038 Y57.073
X3.089 Y57.421
G3 X2.883 Y57.765 I-0.314 J0.045
G1 X2.74 Y57.811
X2.563 Y57.863
X2.24 Y58.041
X1.982 Y58.305
X1.575 Y58.921
X1.348 Y59.622
X1.224 Y60.35
G2 X1.091 Y64.035 I34.529 J3.09
G1 X1.083 Y64.772
X1.081 Y66.248
Y72.888
X1.083 Y107.566
X1.086 Y146.67
X1.091 Y146.854
X1.106 Y146.945
X1.129 Y147.035
G3 X0.721 Y147.403 I-0.31 J0.067
X0.616 Y147.346 I0.098 J-0.302
G1 X0.561 Y147.301 Z-1.654
X0.51 Y147.258 Z-1.63
X0.463 Y147.219 Z-1.592
X0.425 Y147.187 Z-1.542
X0.395 Y147.163 Z-1.482
X0.377 Y147.148 Z-1.415
X0.371 Y147.143 Z-1.344
G0 Z5.
X50.312 Y153.676
Z-1.027
G1 Z-1.344 F1000.
X50.31 Y153.668 Z-1.415
X50.304 Y153.646 Z-1.482
X50.295 Y153.609 Z-1.542
X50.282 Y153.56 Z-1.592
X50.267 Y153.502 Z-1.63
X50.251 Y153.437 Z-1.654
X50.233 Y153.369 Z-1.662
G3 X49.985 Y151.64 I7.852 J-2.011
G1 Y151.49
X50.132 Y150.767
G2 X50.286 Y147.822 I-23.325 J-2.695
G1 X50.295 Y147.084
X50.298 Y146.346
X50.301 Y144.871
X50.302 Y138.968
X50.301 Y101.34
G2 X50.232 Y99.408 I-26.982 J-0.004
G3 X50.188 Y94.964 I162.534 J-3.823
G1 X50.186 Y90.538
X50.185 Y55.122
G2 X49.062 Y54.584 I-0.735 J0.092
G1 X48.774 Y54.814
X48.327 Y55.401
X47.962 Y56.042
X47.645 Y56.709
X47.378 Y57.397
G2 X46.559 Y60.224 I10.381 J4.543
X46.31 Y63.16 I15.913 J2.825
X46.285 Y66.849 I172.083 J3.002
G1 Y73.49
X46.288 Y106.691
G2 X46.358 Y108.623 I26.984 J0.002
G3 X46.402 Y113.066 I-162.54 J3.835
G1 X46.404 Y117.493
X46.407 Y147.744
X46.605 Y148.455
X46.748 Y148.795
G2 X47.246 Y149.326 I1.182 J-0.609
X48.106 Y149.224 I0.359 J-0.648
G1 X48.345 Y148.943
X48.603 Y148.251
X48.746 Y147.528
G2 X48.9 Y144.582 I-23.943 J-2.731
G1 X48.91 Y143.844
X48.913 Y143.107
X48.916 Y141.631
X48.917 Y137.204
X48.916 Y101.789
G3 X48.805 Y92.936 I235.593 J-7.396
G1 X48.801 Y72.278
Y60.104
G3 X49.098 Y59.798 I0.317 J0.011
G1 X49.118 Y59.797 Z-1.661
X49.171 Y59.811 Z-1.652
X49.222 Y59.824 Z-1.634
X49.27 Y59.836 Z-1.607
X49.305 Y59.867 Z-1.568
X49.334 Y59.892 Z-1.52
X49.356 Y59.911 Z-1.465
X49.369 Y59.923 Z-1.406
X49.374 Y59.927 Z-1.345
G0 Z5.
X-3.097 Y50.715
Z-1.927
G1 Z-2.244 F1000.
X-3.09 Y50.718 Z-2.315
X-3.068 Y50.727 Z-2.382
X-3.033 Y50.741 Z-2.442
X-2.986 Y50.76 Z-2.492
X-2.931 Y50.782 Z-2.53
X-2.868 Y50.807 Z-2.554
X-2.803 Y50.834 Z-2.562
G3 X-1.263 Y51.657 I-3.031 J7.517
G2 X0.018 Y52.087 I1.271 J-1.666
G1 X0.739 Y52.088
G0 Z5.
X1.237
Z-1.927
G1 Z-2.244 F1000.
X1.245 Z-2.315
X1.269 Z-2.382
X1.307 Z-2.442
X1.357 Z-2.492
X1.417 Z-2.53
X1.484 Z-2.554
X1.555 Z-2.562
X1.828
X1.978 Y52.095
G3 X2.99 Y52.728 I-0.724 J2.286
G1 X3.257 Y53.003
X3.596 Y53.42
X3.893 Y53.853
G3 X5.104 Y56.51 I-11.589 J6.888
X6.188 Y62.291 I-19.076 J6.568
X6.264 Y65.978 I-58.804 J3.047
G1 X6.269 Y67.454
X6.271 Y74.832
X6.274 Y101.393
X6.281 Y146.954
X6.326 Y147.132
X6.491 Y147.462
X6.744 Y147.731
X7.343 Y148.162
X8.038 Y148.408
X8.764 Y148.544
X9.498 Y148.617
X10.234 Y148.656
G2 X14.661 Y148.702 I3.695 J-144.069
G1 X21.301 Y148.707
X41.96 Y148.721
X42.138 Y148.673
X42.466 Y148.504
X42.734 Y148.251
X43.162 Y147.65
X43.407 Y146.954
X43.542 Y146.228
G2 X43.687 Y142.544 I-31.826 J-3.101
G1 X43.696 Y141.807
X43.699 Y140.331
X43.704 Y133.691
X43.706 Y130.739
X43.74 Y80.568
X43.751 Y64.336
G3 X44.167 Y59.197 I25.668 J-0.512
X45.457 Y54.969 I22.028 J4.413
X46.731 Y52.455 I22.565 J9.854
X47.374 Y52.087 I0.648 J0.386
G1 X47.559 Y52.088
G3 X47.834 Y52.564 I0. J0.317
X47.756 Y52.654 I-0.275 J-0.159
G1 X47.735 Y52.67
X47.06 Y53.117
G3 X46.567 Y52.872 I-0.175 J-0.265
X46.722 Y52.58 I0.317 J-0.02
X48.398 Y52.088 I1.798 J3.024
G1 X49.647 Y52.087
X49.948 Y52.086
G0 Z5.
X1.44 Y52.143
Z-0.244
G1 Z-2.562 F1000.
G3 X1.828 Y52.088 I0.452 J1.766
G1 X2.793
G3 X3.968 Y52.549 I-0.123 J2.039
X5.014 Y53.64 I-2.64 J3.578
X6.28 Y56.181 I-8.279 J5.711
X7.414 Y61.952 I-19.263 J6.784
X7.531 Y67.114 I-70.929 J4.178
G1 X7.539 Y68.59
X7.541 Y74.493
X7.544 Y101.054
X7.55 Y145.323
X7.628 Y145.684
X7.802 Y146.009
X8.043 Y146.288
X8.617 Y146.751
X9.297 Y147.038
X10.015 Y147.208
G2 X12.957 Y147.407 I2.811 J-19.65
X16.646 Y147.433 I3.187 J-192.57
G1 X22.548 Y147.438
X40.256 Y147.45
X40.62 Y147.393
X40.953 Y147.235
X41.241 Y147.004
X41.719 Y146.442
X42.017 Y145.767
X42.194 Y145.051
G2 X42.403 Y142.11 I-18.794 J-2.814
X42.43 Y138.421 I-183.689 J-3.185
G1 X42.435 Y133.256
X42.44 Y125.14
X42.474 Y74.969
X42.481 Y64.639
G3 X42.851 Y59.494 I30.496 J-0.393
X45.325 Y52.43 I22.059 J3.76
X45.961 Y52.087 I0.653 J0.45
G1 X47.374 Y52.088
G3 X47.632 Y52.573 I-0.011 J0.317
X47.551 Y52.661 I-0.269 J-0.168
G1 X47.494 Y52.703 Z-2.554
X47.44 Y52.742 Z-2.53
X47.391 Y52.778 Z-2.492
X47.351 Y52.808 Z-2.442
X47.32 Y52.83 Z-2.382
X47.301 Y52.844 Z-2.315
X47.295 Y52.849 Z-2.244
G0 Z5.
X1.708 Y52.278
Z-1.927
G1 Z-2.244 F1000.
X1.716 Y52.276 Z-2.315
X1.738 Y52.27 Z-2.382
X1.775 Y52.261 Z-2.442
X1.824 Y52.248 Z-2.492
X1.882 Y52.233 Z-2.53
X1.947 Y52.217 Z-2.554
X2.015 Y52.199 Z-2.562
G3 X2.793 Y52.088 I0.905 J3.532
G1 X4.042
G3 X5.25 Y52.565 I-0.14 J2.121
X6.328 Y53.681 I-2.726 J3.71
X7.562 Y56.169 I-7.859 J5.45
X8.663 Y61.949 I-20.138 J6.83
X8.798 Y67.111 I-68.718 J4.379
G1 X8.808 Y68.586
X8.81 Y71.538
X8.814 Y101.05
X8.82 Y143.844
X8.879 Y144.208
X9.022 Y144.548
X9.239 Y144.846
X9.776 Y145.352
X10.438 Y145.679
X11.148 Y145.879
G2 X14.084 Y146.129 I2.869 J-16.352
G1 X14.822 Y146.146
X15.56 Y146.154
X16.298 Y146.159
X17.035 Y146.161
X18.511 Y146.164
X25.151 Y146.17
X38.801 Y146.179
X39.167 Y146.13
X39.511 Y145.997
X39.814 Y145.787
X40.33 Y145.259
X40.664 Y144.601
X40.869 Y143.893
G2 X41.125 Y140.957 I-15.936 J-2.869
X41.162 Y136.53 I-183.409 J-3.729
G1 X41.167 Y129.89
X41.174 Y120.298
X41.207 Y70.127
G3 X41.233 Y63.486 I293.132 J-2.174
X42.358 Y56.217 I27.092 J0.471
X43.912 Y52.457 I21.303 J6.601
X44.386 Y52.108 I0.706 J0.463
G1 X44.565 Y52.088
X45.961
G3 X46.219 Y52.573 I-0.011 J0.317
X46.138 Y52.661 I-0.269 J-0.168
G1 X46.081 Y52.703 Z-2.554
X46.027 Y52.742 Z-2.53
X45.978 Y52.778 Z-2.492
X45.938 Y52.808 Z-2.442
X45.907 Y52.83 Z-2.382
X45.888 Y52.844 Z-2.315
X45.882 Y52.849 Z-2.244
G0 Z5.
X3.015 Y52.471
Z-1.927
G1 Z-2.244 F1000.
X3.022 Y52.467 Z-2.315
X3.043 Y52.455 Z-2.382
X3.075 Y52.436 Z-2.442
X3.118 Y52.41 Z-2.492
X3.17 Y52.379 Z-2.53
X3.228 Y52.345 Z-2.554
X3.288 Y52.309 Z-2.562
G3 X4.042 Y52.088 I0.809 J1.36
G1 X5.216
G3 X6.658 Y52.665 I-0.078 J2.285
X7.762 Y53.894 I-3.009 J3.815
X8.952 Y56.488 I-8.52 J5.479
X9.937 Y62.292 I-22.157 J6.745
X10.067 Y67.454 I-75.877 J4.495
G1 X10.075 Y68.192
X10.078 Y69.667
X10.08 Y73.356
X10.084 Y100.656
X10.09 Y142.711
X10.196 Y143.064
X10.38 Y143.385
X10.863 Y143.942
X11.501 Y144.313
X12.201 Y144.547
G2 X15.131 Y144.849 I2.906 J-13.789
G1 X15.868 Y144.871
X16.606 Y144.881
X17.344 Y144.887
X18.082 Y144.891
X19.557 Y144.895
X23.984 Y144.899
X37.265 Y144.908
X37.634 Y144.897
X37.993 Y144.811
X38.322 Y144.644
X38.898 Y144.183
X39.284 Y143.555
X39.528 Y142.858
X39.676 Y142.136
G2 X39.872 Y138.455 I-27.003 J-3.283
X39.896 Y131.815 I-454.286 J-4.915
G1 X39.907 Y115.583
X39.94 Y66.887
X39.941 Y66.149
X39.944 Y65.411
G3 X40.322 Y59.526 I39.749 J-0.395
X42.405 Y52.685 I24.95 J3.86
G1 X42.547 Y52.456
G3 X43.188 Y52.088 I0.641 J0.372
G1 X44.565
G3 X44.823 Y52.573 I-0.011 J0.317
X44.742 Y52.661 I-0.269 J-0.168
G1 X44.685 Y52.703 Z-2.554
X44.631 Y52.742 Z-2.53
X44.582 Y52.778 Z-2.492
X44.541 Y52.808 Z-2.442
X44.511 Y52.83 Z-2.382
X44.492 Y52.844 Z-2.315
X44.486 Y52.849 Z-2.244
G0 Z5.
X4.189 Y52.471
Z-1.927
G1 Z-2.244 F1000.
X4.196 Y52.467 Z-2.315
X4.216 Y52.455 Z-2.382
X4.249 Y52.436 Z-2.442
X4.292 Y52.41 Z-2.492
X4.344 Y52.379 Z-2.53
X4.401 Y52.345 Z-2.554
X4.462 Y52.309 Z-2.562
G3 X5.216 Y52.088 I0.809 J1.36
G1 X6.557
G3 X7.984 Y52.694 I-0.14 J2.309
X9.113 Y53.99 I-3.159 J3.893
X10.257 Y56.589 I-8.645 J5.36
X11.198 Y62.401 I-23.653 J6.809
X11.335 Y67.563 I-77.495 J4.643
G1 X11.343 Y68.301
X11.347 Y69.777
X11.35 Y72.728
X11.354 Y100.765
X11.36 Y141.345
X11.445 Y141.704
X11.612 Y142.033
X12.071 Y142.61
X12.697 Y143.001
X13.392 Y143.249
X14.114 Y143.401
G2 X17.794 Y143.605 I3.302 J-26.269
G1 X18.532 Y143.617
X19.27 Y143.621
X20.008 Y143.624
X22.221 Y143.627
X36.24 Y143.637
X36.603 Y143.576
X36.943 Y143.432
X37.244 Y143.218
X37.761 Y142.692
X38.099 Y142.036
X38.309 Y141.329
G2 X38.581 Y138.394 I-15.475 J-2.916
X38.622 Y133.968 I-158.583 J-3.663
G1 X38.627 Y129.541
X38.64 Y110.358
X38.67 Y66.827
G3 X38.88 Y60.93 I61.513 J-0.763
G1 X38.972 Y60.198
G3 X40.861 Y53.089 I26.715 J3.292
G1 X41.069 Y52.658
X41.185 Y52.458
G3 X41.826 Y52.088 I0.642 J0.37
G1 X43.188
G3 X43.446 Y52.573 I-0.011 J0.317
X43.364 Y52.661 I-0.269 J-0.168
G1 X43.307 Y52.703 Z-2.554
X43.253 Y52.742 Z-2.53
X43.205 Y52.778 Z-2.492
X43.164 Y52.808 Z-2.442
X43.134 Y52.83 Z-2.382
X43.115 Y52.844 Z-2.315
X43.108 Y52.849 Z-2.244
G0 Z5.
X5.53 Y52.471
Z-1.927
G1 Z-2.244 F1000.
X5.537 Y52.467 Z-2.315
X5.557 Y52.455 Z-2.382
X5.59 Y52.436 Z-2.442
X5.633 Y52.41 Z-2.492
X5.685 Y52.379 Z-2.53
X5.743 Y52.345 Z-2.554
X5.803 Y52.309 Z-2.562
G3 X6.557 Y52.088 I0.809 J1.36
G1 X7.823
G3 X9.234 Y52.664 I-0.113 J2.29
X10.327 Y53.881 I-2.964 J3.763
X11.488 Y56.457 I-8.219 J5.252
X12.445 Y62.268 I-23.944 J6.929
X12.604 Y68.167 I-83.065 J5.194
G1 X12.613 Y68.905
X12.617 Y70.38
X12.62 Y73.331
X12.624 Y100.631
X12.63 Y139.735
X12.65 Y140.103
X12.741 Y140.461
X12.913 Y140.787
X13.382 Y141.356
X14.012 Y141.741
X14.708 Y141.985
X15.431 Y142.134
G2 X19.111 Y142.336 I3.308 J-26.746
X22.8 Y142.356 I2.956 J-197.431
G1 X29.441 Y142.363
X34.606 Y142.366
X34.974 Y142.364
X35.337 Y142.296
X35.675 Y142.149
X35.975 Y141.934
X36.487 Y141.403
X36.825 Y140.747
X37.036 Y140.04
G2 X37.311 Y137.106 I-15.401 J-2.925
X37.358 Y128.99 I-331.127 J-5.959
G1 X37.374 Y105.38
X37.399 Y67.752
G3 X37.601 Y61.116 I75.978 J-1.006
X38.727 Y55.33 I31.523 J3.131
X39.673 Y52.745 I21.778 J6.501
G1 X39.827 Y52.467
G3 X40.476 Y52.087 I0.652 J0.37
G1 X41.826 Y52.088
G3 X42.084 Y52.573 I-0.011 J0.317
X42.003 Y52.661 I-0.269 J-0.168
G1 X41.946 Y52.703 Z-2.554
X41.892 Y52.742 Z-2.53
X41.843 Y52.778 Z-2.492
X41.803 Y52.808 Z-2.442
X41.772 Y52.83 Z-2.382
X41.753 Y52.844 Z-2.315
X41.747 Y52.849 Z-2.244
G0 Z5.
X6.796 Y52.471
Z-1.927
G1 Z-2.244 F1000.
X6.803 Y52.467 Z-2.315
X6.823 Y52.455 Z-2.382
X6.856 Y52.436 Z-2.442
X6.899 Y52.41 Z-2.492
X6.951 Y52.379 Z-2.53
X7.009 Y52.345 Z-2.554
X7.069 Y52.309 Z-2.562
G3 X7.823 Y52.088 I0.809 J1.36
G1 X9.164
G3 X10.378 Y52.553 I-0.129 J2.151
X11.732 Y54.08 I-2.922 J3.955
X12.835 Y56.722 I-8.712 J5.189
X13.719 Y62.545 I-26.095 J6.94
X13.87 Y67.707 I-79.71 J4.913
X13.89 Y72.872 I-426.546 J4.217
G1 X13.892 Y82.463
X13.894 Y100.909
X13.899 Y138.537
X13.935 Y138.904
X14.043 Y139.257
X14.229 Y139.576
X14.72 Y140.127
X15.358 Y140.497
X16.058 Y140.731
G2 X18.987 Y141.039 I2.928 J-13.774
X25.627 Y141.087 I4.93 J-221.537
G1 X33.743 Y141.096
X34.103 Y141.016
X34.437 Y140.857
X34.732 Y140.636
X35.234 Y140.095
X35.564 Y139.436
X35.771 Y138.728
G2 X36.042 Y135.793 I-15.732 J-2.931
X36.088 Y127.677 I-334.421 J-5.967
G1 X36.108 Y99.64
X36.129 Y67.914
G3 X36.329 Y61.279 I80.39 J-0.907
X37.821 Y54.069 I32.229 J2.914
X38.503 Y52.438 I9.215 J2.894
X39.138 Y52.087 I0.642 J0.412
G1 X40.476 Y52.088
G3 X40.734 Y52.573 I-0.011 J0.317
X40.652 Y52.661 I-0.269 J-0.168
G1 X40.595 Y52.703 Z-2.554
X40.541 Y52.742 Z-2.53
X40.493 Y52.778 Z-2.492
X40.452 Y52.808 Z-2.442
X40.422 Y52.83 Z-2.382
X40.403 Y52.844 Z-2.315
X40.396 Y52.849 Z-2.244
G0 Z5.
X8.138 Y52.471
Z-1.927
G1 Z-2.244 F1000.
X8.144 Y52.467 Z-2.315
X8.165 Y52.455 Z-2.382
X8.197 Y52.436 Z-2.442
X8.24 Y52.41 Z-2.492
X8.292 Y52.379 Z-2.53
X8.35 Y52.345 Z-2.554
X8.411 Y52.309 Z-2.562
G3 X9.164 Y52.088 I0.809 J1.36
G1 X10.413
G3 X11.82 Y52.679 I-0.131 J2.28
X12.902 Y53.907 I-3.006 J3.738
X14.036 Y56.495 I-8.178 J5.126
X14.907 Y61.576 I-24.087 J6.744
X15.137 Y68.21 I-78.371 J6.045
G1 X15.149 Y68.948
X15.155 Y70.424
X15.159 Y72.637
X15.161 Y77.802
X15.164 Y100.674
X15.169 Y137.565
X15.27 Y137.92
X15.446 Y138.244
X15.917 Y138.811
X16.547 Y139.195
X17.243 Y139.44
X17.966 Y139.591
G2 X21.646 Y139.796 I3.321 J-26.435
X27.548 Y139.821 I4.449 J-363.632
G1 X32.344 Y139.825
X32.709 Y139.768
X33.053 Y139.636
X33.362 Y139.434
X33.894 Y138.923
X34.249 Y138.276
X34.472 Y137.573
G2 X34.768 Y134.642 I-14.445 J-2.939
X34.814 Y130.215 I-143.013 J-3.683
G1 X34.819 Y126.526
X34.84 Y95.538
X34.858 Y68.976
G3 X34.949 Y63.075 I133.352 J-0.91
X36.2 Y55.073 I36.257 J1.569
X37.063 Y52.621 I17.982 J4.956
G1 X37.161 Y52.462
G3 X37.805 Y52.088 I0.644 J0.366
G1 X39.138
G3 X39.396 Y52.573 I-0.011 J0.317
X39.315 Y52.661 I-0.269 J-0.168
G1 X39.258 Y52.703 Z-2.554
X39.204 Y52.742 Z-2.53
X39.155 Y52.778 Z-2.492
X39.115 Y52.808 Z-2.442
X39.084 Y52.83 Z-2.382
X39.065 Y52.844 Z-2.315
X39.059 Y52.849 Z-2.244
G0 Z5.
X9.387 Y52.471
Z-1.927
G1 Z-2.244 F1000.
X9.394 Y52.467 Z-2.315
X9.414 Y52.455 Z-2.382
X9.446 Y52.436 Z-2.442
X9.489 Y52.41 Z-2.492
X9.541 Y52.379 Z-2.53
X9.599 Y52.345 Z-2.554
X9.66 Y52.309 Z-2.562
G3 X10.413 Y52.088 I0.809 J1.36
G1 X11.679
G3 X13.078 Y52.663 I-0.113 J2.261
X14.148 Y53.865 I-2.934 J3.691
X15.279 Y56.424 I-7.985 J5.057
X16.157 Y61.504 I-24.234 J6.806
X16.404 Y68.138 I-77.025 J6.183
X16.429 Y73.303 I-315.472 J4.141
G1 X16.431 Y79.205
X16.434 Y100.602
X16.439 Y136.017
X16.478 Y136.384
X16.592 Y136.734
X16.782 Y137.051
X17.278 Y137.597
X17.918 Y137.963
X18.619 Y138.195
G2 X21.549 Y138.5 I2.934 J-13.934
X30.402 Y138.548 I6.114 J-312.466
G1 X31.14 Y138.554
X31.503 Y138.486
X31.841 Y138.34
X32.143 Y138.127
X32.659 Y137.6
X33.001 Y136.947
X33.217 Y136.241
G2 X33.501 Y133.308 I-15.058 J-2.939
X33.55 Y125.192 I-315.03 J-5.964
G1 X33.574 Y89.777
X33.589 Y69.118
G3 X33.769 Y61.744 I106.276 J-1.089
X34.871 Y55.204 I37.915 J3.023
X35.705 Y52.695 I18.81 J4.861
G1 X35.847 Y52.442
G3 X36.479 Y52.087 I0.633 J0.387
G1 X37.805 Y52.088
G3 X38.063 Y52.573 I-0.011 J0.317
X37.982 Y52.661 I-0.269 J-0.168
G1 X37.925 Y52.703 Z-2.554
X37.871 Y52.742 Z-2.53
X37.822 Y52.778 Z-2.492
X37.782 Y52.808 Z-2.442
X37.751 Y52.83 Z-2.382
X37.732 Y52.844 Z-2.315
X37.726 Y52.849 Z-2.244
G0 Z5.
X10.653 Y52.471
Z-1.927
G1 Z-2.244 F1000.
X10.659 Y52.467 Z-2.315
X10.68 Y52.455 Z-2.382
X10.712 Y52.436 Z-2.442
X10.755 Y52.41 Z-2.492
X10.807 Y52.379 Z-2.53
X10.865 Y52.345 Z-2.554
X10.926 Y52.309 Z-2.562
G3 X11.679 Y52.088 I0.809 J1.36
G1 X12.928
G3 X14.344 Y52.658 I-0.083 J2.25
X15.403 Y53.842 I-2.895 J3.656
X16.527 Y56.374 I-7.866 J5.006
X17.41 Y61.453 I-24.395 J6.857
X17.67 Y68.086 I-76.273 J6.314
X17.701 Y77.678 I-683.132 J7.003
G1 X17.704 Y100.55
X17.709 Y134.489
X17.712 Y134.858
X17.772 Y135.222
X17.914 Y135.563
X18.123 Y135.867
X18.646 Y136.388
X19.298 Y136.733
X20.003 Y136.95
G2 X22.936 Y137.235 I2.933 J-14.954
X29.944 Y137.272 I4.664 J-217.506
G1 X30.303 Y137.185
X30.635 Y137.023
X31.222 Y136.576
X31.621 Y135.956
X31.877 Y135.264
X32.036 Y134.543
G2 X32.244 Y131.601 I-20.857 J-2.952
X32.278 Y127.175 I-212.618 J-3.839
G1 X32.282 Y122.01
X32.307 Y85.119
X32.318 Y69.625
G3 X32.473 Y62.25 I123.531 J-1.1
X33.636 Y54.974 I39.862 J2.641
X34.424 Y52.621 I15.82 J3.991
G1 X34.516 Y52.468
G3 X35.163 Y52.088 I0.647 J0.36
G1 X36.479
G3 X36.737 Y52.573 I-0.011 J0.317
X36.656 Y52.661 I-0.269 J-0.168
G1 X36.599 Y52.703 Z-2.554
X36.545 Y52.742 Z-2.53
X36.496 Y52.778 Z-2.492
X36.456 Y52.808 Z-2.442
X36.425 Y52.83 Z-2.382
X36.406 Y52.844 Z-2.315
X36.4 Y52.849 Z-2.244
G0 Z5.
X11.902 Y52.471
Z-1.927
G1 Z-2.244 F1000.
X11.909 Y52.467 Z-2.315
X11.929 Y52.455 Z-2.382
X11.961 Y52.436 Z-2.442
X12.004 Y52.41 Z-2.492
X12.056 Y52.379 Z-2.53
X12.114 Y52.345 Z-2.554
X12.175 Y52.309 Z-2.562
G3 X12.928 Y52.088 I0.809 J1.36
G1 X14.269
G3 X15.702 Y52.727 I-0.166 J2.297
X16.777 Y54.007 I-3.137 J3.728
X17.86 Y56.615 I-8.429 J5.028
X18.689 Y61.704 I-26.268 J6.894
X18.94 Y68.338 I-81.438 J6.394
X18.971 Y77.93 I-694.189 J7.07
G1 X18.974 Y100.802
X18.979 Y133.266
X18.986 Y133.634
X19.058 Y133.996
X19.21 Y134.333
X19.426 Y134.631
X19.96 Y135.141
X20.616 Y135.478
X21.323 Y135.689
G2 X24.257 Y135.967 I2.936 J-15.383
X28.683 Y136.009 I3.688 J-152.954
G1 X29.042 Y135.926
X29.374 Y135.764
X29.956 Y135.311
X30.355 Y134.69
X30.61 Y133.998
X30.768 Y133.277
G2 X30.975 Y130.336 I-20.947 J-2.951
X31.008 Y125.909 I-213.493 J-3.841
G1 X31.013 Y120.744
X31.041 Y80.164
X31.048 Y69.835
G3 X31.199 Y62.459 I130.531 J-1.03
X32.293 Y55.172 I42.328 J2.634
X33.079 Y52.69 I17.444 J4.159
G1 X33.217 Y52.443
G3 X33.85 Y52.087 I0.633 J0.386
G1 X35.163 Y52.088
G3 X35.422 Y52.573 I-0.011 J0.317
X35.34 Y52.661 I-0.269 J-0.168
G1 X35.283 Y52.703 Z-2.554
X35.229 Y52.742 Z-2.53
X35.181 Y52.778 Z-2.492
X35.14 Y52.808 Z-2.442
X35.11 Y52.83 Z-2.382
X35.091 Y52.844 Z-2.315
X35.084 Y52.849 Z-2.244
G0 Z5.
X13.243 Y52.471
Z-1.927
G1 Z-2.244 F1000.
X13.25 Y52.467 Z-2.315
X13.27 Y52.455 Z-2.382
X13.303 Y52.436 Z-2.442
X13.346 Y52.41 Z-2.492
X13.398 Y52.379 Z-2.53
X13.455 Y52.345 Z-2.554
X13.516 Y52.309 Z-2.562
G3 X14.269 Y52.088 I0.809 J1.36
G1 X15.535
G3 X16.727 Y52.535 I-0.111 J2.106
X18.007 Y53.948 I-2.737 J3.766
X19.101 Y56.544 I-8.228 J4.994
X19.941 Y61.632 I-26.161 J6.935
X20.205 Y68.265 I-80.218 J6.517
X20.241 Y78.594 I-703.741 J7.588
G1 X20.244 Y100.728
X20.249 Y132.455
X20.346 Y132.81
X20.517 Y133.137
X20.979 Y133.712
X21.605 Y134.103
X22.3 Y134.352
X23.021 Y134.507
G2 X26.701 Y134.719 I3.329 J-25.753
G1 X27.439 Y134.731
X27.797 Y134.644
X28.126 Y134.478
X28.704 Y134.019
X29.097 Y133.395
X29.348 Y132.701
X29.504 Y131.98
G2 X29.716 Y128.3 I-25.671 J-3.327
G1 X29.729 Y127.562
X29.733 Y126.824
X29.738 Y125.349
X29.742 Y122.398
X29.774 Y75.177
X29.778 Y70.013
G3 X29.926 Y62.637 I136.364 J-0.955
X31.142 Y54.624 I43.667 J2.526
G1 X31.345 Y53.915
X31.568 Y53.211
X31.73 Y52.801
X31.869 Y52.517
G3 X32.545 Y52.087 I0.684 J0.33
G1 X33.85 Y52.088
G3 X34.108 Y52.573 I-0.011 J0.317
X34.027 Y52.661 I-0.269 J-0.168
G1 X33.97 Y52.703 Z-2.554
X33.916 Y52.742 Z-2.53
X33.867 Y52.778 Z-2.492
X33.827 Y52.808 Z-2.442
X33.796 Y52.83 Z-2.382
X33.777 Y52.844 Z-2.315
X33.771 Y52.849 Z-2.244
G0 Z5.
X14.509 Y52.471
Z-1.927
G1 Z-2.244 F1000.
X14.516 Y52.467 Z-2.315
X14.536 Y52.455 Z-2.382
X14.568 Y52.436 Z-2.442
X14.612 Y52.41 Z-2.492
X14.663 Y52.379 Z-2.53
X14.721 Y52.345 Z-2.554
X14.782 Y52.309 Z-2.562
G3 X15.535 Y52.088 I0.809 J1.36
G1 X16.784
G3 X18.18 Y52.678 I-0.128 J2.247
X19.232 Y53.883 I-2.939 J3.629
X20.336 Y56.454 I-8.041 J4.975
X21.192 Y61.539 I-25.914 J6.976
X21.477 Y68.909 I-84.894 J6.981
X21.511 Y77.763 I-592.504 J6.651
G1 X21.514 Y100.635
X21.518 Y130.885
X21.55 Y131.253
X21.653 Y131.607
X21.834 Y131.929
X22.316 Y132.487
X22.95 Y132.864
X23.648 Y133.103
G2 X26.208 Y133.388 I2.419 J-10.101
G1 X26.567 Y133.299
X26.895 Y133.13
X27.466 Y132.662
X27.851 Y132.033
X28.095 Y131.337
X28.245 Y130.614
G2 X28.448 Y126.934 I-26.715 J-3.317
X28.472 Y120.294 I-417.849 J-4.814
G1 X28.507 Y70.86
X28.509 Y70.122
G3 X28.704 Y62.01 I127.179 J-1.001
X29.827 Y54.726 I45.548 J3.295
G1 X30.022 Y54.014
X30.235 Y53.308
X30.401 Y52.865
X30.543 Y52.564
G3 X31.052 Y52.112 I0.739 J0.32
G1 X31.245 Y52.088
X32.545
G3 X32.804 Y52.573 I-0.011 J0.317
X32.722 Y52.661 I-0.269 J-0.168
G1 X32.665 Y52.703 Z-2.554
X32.611 Y52.742 Z-2.53
X32.563 Y52.778 Z-2.492
X32.522 Y52.808 Z-2.442
X32.492 Y52.83 Z-2.382
X32.473 Y52.844 Z-2.315
X32.466 Y52.849 Z-2.244
G0 Z5.
X15.758 Y52.471
Z-1.927
G1 Z-2.244 F1000.
X15.765 Y52.467 Z-2.315
X15.785 Y52.455 Z-2.382
X15.818 Y52.436 Z-2.442
X15.861 Y52.41 Z-2.492
X15.912 Y52.379 Z-2.53
X15.97 Y52.345 Z-2.554
X16.031 Y52.309 Z-2.562
G3 X16.784 Y52.088 I0.809 J1.36
G1 X18.05
G3 X19.445 Y52.678 I-0.127 J2.243
X20.496 Y53.885 I-2.954 J3.635
X21.593 Y56.441 I-8.005 J4.946
X22.449 Y61.526 I-26.09 J7.011
X22.744 Y68.896 I-84.798 J7.086
X22.781 Y79.226 I-681.003 J7.577
G1 X22.784 Y100.622
X22.788 Y129.397
X22.791 Y129.766
X22.849 Y130.13
X22.987 Y130.472
X23.195 Y130.777
X23.714 Y131.302
X24.364 Y131.65
X24.717 Y131.758
X25.085 Y131.783
X25.441 Y131.687
X25.759 Y131.5
X26.304 Y131.003
X26.659 Y130.356
X26.878 Y129.652
G2 X27.158 Y126.718 I-14.914 J-2.904
X27.203 Y118.603 I-319.73 J-5.831
G1 X27.207 Y114.914
X27.237 Y71.383
G3 X27.306 Y64.743 I237.564 J-0.844
X28.259 Y55.951 I53.395 J1.34
X28.994 Y53.133 I28.505 J5.923
G1 X29.153 Y52.747
X29.281 Y52.492
G3 X29.943 Y52.087 I0.667 J0.346
G1 X31.245 Y52.088
G3 X31.503 Y52.573 I-0.011 J0.317
X31.422 Y52.661 I-0.269 J-0.168
G1 X31.365 Y52.703 Z-2.554
X31.311 Y52.742 Z-2.53
X31.262 Y52.778 Z-2.492
X31.222 Y52.808 Z-2.442
X31.191 Y52.83 Z-2.382
X31.172 Y52.844 Z-2.315
X31.166 Y52.849 Z-2.244
G0 Z5.
X17.024 Y52.471
Z-1.927
G1 Z-2.244 F1000.
X17.031 Y52.467 Z-2.315
X17.051 Y52.455 Z-2.382
X17.083 Y52.436 Z-2.442
X17.127 Y52.41 Z-2.492
X17.178 Y52.379 Z-2.53
X17.236 Y52.345 Z-2.554
X17.297 Y52.309 Z-2.562
G3 X18.05 Y52.088 I0.809 J1.36
G1 X19.299
G3 X20.911 Y52.778 I-0.027 J2.289
X22.153 Y54.454 I-3.476 J3.874
X23.251 Y57.745 I-11.164 J5.555
X23.895 Y62.546 I-30.087 J6.478
X24.129 Y69.122 I-87.408 J6.402
X24.165 Y79.451 I-715.752 J7.674
G1 X24.169 Y100.848
X24.172 Y128.147
X24.177 Y128.516
X24.213 Y128.697
X24.241 Y128.784
G3 X23.859 Y129.18 I-0.305 J0.087
X23.75 Y129.129 I0.077 J-0.308
G1 X23.693 Y129.088 Z-2.554
X23.639 Y129.049 Z-2.53
X23.59 Y129.013 Z-2.492
X23.549 Y128.984 Z-2.442
X23.518 Y128.962 Z-2.382
X23.499 Y128.948 Z-2.315
X23.493 Y128.944 Z-2.244
G0 Z5.
X18.273 Y52.471
Z-1.927
G1 Z-2.244 F1000.
X18.28 Y52.467 Z-2.315
X18.3 Y52.455 Z-2.382
X18.332 Y52.436 Z-2.442
X18.376 Y52.41 Z-2.492
X18.427 Y52.379 Z-2.53
X18.485 Y52.345 Z-2.554
X18.546 Y52.309 Z-2.562
G3 X19.299 Y52.088 I0.809 J1.36
G1 X20.641
G3 X22.255 Y52.777 I-0.016 J2.269
X23.492 Y54.457 I-3.514 J3.885
X24.597 Y57.73 I-11.289 J5.636
X25.27 Y62.649 I-30.284 J6.646
X25.415 Y65.051 I-41.958 J3.746
G1 X25.409 Y65.116
X25.39 Y65.178
X25.358 Y65.235
X25.315 Y65.284
X25.263 Y65.324
X25.204 Y65.352
X25.141 Y65.367
X25.076 Y65.369
X25.011 Y65.358
X24.951 Y65.333
X24.896 Y65.297
X24.851 Y65.251
X24.821 Y65.207
X24.799 Y65.158
X20.415 Y52.69
X20.352 Y52.51
G3 X20.641 Y52.088 I0.3 J-0.105
G1 X21.982
G3 X23.353 Y52.647 I-0.092 J2.188
X24.389 Y53.813 I-2.847 J3.574
G1 X24.695 Y54.321
X25.019 Y54.979
G3 X25.59 Y56.634 I-12.053 J5.08
G1 X25.598 Y56.699
X25.593 Y56.765
X25.574 Y56.827
X25.543 Y56.885
X25.501 Y56.935
X25.45 Y56.976
X25.391 Y57.005
X25.328 Y57.021
X25.262 Y57.024
X25.198 Y57.014
X25.137 Y56.99
X25.082 Y56.955
X25.053 Y56.929
X25.028 Y56.899
X21.796 Y52.67
X21.741 Y52.598
G3 X21.706 Y52.269 I0.252 J-0.193
X21.982 Y52.088 I0.287 J0.136
G1 X23.248
G3 X24.857 Y52.783 I-0.032 J2.283
X25.899 Y54.095 I-3.125 J3.553
G2 X27.04 Y54.131 I0.585 J-0.468
G1 X27.459 Y53.523
G3 X27.888 Y52.475 I6.279 J1.96
X28.541 Y52.087 I0.656 J0.362
G1 X29.943 Y52.088
G3 X30.202 Y52.573 I-0.011 J0.317
X30.12 Y52.661 I-0.269 J-0.168
G1 X30.063 Y52.703 Z-2.554
X30.009 Y52.742 Z-2.53
X29.961 Y52.778 Z-2.492
X29.92 Y52.808 Z-2.442
X29.889 Y52.83 Z-2.382
X29.871 Y52.844 Z-2.315
X29.864 Y52.849 Z-2.244
G0 Z5.
X22.221 Y52.471
Z-1.927
G1 Z-2.244 F1000.
X22.228 Y52.467 Z-2.315
X22.248 Y52.455 Z-2.382
X22.281 Y52.436 Z-2.442
X22.324 Y52.41 Z-2.492
X22.376 Y52.379 Z-2.53
X22.434 Y52.345 Z-2.554
X22.494 Y52.309 Z-2.562
G3 X23.248 Y52.088 I0.809 J1.36
G1 X24.589
X28.541
G3 X28.8 Y52.573 I-0.011 J0.317
X28.718 Y52.661 I-0.269 J-0.168
G1 X28.661 Y52.703 Z-2.554
X28.607 Y52.742 Z-2.53
X28.558 Y52.778 Z-2.492
X28.518 Y52.808 Z-2.442
X28.487 Y52.83 Z-2.382
X28.469 Y52.844 Z-2.315
X28.462 Y52.849 Z-2.244
G0 Z5.
X1.859 Y52.262
Z-1.927
G1 Z-2.244 F1000.
X1.852 Y52.261 Z-2.315
X1.828 Z-2.382
X1.79 Y52.26 Z-2.442
X1.74 Y52.258 Z-2.492
X1.68 Y52.257 Z-2.53
X1.613 Y52.255 Z-2.554
X1.542 Y52.253 Z-2.562
X0.015 Y52.213
X0.061 Y52.215 F900.
X-0.106 Y52.933 F1000.
G2 X-0.286 Y55.876 I19.935 J2.694
X-0.304 Y63.254 I503.465 J4.936
G1 X-0.301 Y102.359
X-0.298 Y148.472
X-0.278 Y148.655
X-0.149 Y149.001
X0.088 Y149.283
X0.671 Y149.736
X1.361 Y149.997
X1.723 Y150.069
X1.905 Y150.097
X2.089 Y150.079
X2.262 Y150.016
X2.571 Y149.814
X3.071 Y149.271
X3.361 Y148.593
X3.522 Y147.873
G2 X3.691 Y144.929 I-21.298 J-2.698
G1 X3.701 Y144.191
X3.704 Y143.453
X3.707 Y141.978
X3.709 Y136.813
X3.713 Y99.184
X3.716 Y63.031
G2 X2.26 Y56.03 I-19.141 J0.328
G1 X2.242 Y55.968
X2.236 Y55.903
X2.245 Y55.839
X2.266 Y55.778
X2.299 Y55.722
X2.343 Y55.674
X2.396 Y55.636
X2.455 Y55.61
X2.519 Y55.597
X2.584 Y55.596
X2.648 Y55.61
X2.708 Y55.636
G3 X2.865 Y55.866 I-0.157 J0.276
G1 X3.038 Y57.073
X3.089 Y57.421
G3 X2.883 Y57.765 I-0.314 J0.045
G1 X2.74 Y57.811
X2.563 Y57.863
X2.24 Y58.041
X1.982 Y58.305
X1.575 Y58.921
X1.348 Y59.622
X1.224 Y60.35
G2 X1.091 Y64.035 I34.529 J3.09
G1 X1.083 Y64.772
X1.081 Y66.248
Y72.888
X1.083 Y107.566
X1.086 Y146.67
X1.091 Y146.854
X1.106 Y146.945
X1.129 Y147.035
G3 X0.721 Y147.403 I-0.31 J0.067
X0.616 Y147.346 I0.098 J-0.302
G1 X0.561 Y147.301 Z-2.554
X0.51 Y147.258 Z-2.53
X0.463 Y147.219 Z-2.492
X0.425 Y147.187 Z-2.442
X0.395 Y147.163 Z-2.382
X0.377 Y147.148 Z-2.315
X0.371 Y147.143 Z-2.244
G0 Z5.
X50.312 Y153.676
Z-1.927
G1 Z-2.244 F1000.
X50.31 Y153.668 Z-2.315
X50.304 Y153.646 Z-2.382
X50.295 Y153.609 Z-2.442
X50.282 Y153.56 Z-2.492
X50.267 Y153.502 Z-2.53
X50.251 Y153.437 Z-2.554
X50.233 Y153.369 Z-2.562
G3 X49.985 Y151.64 I7.852 J-2.011
G1 Y151.49
X50.132 Y150.767
G2 X50.286 Y147.822 I-23.325 J-2.695
G1 X50.295 Y147.084
X50.298 Y146.346
X50.301 Y144.871
X50.302 Y138.968
X50.301 Y101.34
G2 X50.232 Y99.408 I-26.982 J-0.004
G3 X50.188 Y94.964 I162.534 J-3.823
G1 X50.186 Y90.538
X50.185 Y55.122
G2 X49.062 Y54.584 I-0.735 J0.092
G1 X48.774 Y54.814
X48.327 Y55.401
X47.962 Y56.042
X47.645 Y56.709
X47.378 Y57.397
G2 X46.558 Y60.224 I10.382 J4.543
X46.31 Y63.16 I15.912 J2.825
X46.285 Y66.849 I172.082 J3.002
G1 Y73.49
X46.288 Y106.691
G2 X46.358 Y108.623 I26.983 J0.002
G3 X46.402 Y113.066 I-162.549 J3.835
G1 X46.404 Y117.493
X46.407 Y147.744
X46.605 Y148.455
X46.748 Y148.795
G2 X47.246 Y149.326 I1.182 J-0.609
X48.106 Y149.224 I0.359 J-0.648
G1 X48.345 Y148.943
X48.603 Y148.251
X48.746 Y147.528
G2 X48.9 Y144.582 I-23.943 J-2.731
G1 X48.91 Y143.844
X48.913 Y143.107
X48.916 Y141.631
X48.917 Y137.204
X48.916 Y101.789
G3 X48.805 Y92.936 I235.593 J-7.396
G1 X48.801 Y72.278
Y60.104
G3 X49.098 Y59.798 I0.317 J0.011
G1 X49.118 Y59.797 Z-2.561
X49.171 Y59.811 Z-2.552
X49.222 Y59.824 Z-2.534
X49.27 Y59.836 Z-2.507
X49.305 Y59.867 Z-2.468
X49.334 Y59.892 Z-2.42
X49.356 Y59.911 Z-2.365
X49.369 Y59.923 Z-2.306
X49.374 Y59.927 Z-2.245
G0 Z5.
X-3.097 Y50.715
Z-2.827
G1 Z-3.144 F1000.
X-3.09 Y50.718 Z-3.215
X-3.068 Y50.727 Z-3.282
X-3.033 Y50.741 Z-3.342
X-2.986 Y50.76 Z-3.392
X-2.931 Y50.782 Z-3.43
X-2.868 Y50.807 Z-3.454
X-2.803 Y50.834 Z-3.462
G3 X-1.263 Y51.657 I-3.031 J7.517
G2 X0.018 Y52.087 I1.271 J-1.666
G1 X0.739 Y52.088
G0 Z5.
X1.237
Z-2.827
G1 Z-3.144 F1000.
X1.245 Z-3.215
X1.269 Z-3.282
X1.307 Z-3.342
X1.357 Z-3.392
X1.417 Z-3.43
X1.484 Z-3.454
X1.555 Z-3.462
X1.828
X1.978 Y52.095
G3 X2.99 Y52.728 I-0.724 J2.286
G1 X3.257 Y53.003
X3.596 Y53.42
X3.893 Y53.853
G3 X5.104 Y56.51 I-11.589 J6.888
X6.188 Y62.291 I-19.076 J6.568
X6.264 Y65.978 I-58.804 J3.047
G1 X6.269 Y67.454
X6.271 Y74.832
X6.274 Y101.393
X6.281 Y146.954
X6.326 Y147.132
X6.491 Y147.462
X6.744 Y147.731
X7.343 Y148.162
X8.038 Y148.408
X8.764 Y148.544
X9.498 Y148.617
X10.234 Y148.656
G2 X14.661 Y148.702 I3.695 J-144.069
G1 X21.301 Y148.707
X41.96 Y148.721
X42.138 Y148.673
X42.466 Y148.504
X42.734 Y148.251
X43.162 Y147.65
X43.407 Y146.954
X43.542 Y146.228
G2 X43.687 Y142.544 I-31.826 J-3.101
G1 X43.696 Y141.807
X43.699 Y140.331
X43.704 Y133.691
X43.706 Y130.739
X43.74 Y80.568
X43.751 Y64.336
G3 X44.167 Y59.197 I25.668 J-0.512
X45.457 Y54.969 I22.028 J4.413
X46.731 Y52.455 I22.565 J9.854
X47.374 Y52.087 I0.648 J0.386
G1 X47.559 Y52.088
G3 X47.834 Y52.564 I0. J0.317
X47.756 Y52.654 I-0.275 J-0.159
G1 X47.735 Y52.67
X47.06 Y53.117
G3 X46.567 Y52.872 I-0.175 J-0.265
X46.722 Y52.58 I0.317 J-0.02
X48.398 Y52.088 I1.798 J3.024
G1 X49.647 Y52.087
X49.948 Y52.086
G0 Z5.
X1.44 Y52.143
Z-1.144
G1 Z-3.462 F1000.
G3 X1.828 Y52.088 I0.452 J1.766
G1 X2.793
G3 X3.968 Y52.549 I-0.123 J2.039
X5.014 Y53.64 I-2.64 J3.578
X6.28 Y56.181 I-8.279 J5.711
X7.414 Y61.952 I-19.263 J6.784
X7.531 Y67.114 I-70.929 J4.178
G1 X7.539 Y68.59
X7.541 Y74.493
X7.544 Y101.054
X7.55 Y145.323
X7.628 Y145.684
X7.802 Y146.009
X8.043 Y146.288
X8.617 Y146.751
X9.297 Y147.038
X10.015 Y147.208
G2 X12.957 Y147.407 I2.811 J-19.65
X16.646 Y147.433 I3.187 J-192.57
G1 X22.548 Y147.438
X40.256 Y147.45
X40.62 Y147.393
X40.953 Y147.235
X41.241 Y147.004
X41.719 Y146.442
X42.017 Y145.767
X42.194 Y145.051
G2 X42.403 Y142.11 I-18.794 J-2.814
X42.43 Y138.421 I-183.689 J-3.185
G1 X42.435 Y133.256
X42.44 Y125.14
X42.474 Y74.969
X42.481 Y64.639
G3 X42.851 Y59.494 I30.496 J-0.393
X45.325 Y52.43 I22.059 J3.76
X45.961 Y52.087 I0.653 J0.45
G1 X47.374 Y52.088
G3 X47.632 Y52.573 I-0.011 J0.317
X47.551 Y52.661 I-0.269 J-0.168
G1 X47.494 Y52.703 Z-3.454
X47.44 Y52.742 Z-3.43
X47.391 Y52.778 Z-3.392
X47.351 Y52.808 Z-3.342
X47.32 Y52.83 Z-3.282
X47.301 Y52.844 Z-3.215
X47.295 Y52.849 Z-3.144
G0 Z5.
X1.708 Y52.278
Z-2.827
G1 Z-3.144 F1000.
X1.716 Y52.276 Z-3.215
X1.738 Y52.27 Z-3.282
X1.775 Y52.261 Z-3.342
X1.824 Y52.248 Z-3.392
X1.882 Y52.233 Z-3.43
X1.947 Y52.217 Z-3.454
X2.015 Y52.199 Z-3.462
G3 X2.793 Y52.088 I0.905 J3.532
G1 X4.042
G3 X5.25 Y52.565 I-0.14 J2.121
X6.328 Y53.681 I-2.726 J3.71
X7.562 Y56.169 I-7.859 J5.45
X8.663 Y61.949 I-20.138 J6.83
X8.798 Y67.111 I-68.718 J4.379
G1 X8.808 Y68.586
X8.81 Y71.538
X8.814 Y101.05
X8.82 Y143.844
X8.879 Y144.208
X9.022 Y144.548
X9.239 Y144.846
X9.776 Y145.352
X10.438 Y145.679
X11.148 Y145.879
G2 X14.084 Y146.129 I2.869 J-16.352
G1 X14.822 Y146.146
X15.56 Y146.154
X16.298 Y146.159
X17.035 Y146.161
X18.511 Y146.164
X25.151 Y146.17
X38.801 Y146.179
X39.167 Y146.13
X39.511 Y145.997
X39.814 Y145.787
X40.33 Y145.259
X40.664 Y144.601
X40.869 Y143.893
G2 X41.125 Y140.957 I-15.936 J-2.869
X41.162 Y136.53 I-183.409 J-3.729
G1 X41.167 Y129.89
X41.174 Y120.298
X41.207 Y70.127
G3 X41.233 Y63.486 I293.132 J-2.174
X42.358 Y56.217 I27.092 J0.471
X43.912 Y52.457 I21.303 J6.601
X44.386 Y52.108 I0.706 J0.463
G1 X44.565 Y52.088
X45.961
G3 X46.219 Y52.573 I-0.011 J0.317
X46.138 Y52.661 I-0.269 J-0.168
G1 X46.081 Y52.703 Z-3.454
X46.027 Y52.742 Z-3.43
X45.978 Y52.778 Z-3.392
X45.938 Y52.808 Z-3.342
X45.907 Y52.83 Z-3.282
X45.888 Y52.844 Z-3.215
X45.882 Y52.849 Z-3.144
G0 Z5.
X3.015 Y52.471
Z-2.827
G1 Z-3.144 F1000.
X3.022 Y52.467 Z-3.215
X3.043 Y52.455 Z-3.282
X3.075 Y52.436 Z-3.342
X3.118 Y52.41 Z-3.392
X3.17 Y52.379 Z-3.43
X3.228 Y52.345 Z-3.454
X3.288 Y52.309 Z-3.462
G3 X4.042 Y52.088 I0.809 J1.36
G1 X5.216
G3 X6.658 Y52.665 I-0.078 J2.285
X7.762 Y53.894 I-3.009 J3.815
X8.952 Y56.488 I-8.52 J5.479
X9.937 Y62.292 I-22.157 J6.745
X10.067 Y67.454 I-75.877 J4.495
G1 X10.075 Y68.192
X10.078 Y69.667
X10.08 Y73.356
X10.084 Y100.656
X10.09 Y142.711
X10.196 Y143.064
X10.38 Y143.385
X10.863 Y143.942
X11.501 Y144.313
X12.201 Y144.547
G2 X15.131 Y144.849 I2.906 J-13.789
G1 X15.868 Y144.871
X16.606 Y144.881
X17.344 Y144.887
X18.082 Y144.891
X19.557 Y144.895
X23.984 Y144.899
X37.265 Y144.908
X37.634 Y144.897
X37.993 Y144.811
X38.322 Y144.644
X38.898 Y144.183
X39.284 Y143.555
X39.528 Y142.858
X39.676 Y142.136
G2 X39.872 Y138.455 I-27.003 J-3.283
X39.896 Y131.815 I-454.286 J-4.915
G1 X39.907 Y115.583
X39.94 Y66.887
X39.941 Y66.149
X39.944 Y65.411
G3 X40.322 Y59.526 I39.749 J-0.395
X42.405 Y52.685 I24.95 J3.86
G1 X42.547 Y52.456
G3 X43.188 Y52.088 I0.641 J0.372
G1 X44.565
G3 X44.823 Y52.573 I-0.011 J0.317
X44.742 Y52.661 I-0.269 J-0.168
G1 X44.685 Y52.703 Z-3.454
X44.631 Y52.742 Z-3.43
X44.582 Y52.778 Z-3.392
X44.541 Y52.808 Z-3.342
X44.511 Y52.83 Z-3.282
X44.492 Y52.844 Z-3.215
X44.486 Y52.849 Z-3.144
G0 Z5.
X4.189 Y52.471
Z-2.827
G1 Z-3.144 F1000.
X4.196 Y52.467 Z-3.215
X4.216 Y52.455 Z-3.282
X4.249 Y52.436 Z-3.342
X4.292 Y52.41 Z-3.392
X4.344 Y52.379 Z-3.43
X4.401 Y52.345 Z-3.454
X4.462 Y52.309 Z-3.462
G3 X5.216 Y52.088 I0.809 J1.36
G1 X6.557
G3 X7.984 Y52.694 I-0.14 J2.309
X9.113 Y53.99 I-3.159 J3.893
X10.257 Y56.589 I-8.645 J5.36
X11.198 Y62.401 I-23.653 J6.809
X11.335 Y67.563 I-77.495 J4.643
G1 X11.343 Y68.301
X11.347 Y69.777
X11.35 Y72.728
X11.354 Y100.765
X11.36 Y141.345
X11.445 Y141.704
X11.612 Y142.033
X12.071 Y142.61
X12.697 Y143.001
X13.392 Y143.249
X14.114 Y143.401
G2 X17.794 Y143.605 I3.302 J-26.269
G1 X18.532 Y143.617
X19.27 Y143.621
X20.008 Y143.624
X22.221 Y143.627
X36.24 Y143.637
X36.603 Y143.576
X36.943 Y143.432
X37.244 Y143.218
X37.761 Y142.692
X38.099 Y142.036
X38.309 Y141.329
G2 X38.581 Y138.394 I-15.475 J-2.916
X38.622 Y133.968 I-158.583 J-3.663
G1 X38.627 Y129.541
X38.64 Y110.358
X38.67 Y66.827
G3 X38.88 Y60.93 I61.513 J-0.763
G1 X38.972 Y60.198
G3 X40.861 Y53.089 I26.715 J3.292
G1 X41.069 Y52.658
X41.185 Y52.458
G3 X41.826 Y52.088 I0.642 J0.37
G1 X43.188
G3 X43.446 Y52.573 I-0.011 J0.317
X43.364 Y52.661 I-0.269 J-0.168
G1 X43.307 Y52.703 Z-3.454
X43.253 Y52.742 Z-3.43
X43.205 Y52.778 Z-3.392
X43.164 Y52.808 Z-3.342
X43.134 Y52.83 Z-3.282
X43.115 Y52.844 Z-3.215
X43.108 Y52.849 Z-3.144
G0 Z5.
X5.53 Y52.471
Z-2.827
G1 Z-3.144 F1000.
X5.537 Y52.467 Z-3.215
X5.557 Y52.455 Z-3.282
X5.59 Y52.436 Z-3.342
X5.633 Y52.41 Z-3.392
X5.685 Y52.379 Z-3.43
X5.743 Y52.345 Z-3.454
X5.803 Y52.309 Z-3.462
G3 X6.557 Y52.088 I0.809 J1.36
G1 X7.823
G3 X9.234 Y52.664 I-0.113 J2.29
X10.327 Y53.881 I-2.964 J3.763
X11.488 Y56.457 I-8.219 J5.252
X12.445 Y62.268 I-23.944 J6.929
X12.604 Y68.167 I-83.065 J5.194
G1 X12.613 Y68.905
X12.617 Y70.38
X12.62 Y73.331
X12.624 Y100.631
X12.63 Y139.735
X12.65 Y140.103
X12.741 Y140.461
X12.913 Y140.787
X13.382 Y141.356
X14.012 Y141.741
X14.708 Y141.985
X15.431 Y142.134
G2 X19.111 Y142.336 I3.308 J-26.746
X22.8 Y142.356 I2.956 J-197.431
G1 X29.441 Y142.363
X34.606 Y142.366
X34.974 Y142.364
X35.337 Y142.296
X35.675 Y142.149
X35.975 Y141.934
X36.487 Y141.403
X36.825 Y140.747
X37.036 Y140.04
G2 X37.311 Y137.106 I-15.401 J-2.925
X37.358 Y128.99 I-331.127 J-5.959
G1 X37.374 Y105.38
X37.399 Y67.752
G3 X37.601 Y61.116 I75.978 J-1.006
X38.727 Y55.33 I31.523 J3.131
X39.673 Y52.745 I21.778 J6.501
G1 X39.827 Y52.467
G3 X40.476 Y52.087 I0.652 J0.37
G1 X41.826 Y52.088
G3 X42.084 Y52.573 I-0.011 J0.317
X42.003 Y52.661 I-0.269 J-0.168
G1 X41.946 Y52.703 Z-3.454
X41.892 Y52.742 Z-3.43
X41.843 Y52.778 Z-3.392
X41.803 Y52.808 Z-3.342
X41.772 Y52.83 Z-3.282
X41.753 Y52.844 Z-3.215
X41.747 Y52.849 Z-3.144
G0 Z5.
X6.796 Y52.471
Z-2.827
G1 Z-3.144 F1000.
X6.803 Y52.467 Z-3.215
X6.823 Y52.455 Z-3.282
X6.856 Y52.436 Z-3.342
X6.899 Y52.41 Z-3.392
X6.951 Y52.379 Z-3.43
X7.009 Y52.345 Z-3.454
X7.069 Y52.309 Z-3.462
G3 X7.823 Y52.088 I0.809 J1.36
G1 X9.164
G3 X10.378 Y52.553 I-0.129 J2.151
X11.732 Y54.08 I-2.922 J3.955
X12.835 Y56.722 I-8.712 J5.189
X13.719 Y62.545 I-26.095 J6.94
X13.87 Y67.707 I-79.71 J4.913
X13.89 Y72.872 I-426.546 J4.217
G1 X13.892 Y82.463
X13.894 Y100.909
X13.899 Y138.537
X13.935 Y138.904
X14.043 Y139.257
X14.229 Y139.576
X14.72 Y140.127
X15.358 Y140.497
X16.058 Y140.731
G2 X18.987 Y141.039 I2.928 J-13.774
X25.627 Y141.087 I4.93 J-221.537
G1 X33.743 Y141.096
X34.103 Y141.016
X34.437 Y140.857
X34.732 Y140.636
X35.234 Y140.095
X35.564 Y139.436
X35.771 Y138.728
G2 X36.042 Y135.793 I-15.732 J-2.931
X36.088 Y127.677 I-334.421 J-5.967
G1 X36.108 Y99.64
X36.129 Y67.914
G3 X36.329 Y61.279 I80.39 J-0.907
X37.821 Y54.069 I32.229 J2.914
X38.503 Y52.438 I9.215 J2.894
X39.138 Y52.087 I0.642 J0.412
G1 X40.476 Y52.088
G3 X40.734 Y52.573 I-0.011 J0.317
X40.652 Y52.661 I-0.269 J-0.168
G1 X40.595 Y52.703 Z-3.454
X40.541 Y52.742 Z-3.43
X40.493 Y52.778 Z-3.392
X40.452 Y52.808 Z-3.342
X40.422 Y52.83 Z-3.282
X40.403 Y52.844 Z-3.215
X40.396 Y52.849 Z-3.144
G0 Z5.
X8.138 Y52.471
Z-2.827
G1 Z-3.144 F1000.
X8.144 Y52.467 Z-3.215
X8.165 Y52.455 Z-3.282
X8.197 Y52.436 Z-3.342
X8.24 Y52.41 Z-3.392
X8.292 Y52.379 Z-3.43
X8.35 Y52.345 Z-3.454
X8.411 Y52.309 Z-3.462
G3 X9.164 Y52.088 I0.809 J1.36
G1 X10.413
G3 X11.82 Y52.679 I-0.131 J2.28
X12.902 Y53.907 I-3.006 J3.738
X14.036 Y56.495 I-8.178 J5.126
X14.907 Y61.576 I-24.087 J6.744
X15.137 Y68.21 I-78.371 J6.045
G1 X15.149 Y68.948
X15.155 Y70.424
X15.159 Y72.637
X15.161 Y77.802
X15.164 Y100.674
X15.169 Y137.565
X15.27 Y137.92
X15.446 Y138.244
X15.917 Y138.811
X16.547 Y139.195
X17.243 Y139.44
X17.966 Y139.591
G2 X21.646 Y139.796 I3.321 J-26.435
X27.548 Y139.821 I4.449 J-363.632
G1 X32.344 Y139.825
X32.709 Y139.768
X33.053 Y139.636
X33.362 Y139.434
X33.894 Y138.923
X34.249 Y138.276
X34.472 Y137.573
G2 X34.768 Y134.642 I-14.445 J-2.939
X34.814 Y130.215 I-143.013 J-3.683
G1 X34.819 Y126.526
X34.84 Y95.538
X34.858 Y68.976
G3 X34.949 Y63.075 I133.352 J-0.91
X36.2 Y55.073 I36.257 J1.569
X37.063 Y52.621 I17.982 J4.956
G1 X37.161 Y52.462
G3 X37.805 Y52.088 I0.644 J0.366
G1 X39.138
G3 X39.396 Y52.573 I-0.011 J0.317
X39.315 Y52.661 I-0.269 J-0.168
G1 X39.258 Y52.703 Z-3.454
X39.204 Y52.742 Z-3.43
X39.155 Y52.778 Z-3.392
X39.115 Y52.808 Z-3.342
X39.084 Y52.83 Z-3.282
X39.065 Y52.844 Z-3.215
X39.059 Y52.849 Z-3.144
G0 Z5.
X9.387 Y52.471
Z-2.827
G1 Z-3.144 F1000.
X9.394 Y52.467 Z-3.215
X9.414 Y52.455 Z-3.282
X9.446 Y52.436 Z-3.342
X9.489 Y52.41 Z-3.392
X9.541 Y52.379 Z-3.43
X9.599 Y52.345 Z-3.454
X9.66 Y52.309 Z-3.462
G3 X10.413 Y52.088 I0.809 J1.36
G1 X11.679
G3 X13.078 Y52.663 I-0.113 J2.261
X14.148 Y53.865 I-2.934 J3.691
X15.279 Y56.424 I-7.985 J5.057
X16.157 Y61.504 I-24.234 J6.806
X16.404 Y68.138 I-77.025 J6.183
X16.429 Y73.303 I-315.472 J4.141
G1 X16.431 Y79.205
X16.434 Y100.602
X16.439 Y136.017
X16.478 Y136.384
X16.592 Y136.734
X16.782 Y137.051
X17.278 Y137.597
X17.918 Y137.963
X18.619 Y138.195
G2 X21.549 Y138.5 I2.934 J-13.934
X30.402 Y138.548 I6.114 J-312.466
G1 X31.14 Y138.554
X31.503 Y138.486
X31.841 Y138.34
X32.143 Y138.127
X32.659 Y137.6
X33.001 Y136.947
X33.217 Y136.241
G2 X33.501 Y133.308 I-15.058 J-2.939
X33.55 Y125.192 I-315.03 J-5.964
G1 X33.574 Y89.777
X33.589 Y69.118
G3 X33.769 Y61.744 I106.276 J-1.089
X34.871 Y55.204 I37.915 J3.023
X35.705 Y52.695 I18.81 J4.861
G1 X35.847 Y52.442
G3 X36.479 Y52.087 I0.633 J0.387
G1 X37.805 Y52.088
G3 X38.063 Y52.573 I-0.011 J0.317
X37.982 Y52.661 I-0.269 J-0.168
G1 X37.925 Y52.703 Z-3.454
X37.871 Y52.742 Z-3.43
X37.822 Y52.778 Z-3.392
X37.782 Y52.808 Z-3.342
X37.751 Y52.83 Z-3.282
X37.732 Y52.844 Z-3.215
X37.726 Y52.849 Z-3.144
G0 Z5.
X10.653 Y52.471
Z-2.827
G1 Z-3.144 F1000.
X10.659 Y52.467 Z-3.215
X10.68 Y52.455 Z-3.282
X10.712 Y52.436 Z-3.342
X10.755 Y52.41 Z-3.392
X10.807 Y52.379 Z-3.43
X10.865 Y52.345 Z-3.454
X10.926 Y52.309 Z-3.462
G3 X11.679 Y52.088 I0.809 J1.36
G1 X12.928
G3 X14.344 Y52.658 I-0.083 J2.25
X15.403 Y53.842 I-2.895 J3.656
X16.527 Y56.374 I-7.866 J5.006
X17.41 Y61.453 I-24.395 J6.857
X17.67 Y68.086 I-76.273 J6.314
X17.701 Y77.678 I-683.132 J7.003
G1 X17.704 Y100.55
X17.709 Y134.489
X17.712 Y134.858
X17.772 Y135.222
X17.914 Y135.563
X18.123 Y135.867
X18.646 Y136.388
X19.298 Y136.733
X20.003 Y136.95
G2 X22.936 Y137.235 I2.933 J-14.954
X29.944 Y137.272 I4.664 J-217.506
G1 X30.303 Y137.185
X30.635 Y137.023
X31.222 Y136.576
X31.621 Y135.956
X31.877 Y135.264
X32.036 Y134.543
G2 X32.244 Y131.601 I-20.857 J-2.952
X32.278 Y127.175 I-212.618 J-3.839
G1 X32.282 Y122.01
X32.307 Y85.119
X32.318 Y69.625
G3 X32.473 Y62.25 I123.531 J-1.1
X33.636 Y54.974 I39.862 J2.641
X34.424 Y52.621 I15.82 J3.991
G1 X34.516 Y52.468
G3 X35.163 Y52.088 I0.647 J0.36
G1 X36.479
G3 X36.737 Y52.573 I-0.011 J0.317
X36.656 Y52.661 I-0.269 J-0.168
G1 X36.599 Y52.703 Z-3.454
X36.545 Y52.742 Z-3.43
X36.496 Y52.778 Z-3.392
X36.456 Y52.808 Z-3.342
X36.425 Y52.83 Z-3.282
X36.406 Y52.844 Z-3.215
X36.4 Y52.849 Z-3.144
G0 Z5.
X11.902 Y52.471
Z-2.827
G1 Z-3.144 F1000.
X11.909 Y52.467 Z-3.215
X11.929 Y52.455 Z-3.282
X11.961 Y52.436 Z-3.342
X12.004 Y52.41 Z-3.392
X12.056 Y52.379 Z-3.43
X12.114 Y52.345 Z-3.454
X12.175 Y52.309 Z-3.462
G3 X12.928 Y52.088 I0.809 J1.36
G1 X14.269
G3 X15.702 Y52.727 I-0.166 J2.297
X16.777 Y54.007 I-3.137 J3.728
X17.86 Y56.615 I-8.429 J5.028
X18.689 Y61.704 I-26.268 J6.894
X18.94 Y68.338 I-81.438 J6.394
X18.971 Y77.93 I-694.189 J7.07
G1 X18.974 Y100.802
X18.979 Y133.266
X18.986 Y133.634
X19.058 Y133.996
X19.21 Y134.333
X19.426 Y134.631
X19.96 Y135.141
X20.616 Y135.478
X21.323 Y135.689
G2 X24.257 Y135.967 I2.936 J-15.383
X28.683 Y136.009 I3.688 J-152.954
G1 X29.042 Y135.926
X29.374 Y135.764
X29.956 Y135.311
X30.355 Y134.69
X30.61 Y133.998
X30.768 Y133.277
G2 X30.975 Y130.336 I-20.947 J-2.951
X31.008 Y125.909 I-213.493 J-3.841
G1 X31.013 Y120.744
X31.041 Y80.164
X31.048 Y69.835
G3 X31.199 Y62.459 I130.531 J-1.03
X32.293 Y55.172 I42.328 J2.634
X33.079 Y52.69 I17.444 J4.159
G1 X33.217 Y52.443
G3 X33.85 Y52.087 I0.633 J0.386
G1 X35.163 Y52.088
G3 X35.422 Y52.573 I-0.011 J0.317
X35.34 Y52.661 I-0.269 J-0.168
G1 X35.283 Y52.703 Z-3.454
X35.229 Y52.742 Z-3.43
X35.181 Y52.778 Z-3.392
X35.14 Y52.808 Z-3.342
X35.11 Y52.83 Z-3.282
X35.091 Y52.844 Z-3.215
X35.084 Y52.849 Z-3.144
G0 Z5.
X13.243 Y52.471
Z-2.827
G1 Z-3.144 F1000.
X13.25 Y52.467 Z-3.215
X13.27 Y52.455 Z-3.282
X13.303 Y52.436 Z-3.342
X13.346 Y52.41 Z-3.392
X13.398 Y52.379 Z-3.43
X13.455 Y52.345 Z-3.454
X13.516 Y52.309 Z-3.462
G3 X14.269 Y52.088 I0.809 J1.36
G1 X15.535
G3 X16.727 Y52.535 I-0.111 J2.106
X18.007 Y53.948 I-2.737 J3.766
X19.101 Y56.544 I-8.228 J4.994
X19.941 Y61.632 I-26.161 J6.935
X20.205 Y68.265 I-80.218 J6.517
X20.241 Y78.594 I-703.741 J7.588
G1 X20.244 Y100.728
X20.249 Y132.455
X20.346 Y132.81
X20.517 Y133.137
X20.979 Y133.712
X21.605 Y134.103
X22.3 Y134.352
X23.021 Y134.507
G2 X26.701 Y134.719 I3.329 J-25.753
G1 X27.439 Y134.731
X27.797 Y134.644
X28.126 Y134.478
X28.704 Y134.019
X29.097 Y133.395
X29.348 Y132.701
X29.504 Y131.98
G2 X29.716 Y128.3 I-25.671 J-3.327
G1 X29.729 Y127.562
X29.733 Y126.824
X29.738 Y125.349
X29.742 Y122.398
X29.774 Y75.177
X29.778 Y70.013
G3 X29.926 Y62.637 I136.364 J-0.955
X31.142 Y54.624 I43.667 J2.526
G1 X31.345 Y53.915
X31.568 Y53.211
X31.73 Y52.801
X31.869 Y52.517
G3 X32.545 Y52.087 I0.684 J0.33
G1 X33.85 Y52.088
G3 X34.108 Y52.573 I-0.011 J0.317
X34.027 Y52.661 I-0.269 J-0.168
G1 X33.97 Y52.703 Z-3.454
X33.916 Y52.742 Z-3.43
X33.867 Y52.778 Z-3.392
X33.827 Y52.808 Z-3.342
X33.796 Y52.83 Z-3.282
X33.777 Y52.844 Z-3.215
X33.771 Y52.849 Z-3.144
G0 Z5.
X14.509 Y52.471
Z-2.827
G1 Z-3.144 F1000.
X14.516 Y52.467 Z-3.215
X14.536 Y52.455 Z-3.282
X14.568 Y52.436 Z-3.342
X14.612 Y52.41 Z-3.392
X14.663 Y52.379 Z-3.43
X14.721 Y52.345 Z-3.454
X14.782 Y52.309 Z-3.462
G3 X15.535 Y52.088 I0.809 J1.36
G1 X16.784
G3 X18.18 Y52.678 I-0.128 J2.247
X19.232 Y53.883 I-2.939 J3.629
X20.336 Y56.454 I-8.041 J4.975
X21.192 Y61.539 I-25.914 J6.976
X21.477 Y68.909 I-84.894 J6.981
X21.511 Y77.763 I-592.504 J6.651
G1 X21.514 Y100.635
X21.518 Y130.885
X21.55 Y131.253
X21.653 Y131.607
X21.834 Y131.929
X22.316 Y132.487
X22.95 Y132.864
X23.648 Y133.103
G2 X26.208 Y133.388 I2.419 J-10.101
G1 X26.567 Y133.299
X26.895 Y133.13
X27.466 Y132.662
X27.851 Y132.033
X28.095 Y131.337
X28.245 Y130.614
G2 X28.448 Y126.934 I-26.715 J-3.317
X28.472 Y120.294 I-417.849 J-4.814
G1 X28.507 Y70.86
X28.509 Y70.122
G3 X28.704 Y62.01 I127.179 J-1.001
X29.827 Y54.726 I45.548 J3.295
G1 X30.022 Y54.014
X30.235 Y53.308
X30.401 Y52.865
X30.543 Y52.564
G3 X31.052 Y52.112 I0.739 J0.32
G1 X31.245 Y52.088
X32.545
G3 X32.804 Y52.573 I-0.011 J0.317
X32.722 Y52.661 I-0.269 J-0.168
G1 X32.665 Y52.703 Z-3.454
X32.611 Y52.742 Z-3.43
X32.563 Y52.778 Z-3.392
X32.522 Y52.808 Z-3.342
X32.492 Y52.83 Z-3.282
X32.473 Y52.844 Z-3.215
X32.466 Y52.849 Z-3.144
G0 Z5.
X15.758 Y52.471
Z-2.827
G1 Z-3.144 F1000.
X15.765 Y52.467 Z-3.215
X15.785 Y52.455 Z-3.282
X15.818 Y52.436 Z-3.342
X15.861 Y52.41 Z-3.392
X15.912 Y52.379 Z-3.43
X15.97 Y52.345 Z-3.454
X16.031 Y52.309 Z-3.462
G3 X16.784 Y52.088 I0.809 J1.36
G1 X18.05
G3 X19.445 Y52.678 I-0.127 J2.243
X20.496 Y53.885 I-2.954 J3.635
X21.593 Y56.441 I-8.005 J4.946
X22.449 Y61.526 I-26.09 J7.011
X22.744 Y68.896 I-84.798 J7.086
X22.781 Y79.226 I-681.003 J7.577
G1 X22.784 Y100.622
X22.788 Y129.397
X22.791 Y129.766
X22.849 Y130.13
X22.987 Y130.472
X23.195 Y130.777
X23.714 Y131.302
X24.364 Y131.65
X24.717 Y131.758
X25.085 Y131.783
X25.441 Y131.687
X25.759 Y131.5
X26.304 Y131.003
X26.659 Y130.356
X26.878 Y129.652
G2 X27.158 Y126.718 I-14.914 J-2.904
X27.203 Y118.603 I-319.73 J-5.831
G1 X27.207 Y114.914
X27.237 Y71.383
G3 X27.306 Y64.743 I237.564 J-0.844
X28.259 Y55.951 I53.395 J1.34
X28.994 Y53.133 I28.505 J5.923
G1 X29.153 Y52.747
X29.281 Y52.492
G3 X29.943 Y52.087 I0.667 J0.346
G1 X31.245 Y52.088
G3 X31.503 Y52.573 I-0.011 J0.317
X31.422 Y52.661 I-0.269 J-0.168
G1 X31.365 Y52.703 Z-3.454
X31.311 Y52.742 Z-3.43
X31.262 Y52.778 Z-3.392
X31.222 Y52.808 Z-3.342
X31.191 Y52.83 Z-3.282
X31.172 Y52.844 Z-3.215
X31.166 Y52.849 Z-3.144
G0 Z5.
X17.024 Y52.471
Z-2.827
G1 Z-3.144 F1000.
X17.031 Y52.467 Z-3.215
X17.051 Y52.455 Z-3.282
X17.083 Y52.436 Z-3.342
X17.127 Y52.41 Z-3.392
X17.178 Y52.379 Z-3.43
X17.236 Y52.345 Z-3.454
X17.297 Y52.309 Z-3.462
G3 X18.05 Y52.088 I0.809 J1.36
G1 X19.299
G3 X20.911 Y52.778 I-0.027 J2.289
X22.153 Y54.454 I-3.476 J3.874
X23.251 Y57.745 I-11.164 J5.555
X23.895 Y62.546 I-30.087 J6.478
X24.129 Y69.122 I-87.408 J6.402
X24.165 Y79.451 I-715.752 J7.674
G1 X24.169 Y100.848
X24.172 Y128.147
X24.177 Y128.516
X24.213 Y128.697
X24.241 Y128.784
G3 X23.859 Y129.18 I-0.305 J0.087
X23.75 Y129.129 I0.077 J-0.308
G1 X23.693 Y129.088 Z-3.454
X23.639 Y129.049 Z-3.43
X23.59 Y129.013 Z-3.392
X23.549 Y128.984 Z-3.342
X23.518 Y128.962 Z-3.282
X23.499 Y128.948 Z-3.215
X23.493 Y128.944 Z-3.144
G0 Z5.
X18.273 Y52.471
Z-2.827
G1 Z-3.144 F1000.
X18.28 Y52.467 Z-3.215
X18.3 Y52.455 Z-3.282
X18.332 Y52.436 Z-3.342
X18.376 Y52.41 Z-3.392
X18.427 Y52.379 Z-3.43
X18.485 Y52.345 Z-3.454
X18.546 Y52.309 Z-3.462
G3 X19.299 Y52.088 I0.809 J1.36
G1 X20.641
G3 X22.255 Y52.777 I-0.016 J2.269
X23.492 Y54.457 I-3.514 J3.885
X24.597 Y57.73 I-11.289 J5.636
X25.27 Y62.649 I-30.284 J6.646
X25.415 Y65.051 I-41.958 J3.746
G1 X25.409 Y65.116
X25.39 Y65.178
X25.358 Y65.235
X25.315 Y65.284
X25.263 Y65.324
X25.204 Y65.352
X25.141 Y65.367
X25.076 Y65.369
X25.011 Y65.358
X24.951 Y65.333
X24.896 Y65.297
X24.851 Y65.251
X24.821 Y65.207
X24.799 Y65.158
X20.415 Y52.69
X20.352 Y52.51
G3 X20.641 Y52.088 I0.3 J-0.105
G1 X21.982
G3 X23.353 Y52.647 I-0.092 J2.188
X24.389 Y53.813 I-2.847 J3.574
G1 X24.695 Y54.321
X25.019 Y54.979
G3 X25.59 Y56.634 I-12.053 J5.08
G1 X25.598 Y56.699
X25.593 Y56.765
X25.574 Y56.827
X25.543 Y56.885
X25.501 Y56.935
X25.45 Y56.976
X25.391 Y57.005
X25.328 Y57.021
X25.262 Y57.024
X25.198 Y57.014
X25.137 Y56.99
X25.082 Y56.955
X25.053 Y56.929
X25.028 Y56.899
X21.796 Y52.67
X21.741 Y52.598
G3 X21.706 Y52.269 I0.252 J-0.193
X21.982 Y52.088 I0.287 J0.136
G1 X23.248
G3 X24.857 Y52.783 I-0.032 J2.283
X25.899 Y54.095 I-3.125 J3.553
G2 X27.04 Y54.131 I0.585 J-0.468
G1 X27.459 Y53.523
G3 X27.888 Y52.475 I6.279 J1.96
X28.541 Y52.087 I0.656 J0.362
G1 X29.943 Y52.088
G3 X30.202 Y52.573 I-0.011 J0.317
X30.12 Y52.661 I-0.269 J-0.168
G1 X30.063 Y52.703 Z-3.454
X30.009 Y52.742 Z-3.43
X29.961 Y52.778 Z-3.392
X29.92 Y52.808 Z-3.342
X29.889 Y52.83 Z-3.282
X29.871 Y52.844 Z-3.215
X29.864 Y52.849 Z-3.144
G0 Z5.
X22.221 Y52.471
Z-2.827
G1 Z-3.144 F1000.
X22.228 Y52.467 Z-3.215
X22.248 Y52.455 Z-3.282
X22.281 Y52.436 Z-3.342
X22.324 Y52.41 Z-3.392
X22.376 Y52.379 Z-3.43
X22.434 Y52.345 Z-3.454
X22.494 Y52.309 Z-3.462
G3 X23.248 Y52.088 I0.809 J1.36
G1 X24.589
X28.541
G3 X28.8 Y52.573 I-0.011 J0.317
X28.718 Y52.661 I-0.269 J-0.168
G1 X28.661 Y52.703 Z-3.454
X28.607 Y52.742 Z-3.43
X28.558 Y52.778 Z-3.392
X28.518 Y52.808 Z-3.342
X28.487 Y52.83 Z-3.282
X28.469 Y52.844 Z-3.215
X28.462 Y52.849 Z-3.144
G0 Z5.
X1.859 Y52.262
Z-2.827
G1 Z-3.144 F1000.
X1.852 Y52.261 Z-3.215
X1.828 Z-3.282
X1.79 Y52.26 Z-3.342
X1.74 Y52.258 Z-3.392
X1.68 Y52.257 Z-3.43
X1.613 Y52.255 Z-3.454
X1.542 Y52.253 Z-3.462
X0.015 Y52.213
X0.061 Y52.215 F900.
X-0.106 Y52.933 F1000.
G2 X-0.286 Y55.876 I19.935 J2.694
X-0.304 Y63.254 I503.465 J4.936
G1 X-0.301 Y102.359
X-0.298 Y148.472
X-0.278 Y148.655
X-0.149 Y149.001
X0.088 Y149.283
X0.671 Y149.736
X1.361 Y149.997
X1.723 Y150.069
X1.905 Y150.097
X2.089 Y150.079
X2.262 Y150.016
X2.571 Y149.814
X3.071 Y149.271
X3.361 Y148.593
X3.522 Y147.873
G2 X3.691 Y144.929 I-21.298 J-2.698
G1 X3.701 Y144.191
X3.704 Y143.453
X3.707 Y141.978
X3.709 Y136.813
X3.713 Y99.184
X3.716 Y63.031
G2 X2.26 Y56.03 I-19.141 J0.328
G1 X2.242 Y55.968
X2.236 Y55.903
X2.245 Y55.839
X2.266 Y55.778
X2.299 Y55.722
X2.343 Y55.674
X2.396 Y55.636
X2.455 Y55.61
X2.519 Y55.597
X2.584 Y55.596
X2.648 Y55.61
X2.708 Y55.636
G3 X2.865 Y55.866 I-0.157 J0.276
G1 X3.038 Y57.073
X3.089 Y57.421
G3 X2.883 Y57.765 I-0.314 J0.045
G1 X2.74 Y57.811
X2.563 Y57.863
X2.24 Y58.041
X1.982 Y58.305
X1.575 Y58.921
X1.348 Y59.622
X1.224 Y60.35
G2 X1.091 Y64.035 I34.529 J3.09
G1 X1.083 Y64.772
X1.081 Y66.248
Y72.888
X1.083 Y107.566
X1.086 Y146.67
X1.091 Y146.854
X1.106 Y146.945
X1.129 Y147.035
G3 X0.721 Y147.403 I-0.31 J0.067
X0.616 Y147.346 I0.098 J-0.302
G1 X0.561 Y147.301 Z-3.454
X0.51 Y147.258 Z-3.43
X0.463 Y147.219 Z-3.392
X0.425 Y147.187 Z-3.342
X0.395 Y147.163 Z-3.282
X0.377 Y147.148 Z-3.215
X0.371 Y147.143 Z-3.144
G0 Z5.
X50.312 Y153.676
Z-2.827
G1 Z-3.144 F1000.
X50.31 Y153.668 Z-3.215
X50.304 Y153.646 Z-3.282
X50.295 Y153.609 Z-3.342
X50.282 Y153.56 Z-3.392
X50.267 Y153.502 Z-3.43
X50.251 Y153.437 Z-3.454
X50.233 Y153.369 Z-3.462
G3 X49.985 Y151.64 I7.852 J-2.011
G1 Y151.49
X50.132 Y150.767
G2 X50.286 Y147.822 I-23.325 J-2.695
G1 X50.295 Y147.084
X50.298 Y146.346
X50.301 Y144.871
X50.302 Y138.968
X50.301 Y101.34
G2 X50.232 Y99.408 I-26.982 J-0.004
G3 X50.188 Y94.964 I162.534 J-3.823
G1 X50.186 Y90.538
X50.185 Y55.122
G2 X49.062 Y54.584 I-0.735 J0.092
G1 X48.774 Y54.814
X48.327 Y55.401
X47.962 Y56.042
X47.645 Y56.709
X47.378 Y57.397
G2 X46.558 Y60.224 I10.382 J4.543
X46.31 Y63.16 I15.912 J2.825
X46.285 Y66.849 I172.082 J3.002
G1 Y73.49
X46.288 Y106.691
G2 X46.358 Y108.623 I26.983 J0.002
G3 X46.402 Y113.066 I-162.549 J3.835
G1 X46.404 Y117.493
X46.407 Y147.744
X46.605 Y148.455
X46.748 Y148.795
G2 X47.246 Y149.326 I1.182 J-0.609
X48.106 Y149.224 I0.359 J-0.648
G1 X48.345 Y148.943
X48.603 Y148.251
X48.746 Y147.528
G2 X48.9 Y144.582 I-23.943 J-2.731
G1 X48.91 Y143.844
X48.913 Y143.107
X48.916 Y141.631
X48.917 Y137.204
X48.916 Y101.789
G3 X48.805 Y92.936 I235.593 J-7.396
G1 X48.801 Y72.278
Y60.104
G3 X49.098 Y59.798 I0.317 J0.011
G1 X49.118 Y59.797 Z-3.461
X49.171 Y59.811 Z-3.452
X49.222 Y59.824 Z-3.434
X49.27 Y59.836 Z-3.407
X49.305 Y59.867 Z-3.368
X49.334 Y59.892 Z-3.32
X49.356 Y59.911 Z-3.265
X49.369 Y59.923 Z-3.206
X49.374 Y59.927 Z-3.145
G0 Z5.
X-3.097 Y50.715
Z-3.727
G1 Z-4.044 F1000.
X-3.09 Y50.718 Z-4.115
X-3.068 Y50.727 Z-4.182
X-3.033 Y50.741 Z-4.242
X-2.986 Y50.76 Z-4.292
X-2.931 Y50.782 Z-4.33
X-2.868 Y50.807 Z-4.354
X-2.803 Y50.834 Z-4.362
G3 X-1.263 Y51.657 I-3.031 J7.517
G2 X0.018 Y52.087 I1.271 J-1.666
G1 X0.739 Y52.088
G0 Z5.
X1.237
Z-3.727
G1 Z-4.044 F1000.
X1.245 Z-4.115
X1.269 Z-4.182
X1.307 Z-4.242
X1.357 Z-4.292
X1.417 Z-4.33
X1.484 Z-4.354
X1.555 Z-4.362
X1.828
X1.978 Y52.095
G3 X2.99 Y52.728 I-0.724 J2.286
G1 X3.257 Y53.003
X3.596 Y53.42
X3.893 Y53.853
G3 X5.104 Y56.51 I-11.589 J6.888
X6.188 Y62.291 I-19.076 J6.568
X6.264 Y65.978 I-58.804 J3.047
G1 X6.269 Y67.454
X6.271 Y74.832
X6.274 Y101.393
X6.281 Y146.954
X6.326 Y147.132
X6.491 Y147.462
X6.744 Y147.731
X7.343 Y148.162
X8.038 Y148.408
X8.764 Y148.544
X9.498 Y148.617
X10.234 Y148.656
G2 X14.661 Y148.702 I3.695 J-144.069
G1 X21.301 Y148.707
X41.96 Y148.721
X42.138 Y148.673
X42.466 Y148.504
X42.734 Y148.251
X43.162 Y147.65
X43.407 Y146.954
X43.542 Y146.228
G2 X43.687 Y142.544 I-31.826 J-3.101
G1 X43.696 Y141.807
X43.699 Y140.331
X43.704 Y133.691
X43.706 Y130.739
X43.74 Y80.568
X43.751 Y64.336
G3 X44.167 Y59.197 I25.668 J-0.512
X45.457 Y54.969 I22.028 J4.413
X46.731 Y52.455 I22.565 J9.854
X47.374 Y52.087 I0.648 J0.386
G1 X47.559 Y52.088
G3 X47.834 Y52.564 I0. J0.317
X47.756 Y52.654 I-0.275 J-0.159
G1 X47.735 Y52.67
X47.06 Y53.117
G3 X46.567 Y52.872 I-0.175 J-0.265
X46.722 Y52.58 I0.317 J-0.02
X48.398 Y52.088 I1.798 J3.024
G1 X49.647 Y52.087
X49.948 Y52.086
G0 Z5.
X1.44 Y52.143
Z-2.044
G1 Z-4.362 F1000.
G3 X1.828 Y52.088 I0.452 J1.766
G1 X2.793
G3 X3.968 Y52.549 I-0.123 J2.039
X5.014 Y53.64 I-2.64 J3.578
X6.28 Y56.181 I-8.279 J5.711
X7.414 Y61.952 I-19.263 J6.784
X7.531 Y67.114 I-70.929 J4.178
G1 X7.539 Y68.59
X7.541 Y74.493
X7.544 Y101.054
X7.55 Y145.323
X7.628 Y145.684
X7.802 Y146.009
X8.043 Y146.288
X8.617 Y146.751
X9.297 Y147.038
X10.015 Y147.208
G2 X12.957 Y147.407 I2.811 J-19.65
X16.646 Y147.433 I3.187 J-192.57
G1 X22.548 Y147.438
X40.256 Y147.45
X40.62 Y147.393
X40.953 Y147.235
X41.241 Y147.004
X41.719 Y146.442
X42.017 Y145.767
X42.194 Y145.051
G2 X42.403 Y142.11 I-18.794 J-2.814
X42.43 Y138.421 I-183.689 J-3.185
G1 X42.435 Y133.256
X42.44 Y125.14
X42.474 Y74.969
X42.481 Y64.639
G3 X42.851 Y59.494 I30.496 J-0.393
X45.325 Y52.43 I22.059 J3.76
X45.961 Y52.087 I0.653 J0.45
G1 X47.374 Y52.088
G3 X47.632 Y52.573 I-0.011 J0.317
X47.551 Y52.661 I-0.269 J-0.168
G1 X47.494 Y52.703 Z-4.354
X47.44 Y52.742 Z-4.33
X47.391 Y52.778 Z-4.292
X47.351 Y52.808 Z-4.242
X47.32 Y52.83 Z-4.182
X47.301 Y52.844 Z-4.115
X47.295 Y52.849 Z-4.044
G0 Z5.
X1.708 Y52.278
Z-3.727
G1 Z-4.044 F1000.
X1.716 Y52.276 Z-4.115
X1.738 Y52.27 Z-4.182
X1.775 Y52.261 Z-4.242
X1.824 Y52.248 Z-4.292
X1.882 Y52.233 Z-4.33
X1.947 Y52.217 Z-4.354
X2.015 Y52.199 Z-4.362
G3 X2.793 Y52.088 I0.905 J3.532
G1 X4.042
G3 X5.25 Y52.565 I-0.14 J2.121
X6.328 Y53.681 I-2.726 J3.71
X7.562 Y56.169 I-7.859 J5.45
X8.663 Y61.949 I-20.138 J6.83
X8.798 Y67.111 I-68.718 J4.379
G1 X8.808 Y68.586
X8.81 Y71.538
X8.814 Y101.05
X8.82 Y143.844
X8.879 Y144.208
X9.022 Y144.548
X9.239 Y144.846
X9.776 Y145.352
X10.438 Y145.679
X11.148 Y145.879
G2 X14.084 Y146.129 I2.869 J-16.352
G1 X14.822 Y146.146
X15.56 Y146.154
X16.298 Y146.159
X17.035 Y146.161
X18.511 Y146.164
X25.151 Y146.17
X38.801 Y146.179
X39.167 Y146.13
X39.511 Y145.997
X39.814 Y145.787
X40.33 Y145.259
X40.664 Y144.601
X40.869 Y143.893
G2 X41.125 Y140.957 I-15.936 J-2.869
X41.162 Y136.53 I-183.409 J-3.729
G1 X41.167 Y129.89
X41.174 Y120.298
X41.207 Y70.127
G3 X41.233 Y63.486 I293.132 J-2.174
X42.358 Y56.217 I27.092 J0.471
X43.912 Y52.457 I21.303 J6.601
X44.386 Y52.108 I0.706 J0.463
G1 X44.565 Y52.088
X45.961
G3 X46.219 Y52.573 I-0.011 J0.317
X46.138 Y52.661 I-0.269 J-0.168
G1 X46.081 Y52.703 Z-4.354
X46.027 Y52.742 Z-4.33
X45.978 Y52.778 Z-4.292
X45.938 Y52.808 Z-4.242
X45.907 Y52.83 Z-4.182
X45.888 Y52.844 Z-4.115
X45.882 Y52.849 Z-4.044
G0 Z5.
X3.015 Y52.471
Z-3.727
G1 Z-4.044 F1000.
X3.022 Y52.467 Z-4.115
X3.043 Y52.455 Z-4.182
X3.075 Y52.436 Z-4.242
X3.118 Y52.41 Z-4.292
X3.17 Y52.379 Z-4.33
X3.228 Y52.345 Z-4.354
X3.288 Y52.309 Z-4.362
G3 X4.042 Y52.088 I0.809 J1.36
G1 X5.216
G3 X6.658 Y52.665 I-0.078 J2.285
X7.762 Y53.894 I-3.009 J3.815
X8.952 Y56.488 I-8.52 J5.479
X9.937 Y62.292 I-22.157 J6.745
X10.067 Y67.454 I-75.877 J4.495
G1 X10.075 Y68.192
X10.078 Y69.667
X10.08 Y73.356
X10.084 Y100.656
X10.09 Y142.711
X10.196 Y143.064
X10.38 Y143.385
X10.863 Y143.942
X11.501 Y144.313
X12.201 Y144.547
G2 X15.131 Y144.849 I2.906 J-13.789
G1 X15.868 Y144.871
X16.606 Y144.881
X17.344 Y144.887
X18.082 Y144.891
X19.557 Y144.895
X23.984 Y144.899
X37.265 Y144.908
X37.634 Y144.897
X37.993 Y144.811
X38.322 Y144.644
X38.898 Y144.183
X39.284 Y143.555
X39.528 Y142.858
X39.676 Y142.136
G2 X39.872 Y138.455 I-27.003 J-3.283
X39.896 Y131.815 I-454.286 J-4.915
G1 X39.907 Y115.583
X39.94 Y66.887
X39.941 Y66.149
X39.944 Y65.411
G3 X40.322 Y59.526 I39.749 J-0.395
X42.405 Y52.685 I24.95 J3.86
G1 X42.547 Y52.456
G3 X43.188 Y52.088 I0.641 J0.372
G1 X44.565
G3 X44.823 Y52.573 I-0.011 J0.317
X44.742 Y52.661 I-0.269 J-0.168
G1 X44.685 Y52.703 Z-4.354
X44.631 Y52.742 Z-4.33
X44.582 Y52.778 Z-4.292
X44.541 Y52.808 Z-4.242
X44.511 Y52.83 Z-4.182
X44.492 Y52.844 Z-4.115
X44.486 Y52.849 Z-4.044
G0 Z5.
X4.189 Y52.471
Z-3.727
G1 Z-4.044 F1000.
X4.196 Y52.467 Z-4.115
X4.216 Y52.455 Z-4.182
X4.249 Y52.436 Z-4.242
X4.292 Y52.41 Z-4.292
X4.344 Y52.379 Z-4.33
X4.401 Y52.345 Z-4.354
X4.462 Y52.309 Z-4.362
G3 X5.216 Y52.088 I0.809 J1.36
G1 X6.557
G3 X7.984 Y52.694 I-0.14 J2.309
X9.113 Y53.99 I-3.159 J3.893
X10.257 Y56.589 I-8.645 J5.36
X11.198 Y62.401 I-23.653 J6.809
X11.335 Y67.563 I-77.495 J4.643
G1 X11.343 Y68.301
X11.347 Y69.777
X11.35 Y72.728
X11.354 Y100.765
X11.36 Y141.345
X11.445 Y141.704
X11.612 Y142.033
X12.071 Y142.61
X12.697 Y143.001
X13.392 Y143.249
X14.114 Y143.401
G2 X17.794 Y143.605 I3.302 J-26.269
G1 X18.532 Y143.617
X19.27 Y143.621
X20.008 Y143.624
X22.221 Y143.627
X36.24 Y143.637
X36.603 Y143.576
X36.943 Y143.432
X37.244 Y143.218
X37.761 Y142.692
X38.099 Y142.036
X38.309 Y141.329
G2 X38.581 Y138.394 I-15.475 J-2.916
X38.622 Y133.968 I-158.583 J-3.663
G1 X38.627 Y129.541
X38.64 Y110.358
X38.67 Y66.827
G3 X38.88 Y60.93 I61.513 J-0.763
G1 X38.972 Y60.198
G3 X40.861 Y53.089 I26.715 J3.292
G1 X41.069 Y52.658
X41.185 Y52.458
G3 X41.826 Y52.088 I0.642 J0.37
G1 X43.188
G3 X43.446 Y52.573 I-0.011 J0.317
X43.364 Y52.661 I-0.269 J-0.168
G1 X43.307 Y52.703 Z-4.354
X43.253 Y52.742 Z-4.33
X43.205 Y52.778 Z-4.292
X43.164 Y52.808 Z-4.242
X43.134 Y52.83 Z-4.182
X43.115 Y52.844 Z-4.115
X43.108 Y52.849 Z-4.044
G0 Z5.
X5.53 Y52.471
Z-3.727
G1 Z-4.044 F1000.
X5.537 Y52.467 Z-4.115
X5.557 Y52.455 Z-4.182
X5.59 Y52.436 Z-4.242
X5.633 Y52.41 Z-4.292
X5.685 Y52.379 Z-4.33
X5.743 Y52.345 Z-4.354
X5.803 Y52.309 Z-4.362
G3 X6.557 Y52.088 I0.809 J1.36
G1 X7.823
G3 X9.234 Y52.664 I-0.113 J2.29
X10.327 Y53.881 I-2.964 J3.763
X11.488 Y56.457 I-8.219 J5.252
X12.445 Y62.268 I-23.944 J6.929
X12.604 Y68.167 I-83.065 J5.194
G1 X12.613 Y68.905
X12.617 Y70.38
X12.62 Y73.331
X12.624 Y100.631
X12.63 Y139.735
X12.65 Y140.103
X12.741 Y140.461
X12.913 Y140.787
X13.382 Y141.356
X14.012 Y141.741
X14.708 Y141.985
X15.431 Y142.134
G2 X19.111 Y142.336 I3.308 J-26.746
X22.8 Y142.356 I2.956 J-197.431
G1 X29.441 Y142.363
X34.606 Y142.366
X34.974 Y142.364
X35.337 Y142.296
X35.675 Y142.149
X35.975 Y141.934
X36.487 Y141.403
X36.825 Y140.747
X37.036 Y140.04
G2 X37.311 Y137.106 I-15.401 J-2.925
X37.358 Y128.99 I-331.127 J-5.959
G1 X37.374 Y105.38
X37.399 Y67.752
G3 X37.601 Y61.116 I75.978 J-1.006
X38.727 Y55.33 I31.523 J3.131
X39.673 Y52.745 I21.778 J6.501
G1 X39.827 Y52.467
G3 X40.476 Y52.087 I0.652 J0.37
G1 X41.826 Y52.088
G3 X42.084 Y52.573 I-0.011 J0.317
X42.003 Y52.661 I-0.269 J-0.168
G1 X41.946 Y52.703 Z-4.354
X41.892 Y52.742 Z-4.33
X41.843 Y52.778 Z-4.292
X41.803 Y52.808 Z-4.242
X41.772 Y52.83 Z-4.182
X41.753 Y52.844 Z-4.115
X41.747 Y52.849 Z-4.044
G0 Z5.
X6.796 Y52.471
Z-3.727
G1 Z-4.044 F1000.
X6.803 Y52.467 Z-4.115
X6.823 Y52.455 Z-4.182
X6.856 Y52.436 Z-4.242
X6.899 Y52.41 Z-4.292
X6.951 Y52.379 Z-4.33
X7.009 Y52.345 Z-4.354
X7.069 Y52.309 Z-4.362
G3 X7.823 Y52.088 I0.809 J1.36
G1 X9.164
G3 X10.378 Y52.553 I-0.129 J2.151
X11.732 Y54.08 I-2.922 J3.955
X12.835 Y56.722 I-8.712 J5.189
X13.719 Y62.545 I-26.095 J6.94
X13.87 Y67.707 I-79.71 J4.913
X13.89 Y72.872 I-426.546 J4.217
G1 X13.892 Y82.463
X13.894 Y100.909
X13.899 Y138.537
X13.935 Y138.904
X14.043 Y139.257
X14.229 Y139.576
X14.72 Y140.127
X15.358 Y140.497
X16.058 Y140.731
G2 X18.987 Y141.039 I2.928 J-13.774
X25.627 Y141.087 I4.93 J-221.537
G1 X33.743 Y141.096
X34.103 Y141.016
X34.437 Y140.857
X34.732 Y140.636
X35.234 Y140.095
X35.564 Y139.436
X35.771 Y138.728
G2 X36.042 Y135.793 I-15.732 J-2.931
X36.088 Y127.677 I-334.421 J-5.967
G1 X36.108 Y99.64
X36.129 Y67.914
G3 X36.329 Y61.279 I80.39 J-0.907
X37.821 Y54.069 I32.229 J2.914
X38.503 Y52.438 I9.215 J2.894
X39.138 Y52.087 I0.642 J0.412
G1 X40.476 Y52.088
G3 X40.734 Y52.573 I-0.011 J0.317
X40.652 Y52.661 I-0.269 J-0.168
G1 X40.595 Y52.703 Z-4.354
X40.541 Y52.742 Z-4.33
X40.493 Y52.778 Z-4.292
X40.452 Y52.808 Z-4.242
X40.422 Y52.83 Z-4.182
X40.403 Y52.844 Z-4.115
X40.396 Y52.849 Z-4.044
G0 Z5.
X8.138 Y52.471
Z-3.727
G1 Z-4.044 F1000.
X8.144 Y52.467 Z-4.115
X8.165 Y52.455 Z-4.182
X8.197 Y52.436 Z-4.242
X8.24 Y52.41 Z-4.292
X8.292 Y52.379 Z-4.33
X8.35 Y52.345 Z-4.354
X8.411 Y52.309 Z-4.362
G3 X9.164 Y52.088 I0.809 J1.36
G1 X10.413
G3 X11.82 Y52.679 I-0.131 J2.28
X12.902 Y53.907 I-3.006 J3.738
X14.036 Y56.495 I-8.178 J5.126
X14.907 Y61.576 I-24.087 J6.744
X15.137 Y68.21 I-78.371 J6.045
G1 X15.149 Y68.948
X15.155 Y70.424
X15.159 Y72.637
X15.161 Y77.802
X15.164 Y100.674
X15.169 Y137.565
X15.27 Y137.92
X15.446 Y138.244
X15.917 Y138.811
X16.547 Y139.195
X17.243 Y139.44
X17.966 Y139.591
G2 X21.646 Y139.796 I3.321 J-26.435
X27.548 Y139.821 I4.449 J-363.632
G1 X32.344 Y139.825
X32.709 Y139.768
X33.053 Y139.636
X33.362 Y139.434
X33.894 Y138.923
X34.249 Y138.276
X34.472 Y137.573
G2 X34.768 Y134.642 I-14.445 J-2.939
X34.814 Y130.215 I-143.013 J-3.683
G1 X34.819 Y126.526
X34.84 Y95.538
X34.858 Y68.976
G3 X34.949 Y63.075 I133.352 J-0.91
X36.2 Y55.073 I36.257 J1.569
X37.063 Y52.621 I17.982 J4.956
G1 X37.161 Y52.462
G3 X37.805 Y52.088 I0.644 J0.366
G1 X39.138
G3 X39.396 Y52.573 I-0.011 J0.317
X39.315 Y52.661 I-0.269 J-0.168
G1 X39.258 Y52.703 Z-4.354
X39.204 Y52.742 Z-4.33
X39.155 Y52.778 Z-4.292
X39.115 Y52.808 Z-4.242
X39.084 Y52.83 Z-4.182
X39.065 Y52.844 Z-4.115
X39.059 Y52.849 Z-4.044
G0 Z5.
X9.387 Y52.471
Z-3.727
G1 Z-4.044 F1000.
X9.394 Y52.467 Z-4.115
X9.414 Y52.455 Z-4.182
X9.446 Y52.436 Z-4.242
X9.489 Y52.41 Z-4.292
X9.541 Y52.379 Z-4.33
X9.599 Y52.345 Z-4.354
X9.66 Y52.309 Z-4.362
G3 X10.413 Y52.088 I0.809 J1.36
G1 X11.679
G3 X13.078 Y52.663 I-0.113 J2.261
X14.148 Y53.865 I-2.934 J3.691
X15.279 Y56.424 I-7.985 J5.057
X16.157 Y61.504 I-24.234 J6.806
X16.404 Y68.138 I-77.025 J6.183
X16.429 Y73.303 I-315.472 J4.141
G1 X16.431 Y79.205
X16.434 Y100.602
X16.439 Y136.017
X16.478 Y136.384
X16.592 Y136.734
X16.782 Y137.051
X17.278 Y137.597
X17.918 Y137.963
X18.619 Y138.195
G2 X21.549 Y138.5 I2.934 J-13.934
X30.402 Y138.548 I6.114 J-312.466
G1 X31.14 Y138.554
X31.503 Y138.486
X31.841 Y138.34
X32.143 Y138.127
X32.659 Y137.6
X33.001 Y136.947
X33.217 Y136.241
G2 X33.501 Y133.308 I-15.058 J-2.939
X33.55 Y125.192 I-315.03 J-5.964
G1 X33.574 Y89.777
X33.589 Y69.118
G3 X33.769 Y61.744 I106.276 J-1.089
X34.871 Y55.204 I37.915 J3.023
X35.705 Y52.695 I18.81 J4.861
G1 X35.847 Y52.442
G3 X36.479 Y52.087 I0.633 J0.387
G1 X37.805 Y52.088
G3 X38.063 Y52.573 I-0.011 J0.317
X37.982 Y52.661 I-0.269 J-0.168
G1 X37.925 Y52.703 Z-4.354
X37.871 Y52.742 Z-4.33
X37.822 Y52.778 Z-4.292
X37.782 Y52.808 Z-4.242
X37.751 Y52.83 Z-4.182
X37.732 Y52.844 Z-4.115
X37.726 Y52.849 Z-4.044
G0 Z5.
X10.653 Y52.471
Z-3.727
G1 Z-4.044 F1000.
X10.659 Y52.467 Z-4.115
X10.68 Y52.455 Z-4.182
X10.712 Y52.436 Z-4.242
X10.755 Y52.41 Z-4.292
X10.807 Y52.379 Z-4.33
X10.865 Y52.345 Z-4.354
X10.926 Y52.309 Z-4.362
G3 X11.679 Y52.088 I0.809 J1.36
G1 X12.928
G3 X14.344 Y52.658 I-0.083 J2.25
X15.403 Y53.842 I-2.895 J3.656
X16.527 Y56.374 I-7.866 J5.006
X17.41 Y61.453 I-24.395 J6.857
X17.67 Y68.086 I-76.273 J6.314
X17.701 Y77.678 I-683.132 J7.003
G1 X17.704 Y100.55
X17.709 Y134.489
X17.712 Y134.858
X17.772 Y135.222
X17.914 Y135.563
X18.123 Y135.867
X18.646 Y136.388
X19.298 Y136.733
X20.003 Y136.95
G2 X22.936 Y137.235 I2.933 J-14.954
X29.944 Y137.272 I4.664 J-217.506
G1 X30.303 Y137.185
X30.635 Y137.023
X31.222 Y136.576
X31.621 Y135.956
X31.877 Y135.264
X32.036 Y134.543
G2 X32.244 Y131.601 I-20.857 J-2.952
X32.278 Y127.175 I-212.618 J-3.839
G1 X32.282 Y122.01
X32.307 Y85.119
X32.318 Y69.625
G3 X32.473 Y62.25 I123.531 J-1.1
X33.636 Y54.974 I39.862 J2.641
X34.424 Y52.621 I15.82 J3.991
G1 X34.516 Y52.468
G3 X35.163 Y52.088 I0.647 J0.36
G1 X36.479
G3 X36.737 Y52.573 I-0.011 J0.317
X36.656 Y52.661 I-0.269 J-0.168
G1 X36.599 Y52.703 Z-4.354
X36.545 Y52.742 Z-4.33
X36.496 Y52.778 Z-4.292
X36.456 Y52.808 Z-4.242
X36.425 Y52.83 Z-4.182
