(1001)
(T1 D=3.175 CR=0. - ZMIN=-12. - FLAT END MILL)
G0 G90 G94 G17
G21
(-ATTENTION- PROPERTY SAFE RETRACTS IS SET TO CLEARANCE HEIGHT.)
(ENSURE THE CLEARANCE HEIGHT WILL CLEAR THE PART AND OR FIXTURES.)
(RAISE THE Z-AXIS TO A SAFE HEIGHT BEFORE STARTING THE PROGRAM.)
M5

(2D CONTOUR2)
T1
M3 S15000
G90 G94 G17
G54
M8
G0 X-2.54 Y-0.317
Z15.
G0 Z5.
G1 Z-0.683 F300.
X-2.532 Z-0.753 F1000.
X-2.509 Z-0.82
X-2.471 Z-0.88
X-2.42 Z-0.931
X-2.36 Z-0.969
X-2.293 Z-0.992
X-2.223 Z-1.
X-1.905
G3 X-1.587 Y0. I0. J0.317
G1 Y50.
G2 X0. Y51.588 I1.587 J0.
G1 X10.
G2 X11.587 Y50. I0. J-1.588
G1 Y0.
G2 X10. Y-1.587 I-1.587 J0.
G1 X0.
G2 X-1.587 Y0. I0. J1.587
G3 X-1.905 Y0.317 I-0.317 J0.
G1 X-2.223
X-2.293 Z-0.992
X-2.36 Z-0.969
X-2.42 Z-0.931
X-2.471 Z-0.88
X-2.509 Z-0.82
X-2.532 Z-0.753
X-2.54 Z-0.683
G0 Z5.
Y-0.317
G1 Z-1.683 F300.
X-2.532 Z-1.753 F1000.
X-2.509 Z-1.82
X-2.471 Z-1.88
X-2.42 Z-1.931
X-2.36 Z-1.969
X-2.293 Z-1.992
X-2.223 Z-2.
X-1.905
G3 X-1.587 Y0. I0. J0.317
G1 Y50.
G2 X0. Y51.588 I1.587 J0.
G1 X10.
G2 X11.587 Y50. I0. J-1.588
G1 Y0.
G2 X10. Y-1.587 I-1.587 J0.
G1 X0.
G2 X-1.587 Y0. I0. J1.587
G3 X-1.905 Y0.317 I-0.317 J0.
G1 X-2.223
X-2.293 Z-1.992
X-2.36 Z-1.969
X-2.42 Z-1.931
X-2.471 Z-1.88
X-2.509 Z-1.82
X-2.532 Z-1.753
X-2.54 Z-1.683
G0 Z5.
Y-0.317
G1 Z-2.683 F300.
X-2.532 Z-2.753 F1000.
X-2.509 Z-2.82
X-2.471 Z-2.88
X-2.42 Z-2.931
X-2.36 Z-2.969
X-2.293 Z-2.992
X-2.223 Z-3.
X-1.905
G3 X-1.587 Y0. I0. J0.317
G1 Y50.
G2 X0. Y51.588 I1.587 J0.
G1 X10.
G2 X11.587 Y50. I0. J-1.588
G1 Y0.
G2 X10. Y-1.587 I-1.587 J0.
G1 X0.
G2 X-1.587 Y0. I0. J1.587
G3 X-1.905 Y0.317 I-0.317 J0.
G1 X-2.223
X-2.293 Z-2.992
X-2.36 Z-2.969
X-2.42 Z-2.931
X-2.471 Z-2.88
X-2.509 Z-2.82
X-2.532 Z-2.753
X-2.54 Z-2.683
G0 Z5.
Y-0.317
G1 Z-3.683 F300.
X-2.532 Z-3.753 F1000.
X-2.509 Z-3.82
X-2.471 Z-3.88
X-2.42 Z-3.931
X-2.36 Z-3.969
X-2.293 Z-3.992
X-2.223 Z-4.
X-1.905
G3 X-1.587 Y0. I0. J0.317
G1 Y50.
G2 X0. Y51.588 I1.587 J0.
G1 X10.
G2 X11.587 Y50. I0. J-1.588
G1 Y0.
G2 X10. Y-1.587 I-1.587 J0.
G1 X0.
G2 X-1.587 Y0. I0. J1.587
G3 X-1.905 Y0.317 I-0.317 J0.
G1 X-2.223
X-2.293 Z-3.992
X-2.36 Z-3.969
X-2.42 Z-3.931
X-2.471 Z-3.88
X-2.509 Z-3.82
X-2.532 Z-3.753
X-2.54 Z-3.683
G0 Z5.
Y-0.317
G1 Z-4.683 F300.
X-2.532 Z-4.753 F1000.
X-2.509 Z-4.82
X-2.471 Z-4.88
X-2.42 Z-4.931
X-2.36 Z-4.969
X-2.293 Z-4.992
X-2.223 Z-5.
X-1.905
G3 X-1.587 Y0. I0. J0.317
G1 Y50.
G2 X0. Y51.588 I1.587 J0.
G1 X10.
G2 X11.587 Y50. I0. J-1.588
G1 Y0.
G2 X10. Y-1.587 I-1.587 J0.
G1 X0.
G2 X-1.587 Y0. I0. J1.587
G3 X-1.905 Y0.317 I-0.317 J0.
G1 X-2.223
X-2.293 Z-4.992
X-2.36 Z-4.969
X-2.42 Z-4.931
X-2.471 Z-4.88
X-2.509 Z-4.82
X-2.532 Z-4.753
X-2.54 Z-4.683
G0 Z5.
Y-0.317
G1 Z-5.683 F300.
X-2.532 Z-5.753 F1000.
X-2.509 Z-5.82
X-2.471 Z-5.88
X-2.42 Z-5.931
X-2.36 Z-5.969
X-2.293 Z-5.992
X-2.223 Z-6.
X-1.905
G3 X-1.587 Y0. I0. J0.317
G1 Y50.
G2 X0. Y51.588 I1.587 J0.
G1 X10.
G2 X11.587 Y50. I0. J-1.588
G1 Y0.
G2 X10. Y-1.587 I-1.587 J0.
G1 X0.
G2 X-1.587 Y0. I0. J1.587
G3 X-1.905 Y0.317 I-0.317 J0.
G1 X-2.223
X-2.293 Z-5.992
X-2.36 Z-5.969
X-2.42 Z-5.931
X-2.471 Z-5.88
X-2.509 Z-5.82
X-2.532 Z-5.753
X-2.54 Z-5.683
G0 Z5.
Y-0.317
G1 Z-6.683 F300.
X-2.532 Z-6.753 F1000.
X-2.509 Z-6.82
X-2.471 Z-6.88
X-2.42 Z-6.931
X-2.36 Z-6.969
X-2.293 Z-6.992
X-2.223 Z-7.
X-1.905
G3 X-1.587 Y0. I0. J0.317
G1 Y50.
G2 X0. Y51.588 I1.587 J0.
G1 X10.
G2 X11.587 Y50. I0. J-1.588
G1 Y0.
G2 X10. Y-1.587 I-1.587 J0.
G1 X0.
G2 X-1.587 Y0. I0. J1.587
G3 X-1.905 Y0.317 I-0.317 J0.
G1 X-2.223
X-2.293 Z-6.992
X-2.36 Z-6.969
X-2.42 Z-6.931
X-2.471 Z-6.88
X-2.509 Z-6.82
X-2.532 Z-6.753
X-2.54 Z-6.683
G0 Z5.
Y-0.317
G1 Z-7.683 F300.
X-2.532 Z-7.753 F1000.
X-2.509 Z-7.82
X-2.471 Z-7.88
X-2.42 Z-7.931
X-2.36 Z-7.969
X-2.293 Z-7.992
X-2.223 Z-8.
X-1.905
G3 X-1.587 Y0. I0. J0.317
G1 Y50.
G2 X0. Y51.588 I1.587 J0.
G1 X10.
G2 X11.587 Y50. I0. J-1.588
G1 Y0.
G2 X10. Y-1.587 I-1.587 J0.
G1 X0.
G2 X-1.587 Y0. I0. J1.587
G3 X-1.905 Y0.317 I-0.317 J0.
G1 X-2.223
X-2.293 Z-7.992
X-2.36 Z-7.969
X-2.42 Z-7.931
X-2.471 Z-7.88
X-2.509 Z-7.82
X-2.532 Z-7.753
X-2.54 Z-7.683
G0 Z5.
Y-0.317
G1 Z-8.683 F300.
X-2.532 Z-8.753 F1000.
X-2.509 Z-8.82
X-2.471 Z-8.88
X-2.42 Z-8.931
X-2.36 Z-8.969
X-2.293 Z-8.992
X-2.223 Z-9.
X-1.905
G3 X-1.587 Y0. I0. J0.317
G1 Y50.
G2 X0. Y51.588 I1.587 J0.
G1 X10.
G2 X11.587 Y50. I0. J-1.588
G1 Y0.
G2 X10. Y-1.587 I-1.587 J0.
G1 X0.
G2 X-1.587 Y0. I0. J1.587
G3 X-1.905 Y0.317 I-0.317 J0.
G1 X-2.223
X-2.293 Z-8.992
X-2.36 Z-8.969
X-2.42 Z-8.931
X-2.471 Z-8.88
X-2.509 Z-8.82
X-2.532 Z-8.753
X-2.54 Z-8.683
G0 Z5.
Y-0.317
G1 Z-9.683 F300.
X-2.532 Z-9.753 F1000.
X-2.509 Z-9.82
X-2.471 Z-9.88
X-2.42 Z-9.931
X-2.36 Z-9.969
X-2.293 Z-9.992
X-2.223 Z-10.
X-1.905
G3 X-1.587 Y0. I0. J0.317
G1 Y50.
G2 X0. Y51.588 I1.587 J0.
G1 X10.
G2 X11.587 Y50. I0. J-1.588
G1 Y0.
G2 X10. Y-1.587 I-1.587 J0.
G1 X0.
G2 X-1.587 Y0. I0. J1.587
G3 X-1.905 Y0.317 I-0.317 J0.
G1 X-2.223
X-2.293 Z-9.992
X-2.36 Z-9.969
X-2.42 Z-9.931
X-2.471 Z-9.88
X-2.509 Z-9.82
X-2.532 Z-9.753
X-2.54 Z-9.683
G0 Z5.
Y-0.317
G1 Z-10.683 F300.
X-2.532 Z-10.753 F1000.
X-2.509 Z-10.82
X-2.471 Z-10.88
X-2.42 Z-10.931
X-2.36 Z-10.969
X-2.293 Z-10.992
X-2.223 Z-11.
X-1.905
G3 X-1.587 Y0. I0. J0.317
G1 Y50.
G2 X0. Y51.588 I1.587 J0.
G1 X10.
G2 X11.587 Y50. I0. J-1.588
G1 Y0.
G2 X10. Y-1.587 I-1.587 J0.
G1 X0.
G2 X-1.587 Y0. I0. J1.587
G3 X-1.905 Y0.317 I-0.317 J0.
G1 X-2.223
X-2.293 Z-10.992
X-2.36 Z-10.969
X-2.42 Z-10.931
X-2.471 Z-10.88
X-2.509 Z-10.82
X-2.532 Z-10.753
X-2.54 Z-10.683
G0 Z5.
Y-0.317
G1 Z-11.683 F300.
X-2.532 Z-11.753 F1000.
X-2.509 Z-11.82
X-2.471 Z-11.88
X-2.42 Z-11.931
X-2.36 Z-11.969
X-2.293 Z-11.992
X-2.223 Z-12.
X-1.905
G3 X-1.587 Y0. I0. J0.317
G1 Y50.
G2 X0. Y51.588 I1.587 J0.
G1 X10.
G2 X11.587 Y50. I0. J-1.588
G1 Y0.
G2 X10. Y-1.587 I-1.587 J0.
G1 X0.
G2 X-1.587 Y0. I0. J1.587
G3 X-1.905 Y0.317 I-0.317 J0.
G1 X-2.223
X-2.293 Z-11.992
X-2.36 Z-11.969
X-2.42 Z-11.931
X-2.471 Z-11.88
X-2.509 Z-11.82
X-2.532 Z-11.753
X-2.54 Z-11.683
G0 Z15.

M9
M30
