(1001)
(T1 D=3.175 CR=0. - ZMIN=-5. - FLAT END MILL)
G0 G90 G94 G17
G21
(-ATTENTION- PROPERTY SAFE RETRACTS IS SET TO CLEARANCE HEIGHT.)
(ENSURE THE CLEARANCE HEIGHT WILL CLEAR THE PART AND OR FIXTURES.)
(RAISE THE Z-AXIS TO A SAFE HEIGHT BEFORE STARTING THE PROGRAM.)
M5

(2D POCKET1)
T1
M3 S15000
G90 G94 G17
G54
M8
G0 X150.741 Y48.331
Z15.
G0 Z5.
G1 Z-0.683 F762.
Y48.323 Z-0.753 F1000.
Y48.3 Z-0.82
Y48.262 Z-0.88
Y48.212 Z-0.931
Y48.151 Z-0.969
Y48.084 Z-0.992
Y48.014 Z-1.
Y46.287
Y3.727
G3 X151.695 Y3.176 I0.636 J0.
X152.012 Y3.727 I-0.318 J0.55
G1 Y25.007
X151.377 Y46.287
G3 X150.809 Y46.9 I-0.635 J-0.019
G1 X148.902 Y47.104
G3 X148.199 Y46.472 I-0.068 J-0.632
G1 Y3.514
G3 X149.152 Y2.963 I0.636 J0.
X149.47 Y3.514 I-0.318 J0.55
G1 Y24.993
X148.835 Y46.472
G3 X148.21 Y47.089 I-0.635 J-0.019
G1 X146.303 Y47.12
G3 X145.657 Y46.484 I-0.01 J-0.635
G1 Y3.526
G3 X146.61 Y2.975 I0.636 J0.
X146.928 Y3.526 I-0.318 J0.55
G1 Y25.005
X146.292 Y46.484
G3 X145.662 Y47.101 I-0.635 J-0.019
G1 X143.755 Y47.115
G3 X143.114 Y46.479 I-0.005 J-0.636
G1 Y3.521
G3 X144.068 Y2.97 I0.636 J0.
X144.386 Y3.521 I-0.318 J0.55
G1 Y25.
X143.75 Y46.479
G3 X143.119 Y47.096 I-0.635 J-0.019
G1 X141.212 Y47.11
G3 X140.572 Y46.474 I-0.005 J-0.636
G1 Y3.516
G3 X141.526 Y2.965 I0.636 J0.
X141.843 Y3.516 I-0.318 J0.55
G1 Y24.995
X141.208 Y46.474
G3 X140.583 Y47.091 I-0.635 J-0.019
G1 X138.676 Y47.122
G3 X138.03 Y46.486 I-0.01 J-0.635
G1 Y3.528
G3 X138.983 Y2.978 I0.636 J0.
X139.301 Y3.528 I-0.318 J0.55
G1 Y25.007
X138.665 Y46.486
G3 X138.035 Y47.103 I-0.635 J-0.019
G1 X136.128 Y47.117
G3 X135.488 Y46.481 I-0.005 J-0.636
G1 Y3.523
G3 X136.441 Y2.972 I0.636 J0.
X136.759 Y3.523 I-0.318 J0.55
G1 Y25.002
X136.123 Y46.481
G3 X135.492 Y47.098 I-0.635 J-0.019
G1 X133.586 Y47.112
G3 X132.945 Y46.476 I-0.005 J-0.636
G1 Y28.142
Y21.852
Y3.518
G3 X133.899 Y2.967 I0.636 J0.
X134.217 Y3.518 I-0.318 J0.55
G1 Y12.685
X133.581 Y21.852
G3 X132.84 Y22.434 I-0.634 J-0.044
G1 X130.932 Y22.109
G3 X130.403 Y21.483 I0.107 J-0.627
G1 Y3.513
G3 X131.356 Y2.962 I0.636 J0.
X131.674 Y3.513 I-0.318 J0.55
G1 Y12.498
X131.039 Y21.483
G3 X130.429 Y22.073 I-0.634 J-0.045
G1 X128.521 Y22.148
G3 X127.861 Y21.512 I-0.025 J-0.635
G1 Y3.525
G3 X128.161 Y3.352 I0.2 J0.
X128.261 Y3.517 I-0.1 J0.173
G1 X130.003 Y46.479
G2 X130.31 Y46.64 I0.2 J-0.008
X130.403 Y46.471 I-0.107 J-0.169
G1 Y28.518
G3 X131.356 Y27.968 I0.636 J0.
X131.674 Y28.518 I-0.318 J0.55
G1 Y37.495
X131.039 Y46.471
G3 X130.424 Y47.062 I-0.634 J-0.045
G1 X128.515 Y47.119
G3 X127.861 Y46.483 I-0.019 J-0.635
G1 Y28.479
G3 X128.814 Y27.928 I0.636 J0.
X129.132 Y28.479 I-0.318 J0.55
G1 Y37.481
X128.496 Y46.483
G3 X127.876 Y47.074 I-0.634 J-0.045
G1 X125.967 Y47.114
G3 X125.319 Y46.478 I-0.013 J-0.635
G1 Y3.52
G3 X126.272 Y2.969 I0.636 J0.
X126.59 Y3.52 I-0.318 J0.55
G1 Y24.999
X125.954 Y46.478
G3 X125.323 Y47.095 I-0.635 J-0.019
G1 X123.416 Y47.109
G3 X122.776 Y46.473 I-0.005 J-0.636
G1 Y3.515
G3 X123.73 Y2.964 I0.636 J0.
X124.047 Y3.515 I-0.318 J0.55
G1 Y24.994
X123.412 Y46.473
G3 X122.787 Y47.09 I-0.635 J-0.019
G1 X120.88 Y47.121
G3 X120.234 Y46.486 I-0.01 J-0.635
G1 Y3.527
G3 X121.187 Y2.977 I0.636 J0.
X121.505 Y3.527 I-0.318 J0.55
G1 Y25.006
X120.87 Y46.486
G3 X120.239 Y47.102 I-0.635 J-0.019
G1 X118.332 Y47.116
G3 X117.692 Y46.48 I-0.005 J-0.636
G1 Y3.522
G3 X118.645 Y2.972 I0.636 J0.
X118.963 Y3.522 I-0.318 J0.55
G1 Y25.001
X118.327 Y46.48
G3 X117.697 Y47.097 I-0.635 J-0.019
G1 X115.79 Y47.111
G3 X115.149 Y46.475 I-0.005 J-0.636
G1 Y3.517
G3 X116.103 Y2.966 I0.636 J0.
X116.421 Y3.517 I-0.318 J0.55
G1 Y24.996
X115.785 Y46.475
G3 X115.154 Y47.092 I-0.635 J-0.019
G1 X113.247 Y47.106
G3 X112.607 Y46.47 I-0.005 J-0.636
G1 Y28.362
Y21.638
Y3.529
G3 X113.56 Y2.979 I0.636 J0.
X113.878 Y3.529 I-0.318 J0.55
G1 Y12.584
X113.243 Y21.638
G3 X112.57 Y22.228 I-0.634 J-0.045
G1 X110.662 Y22.111
G3 X110.065 Y21.477 I0.039 J-0.634
G1 Y3.524
G3 X111.018 Y2.974 I0.636 J0.
X111.336 Y3.524 I-0.318 J0.55
G1 Y12.5
X110.7 Y21.477
G3 X110.114 Y22.066 I-0.634 J-0.045
G1 X108.206 Y22.21
G3 X107.523 Y21.576 I-0.048 J-0.634
G1 Y3.519
G3 X107.823 Y3.346 I0.2 J0.
X107.922 Y3.511 I-0.1 J0.173
G1 X109.665 Y46.491
G2 X109.972 Y46.652 I0.2 J-0.008
X110.065 Y46.483 I-0.107 J-0.169
G1 Y28.53
G3 X111.018 Y27.979 I0.636 J0.
X111.336 Y28.53 I-0.318 J0.55
G1 Y37.506
X110.7 Y46.483
G3 X110.08 Y47.073 I-0.634 J-0.045
G1 X108.171 Y47.113
G3 X107.523 Y46.477 I-0.013 J-0.635
G1 Y28.421
G3 X108.476 Y27.87 I0.636 J0.
X108.794 Y28.421 I-0.318 J0.55
G1 Y37.449
X108.158 Y46.477
G3 X107.537 Y47.068 I-0.634 J-0.045
G1 X105.629 Y47.108
G3 X104.98 Y46.472 I-0.013 J-0.635
G1 Y3.514
G3 X105.934 Y2.963 I0.636 J0.
X106.251 Y3.514 I-0.318 J0.55
G1 Y24.993
X105.616 Y46.472
G3 X104.991 Y47.089 I-0.635 J-0.019
G1 X103.084 Y47.12
G3 X102.438 Y46.485 I-0.01 J-0.635
G1 Y3.526
G3 X103.391 Y2.976 I0.636 J0.
X103.709 Y3.526 I-0.318 J0.55
G1 Y25.005
X103.074 Y46.485
G3 X102.443 Y47.101 I-0.635 J-0.019
G1 X100.536 Y47.115
G3 X99.896 Y46.48 I-0.005 J-0.636
G1 Y3.521
G3 X100.849 Y2.971 I0.636 J0.
X101.167 Y3.521 I-0.318 J0.55
G1 Y25.
X100.531 Y46.48
G3 X99.901 Y47.096 I-0.635 J-0.019
G1 X97.994 Y47.11
G3 X97.353 Y46.474 I-0.005 J-0.636
G1 Y3.516
G3 X98.307 Y2.966 I0.636 J0.
X98.625 Y3.516 I-0.318 J0.55
G1 Y24.995
X97.989 Y46.474
G3 X97.364 Y47.091 I-0.635 J-0.019
G1 X95.457 Y47.122
G3 X94.811 Y46.487 I-0.01 J-0.635
G1 Y3.528
G3 X95.765 Y2.978 I0.636 J0.
X96.082 Y3.528 I-0.318 J0.55
G1 Y25.007
X95.447 Y46.487
G3 X94.816 Y47.103 I-0.635 J-0.019
G1 X92.909 Y47.117
G3 X92.269 Y46.482 I-0.005 J-0.636
G1 Y28.46
Y21.545
Y3.523
G3 X93.222 Y2.973 I0.636 J0.
X93.54 Y3.523 I-0.318 J0.55
G1 Y12.534
X92.905 Y21.545
G3 X92.261 Y22.136 I-0.634 J-0.045
G1 X90.352 Y22.106
G3 X89.727 Y21.471 I0.01 J-0.635
G1 Y3.518
G3 X90.68 Y2.968 I0.636 J0.
X90.998 Y3.518 I-0.318 J0.55
G1 Y12.494
X90.362 Y21.471
G3 X89.832 Y22.053 I-0.634 J-0.045
G1 X87.924 Y22.37
G3 X87.184 Y21.743 I-0.104 J-0.627
G1 Y3.513
G3 X87.484 Y3.34 I0.2 J0.
X87.584 Y3.505 I-0.1 J0.173
G1 X89.327 Y46.485
G2 X89.634 Y46.646 I0.2 J-0.008
X89.727 Y46.477 I-0.107 J-0.169
G1 Y28.524
G3 X90.68 Y27.973 I0.636 J0.
X90.998 Y28.524 I-0.318 J0.55
G1 Y37.5
X90.362 Y46.477
G3 X89.741 Y47.067 I-0.634 J-0.045
G1 X87.833 Y47.107
G3 X87.184 Y46.472 I-0.013 J-0.635
G1 Y28.241
G3 X88.138 Y27.691 I0.636 J0.
X88.456 Y28.241 I-0.318 J0.55
G1 Y37.356
X87.82 Y46.472
G3 X87.205 Y47.063 I-0.634 J-0.044
G1 X85.296 Y47.119
G3 X84.642 Y46.484 I-0.019 J-0.635
G1 Y3.525
G3 X85.595 Y2.975 I0.636 J0.
X85.913 Y3.525 I-0.318 J0.55
G1 Y25.004
X85.278 Y46.484
G3 X84.647 Y47.101 I-0.635 J-0.019
G1 X82.74 Y47.114
G3 X82.1 Y46.479 I-0.005 J-0.636
G1 Y3.52
G3 X83.053 Y2.97 I0.636 J0.
X83.371 Y3.52 I-0.318 J0.55
G1 Y24.999
X82.735 Y46.479
G3 X82.105 Y47.095 I-0.635 J-0.019
G1 X80.198 Y47.109
G3 X79.558 Y46.474 I-0.005 J-0.636
G1 Y3.515
G3 X80.511 Y2.965 I0.636 J0.
X80.829 Y3.515 I-0.318 J0.55
G1 Y24.994
X80.193 Y46.474
G3 X79.568 Y47.09 I-0.635 J-0.019
G1 X77.661 Y47.121
G3 X77.015 Y46.486 I-0.01 J-0.635
G1 Y3.527
G3 X77.969 Y2.977 I0.636 J0.
X78.286 Y3.527 I-0.318 J0.55
G1 Y25.007
X77.651 Y46.486
G3 X77.02 Y47.103 I-0.635 J-0.019
G1 X75.113 Y47.116
G3 X74.473 Y46.481 I-0.005 J-0.636
G1 Y3.522
G2 X74.173 Y3.349 I-0.2 J0.
X74.073 Y3.514 I0.1 J0.173
G1 X72.331 Y46.484
G3 X72.024 Y46.645 I-0.2 J-0.008
X71.931 Y46.476 I0.107 J-0.169
G1 Y28.506
Y21.487
Y3.517
G3 X72.884 Y2.967 I0.636 J0.
X73.202 Y3.517 I-0.318 J0.55
G1 Y12.502
X72.566 Y21.487
G3 X71.946 Y22.078 I-0.634 J-0.045
G1 X70.037 Y22.118
G3 X69.388 Y21.482 I-0.013 J-0.635
G1 Y3.529
G3 X70.342 Y2.979 I0.636 J0.
X70.66 Y3.529 I-0.318 J0.55
G1 Y12.506
X70.024 Y21.482
G3 X69.589 Y22.041 I-0.634 J-0.045
G1 X67.681 Y22.67
G3 X66.846 Y22.066 I-0.199 J-0.604
G1 Y3.524
G3 X67.146 Y3.351 I0.2 J0.
X67.246 Y3.516 I-0.1 J0.173
G1 X68.989 Y46.479
G2 X69.295 Y46.64 I0.2 J-0.008
X69.388 Y46.471 I-0.107 J-0.169
G1 Y28.518
G3 X70.342 Y27.967 I0.636 J0.
X70.66 Y28.518 I-0.318 J0.55
G1 Y37.494
X70.024 Y46.471
G3 X69.409 Y47.061 I-0.634 J-0.045
G1 X67.501 Y47.118
G3 X66.846 Y46.483 I-0.019 J-0.635
G1 Y27.941
G3 X67.8 Y27.39 I0.636 J0.
X68.117 Y27.941 I-0.318 J0.55
G1 Y37.212
X67.482 Y46.483
G3 X66.86 Y47.075 I-0.634 J-0.043
G1 X64.952 Y47.113
G3 X64.304 Y46.478 I-0.013 J-0.635
G1 Y3.519
G3 X65.257 Y2.969 I0.636 J0.
X65.575 Y3.519 I-0.318 J0.55
G1 Y24.999
X64.939 Y46.478
G3 X64.343 Y47.093 I-0.635 J-0.019
G1 X62.436 Y47.211
G3 X61.762 Y46.577 I-0.039 J-0.634
G1 Y3.428
G3 X62.715 Y2.877 I0.636 J0.
X63.033 Y3.428 I-0.318 J0.55
G1 Y25.002
X62.397 Y46.577
G3 X61.885 Y47.181 I-0.635 J-0.019
G1 X59.978 Y47.559
G3 X59.219 Y46.935 I-0.123 J-0.623
G1 Y3.059
G3 X60.173 Y2.508 I0.636 J0.
X60.49 Y3.059 I-0.318 J0.55
G1 Y24.997
X59.855 Y46.935
G3 X59.454 Y47.508 I-0.635 J-0.018
G1 X57.548 Y48.266
G3 X56.677 Y47.676 I-0.235 J-0.591
G1 Y2.326
Y2.313
Y2.243 Z-0.992
Y2.175 Z-0.969
Y2.115 Z-0.931
Y2.065 Z-0.88
Y2.027 Z-0.82
Y2.004 Z-0.753
Y1.996 Z-0.683
X54.135 Y51.234
Y51.226 Z-0.753
Y51.203 Z-0.82
Y51.165 Z-0.88
Y51.115 Z-0.931
Y51.055 Z-0.969
Y50.988 Z-0.992
Y50.917 Z-1.
Y48.901
Y1.108
Y1.095
Y1.024 Z-0.992
Y0.957 Z-0.969
Y0.897 Z-0.931
Y0.847 Z-0.88
Y0.809 Z-0.82
Y0.786 Z-0.753
Y0.778 Z-0.683
G0 Z5.
X51.932 Y52.847
G1 Z-0.714 F762.
X51.931 Y52.84 Z-0.778 F1000.
X51.927 Y52.819 Z-0.838
X51.922 Y52.785 Z-0.892
X51.915 Y52.741 Z-0.938
X51.907 Y52.687 Z-0.972
X51.897 Y52.627 Z-0.993
X51.887 Y52.565 Z-1.
X51.591 Y50.697
X51.588 Y50.648
Y0.
Y-0.641
X51.591 Y-0.691
X51.84 Y-2.259
X51.851 Y-2.329 Z-0.992
X51.861 Y-2.395 Z-0.969
X51.871 Y-2.454 Z-0.931
X51.879 Y-2.504 Z-0.88
X51.884 Y-2.541 Z-0.82
X51.888 Y-2.565 Z-0.753
X51.889 Y-2.572 Z-0.683
G0 Z5.
X150.741 Y48.331
G1 Z-1.683 F762.
Y48.323 Z-1.753 F1000.
Y48.3 Z-1.82
Y48.262 Z-1.88
Y48.212 Z-1.931
Y48.151 Z-1.969
Y48.084 Z-1.992
Y48.014 Z-2.
Y46.287
Y3.727
G3 X151.695 Y3.176 I0.636 J0.
X152.012 Y3.727 I-0.318 J0.55
G1 Y25.007
X151.377 Y46.287
G3 X150.809 Y46.9 I-0.635 J-0.019
G1 X148.902 Y47.104
G3 X148.199 Y46.472 I-0.068 J-0.632
G1 Y3.514
G3 X149.152 Y2.963 I0.636 J0.
X149.47 Y3.514 I-0.318 J0.55
G1 Y24.993
X148.835 Y46.472
G3 X148.21 Y47.089 I-0.635 J-0.019
G1 X146.303 Y47.12
G3 X145.657 Y46.484 I-0.01 J-0.635
G1 Y3.526
G3 X146.61 Y2.975 I0.636 J0.
X146.928 Y3.526 I-0.318 J0.55
G1 Y25.005
X146.292 Y46.484
G3 X145.662 Y47.101 I-0.635 J-0.019
G1 X143.755 Y47.115
G3 X143.114 Y46.479 I-0.005 J-0.636
G1 Y3.521
G3 X144.068 Y2.97 I0.636 J0.
X144.386 Y3.521 I-0.318 J0.55
G1 Y25.
X143.75 Y46.479
G3 X143.119 Y47.096 I-0.635 J-0.019
G1 X141.212 Y47.11
G3 X140.572 Y46.474 I-0.005 J-0.636
G1 Y3.516
G3 X141.526 Y2.965 I0.636 J0.
X141.843 Y3.516 I-0.318 J0.55
G1 Y24.995
X141.208 Y46.474
G3 X140.583 Y47.091 I-0.635 J-0.019
G1 X138.676 Y47.122
G3 X138.03 Y46.486 I-0.01 J-0.635
G1 Y3.528
G3 X138.983 Y2.978 I0.636 J0.
X139.301 Y3.528 I-0.318 J0.55
G1 Y25.007
X138.665 Y46.486
G3 X138.035 Y47.103 I-0.635 J-0.019
G1 X136.128 Y47.117
G3 X135.488 Y46.481 I-0.005 J-0.636
G1 Y3.523
G3 X136.441 Y2.972 I0.636 J0.
X136.759 Y3.523 I-0.318 J0.55
G1 Y25.002
X136.123 Y46.481
G3 X135.492 Y47.098 I-0.635 J-0.019
G1 X133.586 Y47.112
G3 X132.945 Y46.476 I-0.005 J-0.636
G1 Y28.142
Y21.852
Y3.518
G3 X133.899 Y2.967 I0.636 J0.
X134.217 Y3.518 I-0.318 J0.55
G1 Y12.685
X133.581 Y21.852
G3 X132.84 Y22.434 I-0.634 J-0.044
G1 X130.932 Y22.109
G3 X130.403 Y21.483 I0.107 J-0.627
G1 Y3.513
G3 X131.356 Y2.962 I0.636 J0.
X131.674 Y3.513 I-0.318 J0.55
G1 Y12.498
X131.039 Y21.483
G3 X130.429 Y22.073 I-0.634 J-0.045
G1 X128.521 Y22.148
G3 X127.861 Y21.512 I-0.025 J-0.635
G1 Y3.525
G3 X128.161 Y3.352 I0.2 J0.
X128.261 Y3.517 I-0.1 J0.173
G1 X130.003 Y46.479
G2 X130.31 Y46.64 I0.2 J-0.008
X130.403 Y46.471 I-0.107 J-0.169
G1 Y28.518
G3 X131.356 Y27.968 I0.636 J0.
X131.674 Y28.518 I-0.318 J0.55
G1 Y37.495
X131.039 Y46.471
G3 X130.424 Y47.062 I-0.634 J-0.045
G1 X128.515 Y47.119
G3 X127.861 Y46.483 I-0.019 J-0.635
G1 Y28.479
G3 X128.814 Y27.928 I0.636 J0.
X129.132 Y28.479 I-0.318 J0.55
G1 Y37.481
X128.496 Y46.483
G3 X127.876 Y47.074 I-0.634 J-0.045
G1 X125.967 Y47.114
G3 X125.319 Y46.478 I-0.013 J-0.635
G1 Y3.52
G3 X126.272 Y2.969 I0.636 J0.
X126.59 Y3.52 I-0.318 J0.55
G1 Y24.999
X125.954 Y46.478
G3 X125.323 Y47.095 I-0.635 J-0.019
G1 X123.416 Y47.109
G3 X122.776 Y46.473 I-0.005 J-0.636
G1 Y3.515
G3 X123.73 Y2.964 I0.636 J0.
X124.047 Y3.515 I-0.318 J0.55
G1 Y24.994
X123.412 Y46.473
G3 X122.787 Y47.09 I-0.635 J-0.019
G1 X120.88 Y47.121
G3 X120.234 Y46.486 I-0.01 J-0.635
G1 Y3.527
G3 X121.187 Y2.977 I0.636 J0.
X121.505 Y3.527 I-0.318 J0.55
G1 Y25.006
X120.87 Y46.486
G3 X120.239 Y47.102 I-0.635 J-0.019
G1 X118.332 Y47.116
G3 X117.692 Y46.48 I-0.005 J-0.636
G1 Y3.522
G3 X118.645 Y2.972 I0.636 J0.
X118.963 Y3.522 I-0.318 J0.55
G1 Y25.001
X118.327 Y46.48
G3 X117.697 Y47.097 I-0.635 J-0.019
G1 X115.79 Y47.111
G3 X115.149 Y46.475 I-0.005 J-0.636
G1 Y3.517
G3 X116.103 Y2.966 I0.636 J0.
X116.421 Y3.517 I-0.318 J0.55
G1 Y24.996
X115.785 Y46.475
G3 X115.154 Y47.092 I-0.635 J-0.019
G1 X113.247 Y47.106
G3 X112.607 Y46.47 I-0.005 J-0.636
G1 Y28.362
Y21.638
Y3.529
G3 X113.56 Y2.979 I0.636 J0.
X113.878 Y3.529 I-0.318 J0.55
G1 Y12.584
X113.243 Y21.638
G3 X112.57 Y22.228 I-0.634 J-0.045
G1 X110.662 Y22.111
G3 X110.065 Y21.477 I0.039 J-0.634
G1 Y3.524
G3 X111.018 Y2.974 I0.636 J0.
X111.336 Y3.524 I-0.318 J0.55
G1 Y12.5
X110.7 Y21.477
G3 X110.114 Y22.066 I-0.634 J-0.045
G1 X108.206 Y22.21
G3 X107.523 Y21.576 I-0.048 J-0.634
G1 Y3.519
G3 X107.823 Y3.346 I0.2 J0.
X107.922 Y3.511 I-0.1 J0.173
G1 X109.665 Y46.491
G2 X109.972 Y46.652 I0.2 J-0.008
X110.065 Y46.483 I-0.107 J-0.169
G1 Y28.53
G3 X111.018 Y27.979 I0.636 J0.
X111.336 Y28.53 I-0.318 J0.55
G1 Y37.506
X110.7 Y46.483
G3 X110.08 Y47.073 I-0.634 J-0.045
G1 X108.171 Y47.113
G3 X107.523 Y46.477 I-0.013 J-0.635
G1 Y28.421
G3 X108.476 Y27.87 I0.636 J0.
X108.794 Y28.421 I-0.318 J0.55
G1 Y37.449
X108.158 Y46.477
G3 X107.537 Y47.068 I-0.634 J-0.045
G1 X105.629 Y47.108
G3 X104.98 Y46.472 I-0.013 J-0.635
G1 Y3.514
G3 X105.934 Y2.963 I0.636 J0.
X106.251 Y3.514 I-0.318 J0.55
G1 Y24.993
X105.616 Y46.472
G3 X104.991 Y47.089 I-0.635 J-0.019
G1 X103.084 Y47.12
G3 X102.438 Y46.485 I-0.01 J-0.635
G1 Y3.526
G3 X103.391 Y2.976 I0.636 J0.
X103.709 Y3.526 I-0.318 J0.55
G1 Y25.005
X103.074 Y46.485
G3 X102.443 Y47.101 I-0.635 J-0.019
G1 X100.536 Y47.115
G3 X99.896 Y46.48 I-0.005 J-0.636
G1 Y3.521
G3 X100.849 Y2.971 I0.636 J0.
X101.167 Y3.521 I-0.318 J0.55
G1 Y25.
X100.531 Y46.48
G3 X99.901 Y47.096 I-0.635 J-0.019
G1 X97.994 Y47.11
G3 X97.353 Y46.474 I-0.005 J-0.636
G1 Y3.516
G3 X98.307 Y2.966 I0.636 J0.
X98.625 Y3.516 I-0.318 J0.55
G1 Y24.995
X97.989 Y46.474
G3 X97.364 Y47.091 I-0.635 J-0.019
G1 X95.457 Y47.122
G3 X94.811 Y46.487 I-0.01 J-0.635
G1 Y3.528
G3 X95.765 Y2.978 I0.636 J0.
X96.082 Y3.528 I-0.318 J0.55
G1 Y25.007
X95.447 Y46.487
G3 X94.816 Y47.103 I-0.635 J-0.019
G1 X92.909 Y47.117
G3 X92.269 Y46.482 I-0.005 J-0.636
G1 Y28.46
Y21.545
Y3.523
G3 X93.222 Y2.973 I0.636 J0.
X93.54 Y3.523 I-0.318 J0.55
G1 Y12.534
X92.905 Y21.545
G3 X92.261 Y22.136 I-0.634 J-0.045
G1 X90.352 Y22.106
G3 X89.727 Y21.471 I0.01 J-0.635
G1 Y3.518
G3 X90.68 Y2.968 I0.636 J0.
X90.998 Y3.518 I-0.318 J0.55
G1 Y12.494
X90.362 Y21.471
G3 X89.832 Y22.053 I-0.634 J-0.045
G1 X87.924 Y22.37
G3 X87.184 Y21.743 I-0.104 J-0.627
G1 Y3.513
G3 X87.484 Y3.34 I0.2 J0.
X87.584 Y3.505 I-0.1 J0.173
G1 X89.327 Y46.485
G2 X89.634 Y46.646 I0.2 J-0.008
X89.727 Y46.477 I-0.107 J-0.169
G1 Y28.524
G3 X90.68 Y27.973 I0.636 J0.
X90.998 Y28.524 I-0.318 J0.55
G1 Y37.5
X90.362 Y46.477
G3 X89.741 Y47.067 I-0.634 J-0.045
G1 X87.833 Y47.107
G3 X87.184 Y46.472 I-0.013 J-0.635
G1 Y28.241
G3 X88.138 Y27.691 I0.636 J0.
X88.456 Y28.241 I-0.318 J0.55
G1 Y37.356
X87.82 Y46.472
G3 X87.205 Y47.063 I-0.634 J-0.044
G1 X85.296 Y47.119
G3 X84.642 Y46.484 I-0.019 J-0.635
G1 Y3.525
G3 X85.595 Y2.975 I0.636 J0.
X85.913 Y3.525 I-0.318 J0.55
G1 Y25.004
X85.278 Y46.484
G3 X84.647 Y47.101 I-0.635 J-0.019
G1 X82.74 Y47.114
G3 X82.1 Y46.479 I-0.005 J-0.636
G1 Y3.52
G3 X83.053 Y2.97 I0.636 J0.
X83.371 Y3.52 I-0.318 J0.55
G1 Y24.999
X82.735 Y46.479
G3 X82.105 Y47.095 I-0.635 J-0.019
G1 X80.198 Y47.109
G3 X79.558 Y46.474 I-0.005 J-0.636
G1 Y3.515
G3 X80.511 Y2.965 I0.636 J0.
X80.829 Y3.515 I-0.318 J0.55
G1 Y24.994
X80.193 Y46.474
G3 X79.568 Y47.09 I-0.635 J-0.019
G1 X77.661 Y47.121
G3 X77.015 Y46.486 I-0.01 J-0.635
G1 Y3.527
G3 X77.969 Y2.977 I0.636 J0.
X78.286 Y3.527 I-0.318 J0.55
G1 Y25.007
X77.651 Y46.486
G3 X77.02 Y47.103 I-0.635 J-0.019
G1 X75.113 Y47.116
G3 X74.473 Y46.481 I-0.005 J-0.636
G1 Y3.522
G2 X74.173 Y3.349 I-0.2 J0.
X74.073 Y3.514 I0.1 J0.173
G1 X72.331 Y46.484
G3 X72.024 Y46.645 I-0.2 J-0.008
X71.931 Y46.476 I0.107 J-0.169
G1 Y28.506
Y21.487
Y3.517
G3 X72.884 Y2.967 I0.636 J0.
X73.202 Y3.517 I-0.318 J0.55
G1 Y12.502
X72.566 Y21.487
G3 X71.946 Y22.078 I-0.634 J-0.045
G1 X70.037 Y22.118
G3 X69.388 Y21.482 I-0.013 J-0.635
G1 Y3.529
G3 X70.342 Y2.979 I0.636 J0.
X70.66 Y3.529 I-0.318 J0.55
G1 Y12.506
X70.024 Y21.482
G3 X69.589 Y22.041 I-0.634 J-0.045
G1 X67.681 Y22.67
G3 X66.846 Y22.066 I-0.199 J-0.604
G1 Y3.524
G3 X67.146 Y3.351 I0.2 J0.
X67.246 Y3.516 I-0.1 J0.173
G1 X68.989 Y46.479
G2 X69.295 Y46.64 I0.2 J-0.008
X69.388 Y46.471 I-0.107 J-0.169
G1 Y28.518
G3 X70.342 Y27.967 I0.636 J0.
X70.66 Y28.518 I-0.318 J0.55
G1 Y37.494
X70.024 Y46.471
G3 X69.409 Y47.061 I-0.634 J-0.045
G1 X67.501 Y47.118
G3 X66.846 Y46.483 I-0.019 J-0.635
G1 Y27.941
G3 X67.8 Y27.39 I0.636 J0.
X68.117 Y27.941 I-0.318 J0.55
G1 Y37.212
X67.482 Y46.483
G3 X66.86 Y47.075 I-0.634 J-0.043
G1 X64.952 Y47.113
G3 X64.304 Y46.478 I-0.013 J-0.635
G1 Y3.519
G3 X65.257 Y2.969 I0.636 J0.
X65.575 Y3.519 I-0.318 J0.55
G1 Y24.999
X64.939 Y46.478
G3 X64.343 Y47.093 I-0.635 J-0.019
G1 X62.436 Y47.211
G3 X61.762 Y46.577 I-0.039 J-0.634
G1 Y3.428
G3 X62.715 Y2.877 I0.636 J0.
X63.033 Y3.428 I-0.318 J0.55
G1 Y25.002
X62.397 Y46.577
G3 X61.885 Y47.181 I-0.635 J-0.019
G1 X59.978 Y47.559
G3 X59.219 Y46.935 I-0.123 J-0.623
G1 Y3.059
G3 X60.173 Y2.508 I0.636 J0.
X60.49 Y3.059 I-0.318 J0.55
G1 Y24.997
X59.855 Y46.935
G3 X59.454 Y47.508 I-0.635 J-0.018
G1 X57.548 Y48.266
G3 X56.677 Y47.676 I-0.235 J-0.591
G1 Y2.326
Y2.313
Y2.243 Z-1.992
Y2.175 Z-1.969
Y2.115 Z-1.931
Y2.065 Z-1.88
Y2.027 Z-1.82
Y2.004 Z-1.753
Y1.996 Z-1.683
X54.135 Y51.234
Y51.226 Z-1.753
Y51.203 Z-1.82
Y51.165 Z-1.88
Y51.115 Z-1.931
Y51.055 Z-1.969
Y50.988 Z-1.992
Y50.917 Z-2.
Y48.901
Y1.108
Y1.095
Y1.024 Z-1.992
Y0.957 Z-1.969
Y0.897 Z-1.931
Y0.847 Z-1.88
Y0.809 Z-1.82
Y0.786 Z-1.753
Y0.778 Z-1.683
G0 Z5.
X51.932 Y52.847
G1 Z-1.714 F762.
X51.931 Y52.84 Z-1.778 F1000.
X51.927 Y52.819 Z-1.838
X51.922 Y52.785 Z-1.892
X51.915 Y52.741 Z-1.938
X51.907 Y52.687 Z-1.972
X51.897 Y52.627 Z-1.993
X51.887 Y52.565 Z-2.
X51.591 Y50.697
X51.588 Y50.648
Y0.
Y-0.641
X51.591 Y-0.691
X51.84 Y-2.259
X51.851 Y-2.329 Z-1.992
X51.861 Y-2.395 Z-1.969
X51.871 Y-2.454 Z-1.931
X51.879 Y-2.504 Z-1.88
X51.884 Y-2.541 Z-1.82
X51.888 Y-2.565 Z-1.753
X51.889 Y-2.572 Z-1.683
G0 Z5.
X150.741 Y48.331
G1 Z-2.682 F762.
Y48.323 Z-2.753 F1000.
Y48.3 Z-2.82
Y48.262 Z-2.88
Y48.212 Z-2.931
Y48.151 Z-2.969
Y48.084 Z-2.992
Y48.014 Z-3.
Y46.287
Y3.727
G3 X151.695 Y3.176 I0.636 J0.
X152.012 Y3.727 I-0.318 J0.55
G1 Y25.007
X151.377 Y46.287
G3 X150.809 Y46.9 I-0.635 J-0.019
G1 X148.902 Y47.104
G3 X148.199 Y46.472 I-0.068 J-0.632
G1 Y3.514
G3 X149.152 Y2.963 I0.636 J0.
X149.47 Y3.514 I-0.318 J0.55
G1 Y24.993
X148.835 Y46.472
G3 X148.21 Y47.089 I-0.635 J-0.019
G1 X146.303 Y47.12
G3 X145.657 Y46.484 I-0.01 J-0.635
G1 Y3.526
G3 X146.61 Y2.975 I0.636 J0.
X146.928 Y3.526 I-0.318 J0.55
G1 Y25.005
X146.292 Y46.484
G3 X145.662 Y47.101 I-0.635 J-0.019
G1 X143.755 Y47.115
G3 X143.114 Y46.479 I-0.005 J-0.636
G1 Y3.521
G3 X144.068 Y2.97 I0.636 J0.
X144.386 Y3.521 I-0.318 J0.55
G1 Y25.
X143.75 Y46.479
G3 X143.119 Y47.096 I-0.635 J-0.019
G1 X141.212 Y47.11
G3 X140.572 Y46.474 I-0.005 J-0.636
G1 Y3.516
G3 X141.526 Y2.965 I0.636 J0.
X141.843 Y3.516 I-0.318 J0.55
G1 Y24.995
X141.208 Y46.474
G3 X140.583 Y47.091 I-0.635 J-0.019
G1 X138.676 Y47.122
G3 X138.03 Y46.486 I-0.01 J-0.635
G1 Y3.528
G3 X138.983 Y2.978 I0.636 J0.
X139.301 Y3.528 I-0.318 J0.55
G1 Y25.007
X138.665 Y46.486
G3 X138.035 Y47.103 I-0.635 J-0.019
G1 X136.128 Y47.117
G3 X135.488 Y46.481 I-0.005 J-0.636
G1 Y3.523
G3 X136.441 Y2.972 I0.636 J0.
X136.759 Y3.523 I-0.318 J0.55
G1 Y25.002
X136.123 Y46.481
G3 X135.492 Y47.098 I-0.635 J-0.019
G1 X133.586 Y47.112
G3 X132.945 Y46.476 I-0.005 J-0.636
G1 Y28.142
Y21.852
Y3.518
G3 X133.899 Y2.967 I0.636 J0.
X134.217 Y3.518 I-0.318 J0.55
G1 Y12.685
X133.581 Y21.852
G3 X132.84 Y22.434 I-0.634 J-0.044
G1 X130.932 Y22.109
G3 X130.403 Y21.483 I0.107 J-0.627
G1 Y3.513
G3 X131.356 Y2.962 I0.636 J0.
X131.674 Y3.513 I-0.318 J0.55
G1 Y12.498
X131.039 Y21.483
G3 X130.429 Y22.073 I-0.634 J-0.045
G1 X128.521 Y22.148
G3 X127.861 Y21.512 I-0.025 J-0.635
G1 Y3.525
G3 X128.161 Y3.352 I0.2 J0.
X128.261 Y3.517 I-0.1 J0.173
G1 X130.003 Y46.479
G2 X130.31 Y46.64 I0.2 J-0.008
X130.403 Y46.471 I-0.107 J-0.169
G1 Y28.518
G3 X131.356 Y27.968 I0.636 J0.
X131.674 Y28.518 I-0.318 J0.55
G1 Y37.495
X131.039 Y46.471
G3 X130.424 Y47.062 I-0.634 J-0.045
G1 X128.515 Y47.119
G3 X127.861 Y46.483 I-0.019 J-0.635
G1 Y28.479
G3 X128.814 Y27.928 I0.636 J0.
X129.132 Y28.479 I-0.318 J0.55
G1 Y37.481
X128.496 Y46.483
G3 X127.876 Y47.074 I-0.634 J-0.045
G1 X125.967 Y47.114
G3 X125.319 Y46.478 I-0.013 J-0.635
G1 Y3.52
G3 X126.272 Y2.969 I0.636 J0.
X126.59 Y3.52 I-0.318 J0.55
G1 Y24.999
X125.954 Y46.478
G3 X125.323 Y47.095 I-0.635 J-0.019
G1 X123.416 Y47.109
G3 X122.776 Y46.473 I-0.005 J-0.636
G1 Y3.515
G3 X123.73 Y2.964 I0.636 J0.
X124.047 Y3.515 I-0.318 J0.55
G1 Y24.994
X123.412 Y46.473
G3 X122.787 Y47.09 I-0.635 J-0.019
G1 X120.88 Y47.121
G3 X120.234 Y46.486 I-0.01 J-0.635
G1 Y3.527
G3 X121.187 Y2.977 I0.636 J0.
X121.505 Y3.527 I-0.318 J0.55
G1 Y25.006
X120.87 Y46.486
G3 X120.239 Y47.102 I-0.635 J-0.019
G1 X118.332 Y47.116
G3 X117.692 Y46.48 I-0.005 J-0.636
G1 Y3.522
G3 X118.645 Y2.972 I0.636 J0.
X118.963 Y3.522 I-0.318 J0.55
G1 Y25.001
X118.327 Y46.48
G3 X117.697 Y47.097 I-0.635 J-0.019
G1 X115.79 Y47.111
G3 X115.149 Y46.475 I-0.005 J-0.636
G1 Y3.517
G3 X116.103 Y2.966 I0.636 J0.
X116.421 Y3.517 I-0.318 J0.55
G1 Y24.996
X115.785 Y46.475
G3 X115.154 Y47.092 I-0.635 J-0.019
G1 X113.247 Y47.106
G3 X112.607 Y46.47 I-0.005 J-0.636
G1 Y28.362
Y21.638
Y3.529
G3 X113.56 Y2.979 I0.636 J0.
X113.878 Y3.529 I-0.318 J0.55
G1 Y12.584
X113.243 Y21.638
G3 X112.57 Y22.228 I-0.634 J-0.045
G1 X110.662 Y22.111
G3 X110.065 Y21.477 I0.039 J-0.634
G1 Y3.524
G3 X111.018 Y2.974 I0.636 J0.
X111.336 Y3.524 I-0.318 J0.55
G1 Y12.5
X110.7 Y21.477
G3 X110.114 Y22.066 I-0.634 J-0.045
G1 X108.206 Y22.21
G3 X107.523 Y21.576 I-0.048 J-0.634
G1 Y3.519
G3 X107.823 Y3.346 I0.2 J0.
X107.922 Y3.511 I-0.1 J0.173
G1 X109.665 Y46.491
G2 X109.972 Y46.652 I0.2 J-0.008
X110.065 Y46.483 I-0.107 J-0.169
G1 Y28.53
G3 X111.018 Y27.979 I0.636 J0.
X111.336 Y28.53 I-0.318 J0.55
G1 Y37.506
X110.7 Y46.483
G3 X110.08 Y47.073 I-0.634 J-0.045
G1 X108.171 Y47.113
G3 X107.523 Y46.477 I-0.013 J-0.635
G1 Y28.421
G3 X108.476 Y27.87 I0.636 J0.
X108.794 Y28.421 I-0.318 J0.55
G1 Y37.449
X108.158 Y46.477
G3 X107.537 Y47.068 I-0.634 J-0.045
G1 X105.629 Y47.108
G3 X104.98 Y46.472 I-0.013 J-0.635
G1 Y3.514
G3 X105.934 Y2.963 I0.636 J0.
X106.251 Y3.514 I-0.318 J0.55
G1 Y24.993
X105.616 Y46.472
G3 X104.991 Y47.089 I-0.635 J-0.019
G1 X103.084 Y47.12
G3 X102.438 Y46.485 I-0.01 J-0.635
G1 Y3.526
G3 X103.391 Y2.976 I0.636 J0.
X103.709 Y3.526 I-0.318 J0.55
G1 Y25.005
X103.074 Y46.485
G3 X102.443 Y47.101 I-0.635 J-0.019
G1 X100.536 Y47.115
G3 X99.896 Y46.48 I-0.005 J-0.636
G1 Y3.521
G3 X100.849 Y2.971 I0.636 J0.
X101.167 Y3.521 I-0.318 J0.55
G1 Y25.
X100.531 Y46.48
G3 X99.901 Y47.096 I-0.635 J-0.019
G1 X97.994 Y47.11
G3 X97.353 Y46.474 I-0.005 J-0.636
G1 Y3.516
G3 X98.307 Y2.966 I0.636 J0.
X98.625 Y3.516 I-0.318 J0.55
G1 Y24.995
X97.989 Y46.474
G3 X97.364 Y47.091 I-0.635 J-0.019
G1 X95.457 Y47.122
G3 X94.811 Y46.487 I-0.01 J-0.635
G1 Y3.528
G3 X95.765 Y2.978 I0.636 J0.
X96.082 Y3.528 I-0.318 J0.55
G1 Y25.007
X95.447 Y46.487
G3 X94.816 Y47.103 I-0.635 J-0.019
G1 X92.909 Y47.117
G3 X92.269 Y46.482 I-0.005 J-0.636
G1 Y28.46
Y21.545
Y3.523
G3 X93.222 Y2.973 I0.636 J0.
X93.54 Y3.523 I-0.318 J0.55
G1 Y12.534
X92.905 Y21.545
G3 X92.261 Y22.136 I-0.634 J-0.045
G1 X90.352 Y22.106
G3 X89.727 Y21.471 I0.01 J-0.635
G1 Y3.518
G3 X90.68 Y2.968 I0.636 J0.
X90.998 Y3.518 I-0.318 J0.55
G1 Y12.494
X90.362 Y21.471
G3 X89.832 Y22.053 I-0.634 J-0.045
G1 X87.924 Y22.37
G3 X87.184 Y21.743 I-0.104 J-0.627
G1 Y3.513
G3 X87.484 Y3.34 I0.2 J0.
X87.584 Y3.505 I-0.1 J0.173
G1 X89.327 Y46.485
G2 X89.634 Y46.646 I0.2 J-0.008
X89.727 Y46.477 I-0.107 J-0.169
G1 Y28.524
G3 X90.68 Y27.973 I0.636 J0.
X90.998 Y28.524 I-0.318 J0.55
G1 Y37.5
X90.362 Y46.477
G3 X89.741 Y47.067 I-0.634 J-0.045
G1 X87.833 Y47.107
G3 X87.184 Y46.472 I-0.013 J-0.635
G1 Y28.241
G3 X88.138 Y27.691 I0.636 J0.
X88.456 Y28.241 I-0.318 J0.55
G1 Y37.356
X87.82 Y46.472
G3 X87.205 Y47.063 I-0.634 J-0.044
G1 X85.296 Y47.119
G3 X84.642 Y46.484 I-0.019 J-0.635
G1 Y3.525
G3 X85.595 Y2.975 I0.636 J0.
X85.913 Y3.525 I-0.318 J0.55
G1 Y25.004
X85.278 Y46.484
G3 X84.647 Y47.101 I-0.635 J-0.019
G1 X82.74 Y47.114
G3 X82.1 Y46.479 I-0.005 J-0.636
G1 Y3.52
G3 X83.053 Y2.97 I0.636 J0.
X83.371 Y3.52 I-0.318 J0.55
G1 Y24.999
X82.735 Y46.479
G3 X82.105 Y47.095 I-0.635 J-0.019
G1 X80.198 Y47.109
G3 X79.558 Y46.474 I-0.005 J-0.636
G1 Y3.515
G3 X80.511 Y2.965 I0.636 J0.
X80.829 Y3.515 I-0.318 J0.55
G1 Y24.994
X80.193 Y46.474
G3 X79.568 Y47.09 I-0.635 J-0.019
G1 X77.661 Y47.121
G3 X77.015 Y46.486 I-0.01 J-0.635
G1 Y3.527
G3 X77.969 Y2.977 I0.636 J0.
X78.286 Y3.527 I-0.318 J0.55
G1 Y25.007
X77.651 Y46.486
G3 X77.02 Y47.103 I-0.635 J-0.019
G1 X75.113 Y47.116
G3 X74.473 Y46.481 I-0.005 J-0.636
G1 Y3.522
G2 X74.173 Y3.349 I-0.2 J0.
X74.073 Y3.514 I0.1 J0.173
G1 X72.331 Y46.484
G3 X72.024 Y46.645 I-0.2 J-0.008
X71.931 Y46.476 I0.107 J-0.169
G1 Y28.506
Y21.487
Y3.517
G3 X72.884 Y2.967 I0.636 J0.
X73.202 Y3.517 I-0.318 J0.55
G1 Y12.502
X72.566 Y21.487
G3 X71.946 Y22.078 I-0.634 J-0.045
G1 X70.037 Y22.118
G3 X69.388 Y21.482 I-0.013 J-0.635
G1 Y3.529
G3 X70.342 Y2.979 I0.636 J0.
X70.66 Y3.529 I-0.318 J0.55
G1 Y12.506
X70.024 Y21.482
G3 X69.589 Y22.041 I-0.634 J-0.045
G1 X67.681 Y22.67
G3 X66.846 Y22.066 I-0.199 J-0.604
G1 Y3.524
G3 X67.146 Y3.351 I0.2 J0.
X67.246 Y3.516 I-0.1 J0.173
G1 X68.989 Y46.479
G2 X69.295 Y46.64 I0.2 J-0.008
X69.388 Y46.471 I-0.107 J-0.169
G1 Y28.518
G3 X70.342 Y27.967 I0.636 J0.
X70.66 Y28.518 I-0.318 J0.55
G1 Y37.494
X70.024 Y46.471
G3 X69.409 Y47.061 I-0.634 J-0.045
G1 X67.501 Y47.118
G3 X66.846 Y46.483 I-0.019 J-0.635
G1 Y27.941
G3 X67.8 Y27.39 I0.636 J0.
X68.117 Y27.941 I-0.318 J0.55
G1 Y37.212
X67.482 Y46.483
G3 X66.86 Y47.075 I-0.634 J-0.043
G1 X64.952 Y47.113
G3 X64.304 Y46.478 I-0.013 J-0.635
G1 Y3.519
G3 X65.257 Y2.969 I0.636 J0.
X65.575 Y3.519 I-0.318 J0.55
G1 Y24.999
X64.939 Y46.478
G3 X64.343 Y47.093 I-0.635 J-0.019
G1 X62.436 Y47.211
G3 X61.762 Y46.577 I-0.039 J-0.634
G1 Y3.428
G3 X62.715 Y2.877 I0.636 J0.
X63.033 Y3.428 I-0.318 J0.55
G1 Y25.002
X62.397 Y46.577
G3 X61.885 Y47.181 I-0.635 J-0.019
G1 X59.978 Y47.559
G3 X59.219 Y46.935 I-0.123 J-0.623
G1 Y3.059
G3 X60.173 Y2.508 I0.636 J0.
X60.49 Y3.059 I-0.318 J0.55
G1 Y24.997
X59.855 Y46.935
G3 X59.454 Y47.508 I-0.635 J-0.018
G1 X57.548 Y48.266
G3 X56.677 Y47.676 I-0.235 J-0.591
G1 Y2.326
Y2.313
Y2.243 Z-2.992
Y2.175 Z-2.969
Y2.115 Z-2.931
Y2.065 Z-2.88
Y2.027 Z-2.82
Y2.004 Z-2.753
Y1.996 Z-2.682
X54.135 Y51.234
Y51.226 Z-2.753
Y51.203 Z-2.82
Y51.165 Z-2.88
Y51.115 Z-2.931
Y51.055 Z-2.969
Y50.988 Z-2.992
Y50.917 Z-3.
Y48.901
Y1.108
Y1.095
Y1.024 Z-2.992
Y0.957 Z-2.969
Y0.897 Z-2.931
Y0.847 Z-2.88
Y0.809 Z-2.82
Y0.786 Z-2.753
Y0.778 Z-2.682
G0 Z5.
X51.932 Y52.847
G1 Z-2.714 F762.
X51.931 Y52.84 Z-2.778 F1000.
X51.927 Y52.819 Z-2.838
X51.922 Y52.785 Z-2.892
X51.915 Y52.741 Z-2.938
X51.907 Y52.687 Z-2.972
X51.897 Y52.627 Z-2.993
X51.887 Y52.565 Z-3.
X51.591 Y50.697
X51.588 Y50.648
Y0.
Y-0.641
X51.591 Y-0.691
X51.84 Y-2.259
X51.851 Y-2.329 Z-2.992
X51.861 Y-2.395 Z-2.969
X51.871 Y-2.454 Z-2.931
X51.879 Y-2.504 Z-2.88
X51.884 Y-2.541 Z-2.82
X51.888 Y-2.565 Z-2.753
X51.889 Y-2.572 Z-2.682
G0 Z5.
X150.741 Y48.331
G1 Z-3.682 F762.
Y48.323 Z-3.753 F1000.
Y48.3 Z-3.82
Y48.262 Z-3.88
Y48.212 Z-3.931
Y48.151 Z-3.969
Y48.084 Z-3.992
Y48.014 Z-4.
Y46.287
Y3.727
G3 X151.695 Y3.176 I0.636 J0.
X152.012 Y3.727 I-0.318 J0.55
G1 Y25.007
X151.377 Y46.287
G3 X150.809 Y46.9 I-0.635 J-0.019
G1 X148.902 Y47.104
G3 X148.199 Y46.472 I-0.068 J-0.632
G1 Y3.514
G3 X149.152 Y2.963 I0.636 J0.
X149.47 Y3.514 I-0.318 J0.55
G1 Y24.993
X148.835 Y46.472
G3 X148.21 Y47.089 I-0.635 J-0.019
G1 X146.303 Y47.12
G3 X145.657 Y46.484 I-0.01 J-0.635
G1 Y3.526
G3 X146.61 Y2.975 I0.636 J0.
X146.928 Y3.526 I-0.318 J0.55
G1 Y25.005
X146.292 Y46.484
G3 X145.662 Y47.101 I-0.635 J-0.019
G1 X143.755 Y47.115
G3 X143.114 Y46.479 I-0.005 J-0.636
G1 Y3.521
G3 X144.068 Y2.97 I0.636 J0.
X144.386 Y3.521 I-0.318 J0.55
G1 Y25.
X143.75 Y46.479
G3 X143.119 Y47.096 I-0.635 J-0.019
G1 X141.212 Y47.11
G3 X140.572 Y46.474 I-0.005 J-0.636
G1 Y3.516
G3 X141.526 Y2.965 I0.636 J0.
X141.843 Y3.516 I-0.318 J0.55
G1 Y24.995
X141.208 Y46.474
G3 X140.583 Y47.091 I-0.635 J-0.019
G1 X138.676 Y47.122
G3 X138.03 Y46.486 I-0.01 J-0.635
G1 Y3.528
G3 X138.983 Y2.978 I0.636 J0.
X139.301 Y3.528 I-0.318 J0.55
G1 Y25.007
X138.665 Y46.486
G3 X138.035 Y47.103 I-0.635 J-0.019
G1 X136.128 Y47.117
G3 X135.488 Y46.481 I-0.005 J-0.636
G1 Y3.523
G3 X136.441 Y2.972 I0.636 J0.
X136.759 Y3.523 I-0.318 J0.55
G1 Y25.002
X136.123 Y46.481
G3 X135.492 Y47.098 I-0.635 J-0.019
G1 X133.586 Y47.112
G3 X132.945 Y46.476 I-0.005 J-0.636
G1 Y28.142
Y21.852
Y3.518
G3 X133.899 Y2.967 I0.636 J0.
X134.217 Y3.518 I-0.318 J0.55
G1 Y12.685
X133.581 Y21.852
G3 X132.84 Y22.434 I-0.634 J-0.044
G1 X130.932 Y22.109
G3 X130.403 Y21.483 I0.107 J-0.627
G1 Y3.513
G3 X131.356 Y2.962 I0.636 J0.
X131.674 Y3.513 I-0.318 J0.55
G1 Y12.498
X131.039 Y21.483
G3 X130.429 Y22.073 I-0.634 J-0.045
G1 X128.521 Y22.148
G3 X127.861 Y21.512 I-0.025 J-0.635
G1 Y3.525
G3 X128.161 Y3.352 I0.2 J0.
X128.261 Y3.517 I-0.1 J0.173
G1 X130.003 Y46.479
G2 X130.31 Y46.64 I0.2 J-0.008
X130.403 Y46.471 I-0.107 J-0.169
G1 Y28.518
G3 X131.356 Y27.968 I0.636 J0.
X131.674 Y28.518 I-0.318 J0.55
G1 Y37.495
X131.039 Y46.471
G3 X130.424 Y47.062 I-0.634 J-0.045
G1 X128.515 Y47.119
G3 X127.861 Y46.483 I-0.019 J-0.635
G1 Y28.479
G3 X128.814 Y27.928 I0.636 J0.
X129.132 Y28.479 I-0.318 J0.55
G1 Y37.481
X128.496 Y46.483
G3 X127.876 Y47.074 I-0.634 J-0.045
G1 X125.967 Y47.114
G3 X125.319 Y46.478 I-0.013 J-0.635
G1 Y3.52
G3 X126.272 Y2.969 I0.636 J0.
X126.59 Y3.52 I-0.318 J0.55
G1 Y24.999
X125.954 Y46.478
G3 X125.323 Y47.095 I-0.635 J-0.019
G1 X123.416 Y47.109
G3 X122.776 Y46.473 I-0.005 J-0.636
G1 Y3.515
G3 X123.73 Y2.964 I0.636 J0.
X124.047 Y3.515 I-0.318 J0.55
G1 Y24.994
X123.412 Y46.473
G3 X122.787 Y47.09 I-0.635 J-0.019
G1 X120.88 Y47.121
G3 X120.234 Y46.486 I-0.01 J-0.635
G1 Y3.527
G3 X121.187 Y2.977 I0.636 J0.
X121.505 Y3.527 I-0.318 J0.55
G1 Y25.006
X120.87 Y46.486
G3 X120.239 Y47.102 I-0.635 J-0.019
G1 X118.332 Y47.116
G3 X117.692 Y46.48 I-0.005 J-0.636
G1 Y3.522
G3 X118.645 Y2.972 I0.636 J0.
X118.963 Y3.522 I-0.318 J0.55
G1 Y25.001
X118.327 Y46.48
G3 X117.697 Y47.097 I-0.635 J-0.019
G1 X115.79 Y47.111
G3 X115.149 Y46.475 I-0.005 J-0.636
G1 Y3.517
G3 X116.103 Y2.966 I0.636 J0.
X116.421 Y3.517 I-0.318 J0.55
G1 Y24.996
X115.785 Y46.475
G3 X115.154 Y47.092 I-0.635 J-0.019
G1 X113.247 Y47.106
G3 X112.607 Y46.47 I-0.005 J-0.636
G1 Y28.362
Y21.638
Y3.529
G3 X113.56 Y2.979 I0.636 J0.
X113.878 Y3.529 I-0.318 J0.55
G1 Y12.584
X113.243 Y21.638
G3 X112.57 Y22.228 I-0.634 J-0.045
G1 X110.662 Y22.111
G3 X110.065 Y21.477 I0.039 J-0.634
G1 Y3.524
G3 X111.018 Y2.974 I0.636 J0.
X111.336 Y3.524 I-0.318 J0.55
G1 Y12.5
X110.7 Y21.477
G3 X110.114 Y22.066 I-0.634 J-0.045
G1 X108.206 Y22.21
G3 X107.523 Y21.576 I-0.048 J-0.634
G1 Y3.519
G3 X107.823 Y3.346 I0.2 J0.
X107.922 Y3.511 I-0.1 J0.173
G1 X109.665 Y46.491
G2 X109.972 Y46.652 I0.2 J-0.008
X110.065 Y46.483 I-0.107 J-0.169
G1 Y28.53
G3 X111.018 Y27.979 I0.636 J0.
X111.336 Y28.53 I-0.318 J0.55
G1 Y37.506
X110.7 Y46.483
G3 X110.08 Y47.073 I-0.634 J-0.045
G1 X108.171 Y47.113
G3 X107.523 Y46.477 I-0.013 J-0.635
G1 Y28.421
G3 X108.476 Y27.87 I0.636 J0.
X108.794 Y28.421 I-0.318 J0.55
G1 Y37.449
X108.158 Y46.477
G3 X107.537 Y47.068 I-0.634 J-0.045
G1 X105.629 Y47.108
G3 X104.98 Y46.472 I-0.013 J-0.635
G1 Y3.514
G3 X105.934 Y2.963 I0.636 J0.
X106.251 Y3.514 I-0.318 J0.55
G1 Y24.993
X105.616 Y46.472
G3 X104.991 Y47.089 I-0.635 J-0.019
G1 X103.084 Y47.12
G3 X102.438 Y46.485 I-0.01 J-0.635
G1 Y3.526
G3 X103.391 Y2.976 I0.636 J0.
X103.709 Y3.526 I-0.318 J0.55
G1 Y25.005
X103.074 Y46.485
G3 X102.443 Y47.101 I-0.635 J-0.019
G1 X100.536 Y47.115
G3 X99.896 Y46.48 I-0.005 J-0.636
G1 Y3.521
G3 X100.849 Y2.971 I0.636 J0.
X101.167 Y3.521 I-0.318 J0.55
G1 Y25.
X100.531 Y46.48
G3 X99.901 Y47.096 I-0.635 J-0.019
G1 X97.994 Y47.11
G3 X97.353 Y46.474 I-0.005 J-0.636
G1 Y3.516
G3 X98.307 Y2.966 I0.636 J0.
X98.625 Y3.516 I-0.318 J0.55
G1 Y24.995
X97.989 Y46.474
G3 X97.364 Y47.091 I-0.635 J-0.019
G1 X95.457 Y47.122
G3 X94.811 Y46.487 I-0.01 J-0.635
G1 Y3.528
G3 X95.765 Y2.978 I0.636 J0.
X96.082 Y3.528 I-0.318 J0.55
G1 Y25.007
X95.447 Y46.487
G3 X94.816 Y47.103 I-0.635 J-0.019
G1 X92.909 Y47.117
G3 X92.269 Y46.482 I-0.005 J-0.636
G1 Y28.46
Y21.545
Y3.523
G3 X93.222 Y2.973 I0.636 J0.
X93.54 Y3.523 I-0.318 J0.55
G1 Y12.534
X92.905 Y21.545
G3 X92.261 Y22.136 I-0.634 J-0.045
G1 X90.352 Y22.106
G3 X89.727 Y21.471 I0.01 J-0.635
G1 Y3.518
G3 X90.68 Y2.968 I0.636 J0.
X90.998 Y3.518 I-0.318 J0.55
G1 Y12.494
X90.362 Y21.471
G3 X89.832 Y22.053 I-0.634 J-0.045
G1 X87.924 Y22.37
G3 X87.184 Y21.743 I-0.104 J-0.627
G1 Y3.513
G3 X87.484 Y3.34 I0.2 J0.
X87.584 Y3.505 I-0.1 J0.173
G1 X89.327 Y46.485
G2 X89.634 Y46.646 I0.2 J-0.008
X89.727 Y46.477 I-0.107 J-0.169
G1 Y28.524
G3 X90.68 Y27.973 I0.636 J0.
X90.998 Y28.524 I-0.318 J0.55
G1 Y37.5
X90.362 Y46.477
G3 X89.741 Y47.067 I-0.634 J-0.045
G1 X87.833 Y47.107
G3 X87.184 Y46.472 I-0.013 J-0.635
G1 Y28.241
G3 X88.138 Y27.691 I0.636 J0.
X88.456 Y28.241 I-0.318 J0.55
G1 Y37.356
X87.82 Y46.472
G3 X87.205 Y47.063 I-0.634 J-0.044
G1 X85.296 Y47.119
G3 X84.642 Y46.484 I-0.019 J-0.635
G1 Y3.525
G3 X85.595 Y2.975 I0.636 J0.
X85.913 Y3.525 I-0.318 J0.55
G1 Y25.004
X85.278 Y46.484
G3 X84.647 Y47.101 I-0.635 J-0.019
G1 X82.74 Y47.114
G3 X82.1 Y46.479 I-0.005 J-0.636
G1 Y3.52
G3 X83.053 Y2.97 I0.636 J0.
X83.371 Y3.52 I-0.318 J0.55
G1 Y24.999
X82.735 Y46.479
G3 X82.105 Y47.095 I-0.635 J-0.019
G1 X80.198 Y47.109
G3 X79.558 Y46.474 I-0.005 J-0.636
G1 Y3.515
G3 X80.511 Y2.965 I0.636 J0.
X80.829 Y3.515 I-0.318 J0.55
G1 Y24.994
X80.193 Y46.474
G3 X79.568 Y47.09 I-0.635 J-0.019
G1 X77.661 Y47.121
G3 X77.015 Y46.486 I-0.01 J-0.635
G1 Y3.527
G3 X77.969 Y2.977 I0.636 J0.
X78.286 Y3.527 I-0.318 J0.55
G1 Y25.007
X77.651 Y46.486
G3 X77.02 Y47.103 I-0.635 J-0.019
G1 X75.113 Y47.116
G3 X74.473 Y46.481 I-0.005 J-0.636
G1 Y3.522
G2 X74.173 Y3.349 I-0.2 J0.
X74.073 Y3.514 I0.1 J0.173
G1 X72.331 Y46.484
G3 X72.024 Y46.645 I-0.2 J-0.008
X71.931 Y46.476 I0.107 J-0.169
G1 Y28.506
Y21.487
Y3.517
G3 X72.884 Y2.967 I0.636 J0.
X73.202 Y3.517 I-0.318 J0.55
G1 Y12.502
X72.566 Y21.487
G3 X71.946 Y22.078 I-0.634 J-0.045
G1 X70.037 Y22.118
G3 X69.388 Y21.482 I-0.013 J-0.635
G1 Y3.529
G3 X70.342 Y2.979 I0.636 J0.
X70.66 Y3.529 I-0.318 J0.55
G1 Y12.506
X70.024 Y21.482
G3 X69.589 Y22.041 I-0.634 J-0.045
G1 X67.681 Y22.67
G3 X66.846 Y22.066 I-0.199 J-0.604
G1 Y3.524
G3 X67.146 Y3.351 I0.2 J0.
X67.246 Y3.516 I-0.1 J0.173
G1 X68.989 Y46.479
G2 X69.295 Y46.64 I0.2 J-0.008
X69.388 Y46.471 I-0.107 J-0.169
G1 Y28.518
G3 X70.342 Y27.967 I0.636 J0.
X70.66 Y28.518 I-0.318 J0.55
G1 Y37.494
X70.024 Y46.471
G3 X69.409 Y47.061 I-0.634 J-0.045
G1 X67.501 Y47.118
G3 X66.846 Y46.483 I-0.019 J-0.635
G1 Y27.941
G3 X67.8 Y27.39 I0.636 J0.
X68.117 Y27.941 I-0.318 J0.55
G1 Y37.212
X67.482 Y46.483
G3 X66.86 Y47.075 I-0.634 J-0.043
G1 X64.952 Y47.113
G3 X64.304 Y46.478 I-0.013 J-0.635
G1 Y3.519
G3 X65.257 Y2.969 I0.636 J0.
X65.575 Y3.519 I-0.318 J0.55
G1 Y24.999
X64.939 Y46.478
G3 X64.343 Y47.093 I-0.635 J-0.019
G1 X62.436 Y47.211
G3 X61.762 Y46.577 I-0.039 J-0.634
G1 Y3.428
G3 X62.715 Y2.877 I0.636 J0.
X63.033 Y3.428 I-0.318 J0.55
G1 Y25.002
X62.397 Y46.577
G3 X61.885 Y47.181 I-0.635 J-0.019
G1 X59.978 Y47.559
G3 X59.219 Y46.935 I-0.123 J-0.623
G1 Y3.059
G3 X60.173 Y2.508 I0.636 J0.
X60.49 Y3.059 I-0.318 J0.55
G1 Y24.997
X59.855 Y46.935
G3 X59.454 Y47.508 I-0.635 J-0.018
G1 X57.548 Y48.266
G3 X56.677 Y47.676 I-0.235 J-0.591
G1 Y2.326
Y2.313
Y2.243 Z-3.992
Y2.175 Z-3.969
Y2.115 Z-3.931
Y2.065 Z-3.88
Y2.027 Z-3.82
Y2.004 Z-3.753
Y1.996 Z-3.682
X54.135 Y51.234
Y51.226 Z-3.753
Y51.203 Z-3.82
Y51.165 Z-3.88
Y51.115 Z-3.931
Y51.055 Z-3.969
Y50.988 Z-3.992
Y50.917 Z-4.
Y48.901
Y1.108
Y1.095
Y1.024 Z-3.992
Y0.957 Z-3.969
Y0.897 Z-3.931
Y0.847 Z-3.88
Y0.809 Z-3.82
Y0.786 Z-3.753
Y0.778 Z-3.682
G0 Z5.
X51.932 Y52.847
G1 Z-3.714 F762.
X51.931 Y52.84 Z-3.778 F1000.
X51.927 Y52.819 Z-3.838
X51.922 Y52.785 Z-3.892
X51.915 Y52.741 Z-3.938
X51.907 Y52.687 Z-3.972
X51.897 Y52.627 Z-3.993
X51.887 Y52.565 Z-4.
X51.591 Y50.697
X51.588 Y50.648
Y0.
Y-0.641
X51.591 Y-0.691
X51.84 Y-2.259
X51.851 Y-2.329 Z-3.992
X51.861 Y-2.395 Z-3.969
X51.871 Y-2.454 Z-3.931
X51.879 Y-2.504 Z-3.88
X51.884 Y-2.541 Z-3.82
X51.888 Y-2.565 Z-3.753
X51.889 Y-2.572 Z-3.682
G0 Z5.
X150.741 Y48.331
G1 Z-4.682 F762.
Y48.323 Z-4.753 F1000.
Y48.3 Z-4.82
Y48.262 Z-4.88
Y48.212 Z-4.931
Y48.151 Z-4.969
Y48.084 Z-4.992
Y48.014 Z-5.
Y46.287
Y3.727
G3 X151.695 Y3.176 I0.636 J0.
X152.012 Y3.727 I-0.318 J0.55
G1 Y25.007
X151.377 Y46.287
G3 X150.809 Y46.9 I-0.635 J-0.019
G1 X148.902 Y47.104
G3 X148.199 Y46.472 I-0.068 J-0.632
G1 Y3.514
G3 X149.152 Y2.963 I0.636 J0.
X149.47 Y3.514 I-0.318 J0.55
G1 Y24.993
X148.835 Y46.472
G3 X148.21 Y47.089 I-0.635 J-0.019
G1 X146.303 Y47.12
G3 X145.657 Y46.484 I-0.01 J-0.635
G1 Y3.526
G3 X146.61 Y2.975 I0.636 J0.
X146.928 Y3.526 I-0.318 J0.55
G1 Y25.005
X146.292 Y46.484
G3 X145.662 Y47.101 I-0.635 J-0.019
G1 X143.755 Y47.115
G3 X143.114 Y46.479 I-0.005 J-0.636
G1 Y3.521
G3 X144.068 Y2.97 I0.636 J0.
X144.386 Y3.521 I-0.318 J0.55
G1 Y25.
X143.75 Y46.479
G3 X143.119 Y47.096 I-0.635 J-0.019
G1 X141.212 Y47.11
G3 X140.572 Y46.474 I-0.005 J-0.636
G1 Y3.516
G3 X141.526 Y2.965 I0.636 J0.
X141.843 Y3.516 I-0.318 J0.55
G1 Y24.995
X141.208 Y46.474
G3 X140.583 Y47.091 I-0.635 J-0.019
G1 X138.676 Y47.122
G3 X138.03 Y46.486 I-0.01 J-0.635
G1 Y3.528
G3 X138.983 Y2.978 I0.636 J0.
X139.301 Y3.528 I-0.318 J0.55
G1 Y25.007
X138.665 Y46.486
G3 X138.035 Y47.103 I-0.635 J-0.019
G1 X136.128 Y47.117
G3 X135.488 Y46.481 I-0.005 J-0.636
G1 Y3.523
G3 X136.441 Y2.972 I0.636 J0.
X136.759 Y3.523 I-0.318 J0.55
G1 Y25.002
X136.123 Y46.481
G3 X135.492 Y47.098 I-0.635 J-0.019
G1 X133.586 Y47.112
G3 X132.945 Y46.476 I-0.005 J-0.636
G1 Y28.142
Y21.852
Y3.518
G3 X133.899 Y2.967 I0.636 J0.
X134.217 Y3.518 I-0.318 J0.55
G1 Y12.685
X133.581 Y21.852
G3 X132.84 Y22.434 I-0.634 J-0.044
G1 X130.932 Y22.109
G3 X130.403 Y21.483 I0.107 J-0.627
G1 Y3.513
G3 X131.356 Y2.962 I0.636 J0.
X131.674 Y3.513 I-0.318 J0.55
G1 Y12.498
X131.039 Y21.483
G3 X130.429 Y22.073 I-0.634 J-0.045
G1 X128.521 Y22.148
G3 X127.861 Y21.512 I-0.025 J-0.635
G1 Y3.525
G3 X128.161 Y3.352 I0.2 J0.
X128.261 Y3.517 I-0.1 J0.173
G1 X130.003 Y46.479
G2 X130.31 Y46.64 I0.2 J-0.008
X130.403 Y46.471 I-0.107 J-0.169
G1 Y28.518
G3 X131.356 Y27.968 I0.636 J0.
X131.674 Y28.518 I-0.318 J0.55
G1 Y37.495
X131.039 Y46.471
G3 X130.424 Y47.062 I-0.634 J-0.045
G1 X128.515 Y47.119
G3 X127.861 Y46.483 I-0.019 J-0.635
G1 Y28.479
G3 X128.814 Y27.928 I0.636 J0.
X129.132 Y28.479 I-0.318 J0.55
G1 Y37.481
X128.496 Y46.483
G3 X127.876 Y47.074 I-0.634 J-0.045
G1 X125.967 Y47.114
G3 X125.319 Y46.478 I-0.013 J-0.635
G1 Y3.52
G3 X126.272 Y2.969 I0.636 J0.
X126.59 Y3.52 I-0.318 J0.55
G1 Y24.999
X125.954 Y46.478
G3 X125.323 Y47.095 I-0.635 J-0.019
G1 X123.416 Y47.109
G3 X122.776 Y46.473 I-0.005 J-0.636
G1 Y3.515
G3 X123.73 Y2.964 I0.636 J0.
X124.047 Y3.515 I-0.318 J0.55
G1 Y24.994
X123.412 Y46.473
G3 X122.787 Y47.09 I-0.635 J-0.019
G1 X120.88 Y47.121
G3 X120.234 Y46.486 I-0.01 J-0.635
G1 Y3.527
G3 X121.187 Y2.977 I0.636 J0.
X121.505 Y3.527 I-0.318 J0.55
G1 Y25.006
X120.87 Y46.486
G3 X120.239 Y47.102 I-0.635 J-0.019
G1 X118.332 Y47.116
G3 X117.692 Y46.48 I-0.005 J-0.636
G1 Y3.522
G3 X118.645 Y2.972 I0.636 J0.
X118.963 Y3.522 I-0.318 J0.55
G1 Y25.001
X118.327 Y46.48
G3 X117.697 Y47.097 I-0.635 J-0.019
G1 X115.79 Y47.111
G3 X115.149 Y46.475 I-0.005 J-0.636
G1 Y3.517
G3 X116.103 Y2.966 I0.636 J0.
X116.421 Y3.517 I-0.318 J0.55
G1 Y24.996
X115.785 Y46.475
G3 X115.154 Y47.092 I-0.635 J-0.019
G1 X113.247 Y47.106
G3 X112.607 Y46.47 I-0.005 J-0.636
G1 Y28.362
Y21.638
Y3.529
G3 X113.56 Y2.979 I0.636 J0.
X113.878 Y3.529 I-0.318 J0.55
G1 Y12.584
X113.243 Y21.638
G3 X112.57 Y22.228 I-0.634 J-0.045
G1 X110.662 Y22.111
G3 X110.065 Y21.477 I0.039 J-0.634
G1 Y3.524
G3 X111.018 Y2.974 I0.636 J0.
X111.336 Y3.524 I-0.318 J0.55
G1 Y12.5
X110.7 Y21.477
G3 X110.114 Y22.066 I-0.634 J-0.045
G1 X108.206 Y22.21
G3 X107.523 Y21.576 I-0.048 J-0.634
G1 Y3.519
G3 X107.823 Y3.346 I0.2 J0.
X107.922 Y3.511 I-0.1 J0.173
G1 X109.665 Y46.491
G2 X109.972 Y46.652 I0.2 J-0.008
X110.065 Y46.483 I-0.107 J-0.169
G1 Y28.53
G3 X111.018 Y27.979 I0.636 J0.
X111.336 Y28.53 I-0.318 J0.55
G1 Y37.506
X110.7 Y46.483
G3 X110.08 Y47.073 I-0.634 J-0.045
G1 X108.171 Y47.113
G3 X107.523 Y46.477 I-0.013 J-0.635
G1 Y28.421
G3 X108.476 Y27.87 I0.636 J0.
X108.794 Y28.421 I-0.318 J0.55
G1 Y37.449
X108.158 Y46.477
G3 X107.537 Y47.068 I-0.634 J-0.045
G1 X105.629 Y47.108
G3 X104.98 Y46.472 I-0.013 J-0.635
G1 Y3.514
G3 X105.934 Y2.963 I0.636 J0.
X106.251 Y3.514 I-0.318 J0.55
G1 Y24.993
X105.616 Y46.472
G3 X104.991 Y47.089 I-0.635 J-0.019
G1 X103.084 Y47.12
G3 X102.438 Y46.485 I-0.01 J-0.635
G1 Y3.526
G3 X103.391 Y2.976 I0.636 J0.
X103.709 Y3.526 I-0.318 J0.55
G1 Y25.005
X103.074 Y46.485
G3 X102.443 Y47.101 I-0.635 J-0.019
G1 X100.536 Y47.115
G3 X99.896 Y46.48 I-0.005 J-0.636
G1 Y3.521
G3 X100.849 Y2.971 I0.636 J0.
X101.167 Y3.521 I-0.318 J0.55
G1 Y25.
X100.531 Y46.48
G3 X99.901 Y47.096 I-0.635 J-0.019
G1 X97.994 Y47.11
G3 X97.353 Y46.474 I-0.005 J-0.636
G1 Y3.516
G3 X98.307 Y2.966 I0.636 J0.
X98.625 Y3.516 I-0.318 J0.55
G1 Y24.995
X97.989 Y46.474
G3 X97.364 Y47.091 I-0.635 J-0.019
G1 X95.457 Y47.122
G3 X94.811 Y46.487 I-0.01 J-0.635
G1 Y3.528
G3 X95.765 Y2.978 I0.636 J0.
X96.082 Y3.528 I-0.318 J0.55
G1 Y25.007
X95.447 Y46.487
G3 X94.816 Y47.103 I-0.635 J-0.019
G1 X92.909 Y47.117
G3 X92.269 Y46.482 I-0.005 J-0.636
G1 Y28.46
Y21.545
Y3.523
G3 X93.222 Y2.973 I0.636 J0.
X93.54 Y3.523 I-0.318 J0.55
G1 Y12.534
X92.905 Y21.545
G3 X92.261 Y22.136 I-0.634 J-0.045
G1 X90.352 Y22.106
G3 X89.727 Y21.471 I0.01 J-0.635
G1 Y3.518
G3 X90.68 Y2.968 I0.636 J0.
X90.998 Y3.518 I-0.318 J0.55
G1 Y12.494
X90.362 Y21.471
G3 X89.832 Y22.053 I-0.634 J-0.045
G1 X87.924 Y22.37
G3 X87.184 Y21.743 I-0.104 J-0.627
G1 Y3.513
G3 X87.484 Y3.34 I0.2 J0.
X87.584 Y3.505 I-0.1 J0.173
G1 X89.327 Y46.485
G2 X89.634 Y46.646 I0.2 J-0.008
X89.727 Y46.477 I-0.107 J-0.169
G1 Y28.524
G3 X90.68 Y27.973 I0.636 J0.
X90.998 Y28.524 I-0.318 J0.55
G1 Y37.5
X90.362 Y46.477
G3 X89.741 Y47.067 I-0.634 J-0.045
G1 X87.833 Y47.107
G3 X87.184 Y46.472 I-0.013 J-0.635
G1 Y28.241
G3 X88.138 Y27.691 I0.636 J0.
X88.456 Y28.241 I-0.318 J0.55
G1 Y37.356
X87.82 Y46.472
G3 X87.205 Y47.063 I-0.634 J-0.044
G1 X85.296 Y47.119
G3 X84.642 Y46.484 I-0.019 J-0.635
G1 Y3.525
G3 X85.595 Y2.975 I0.636 J0.
X85.913 Y3.525 I-0.318 J0.55
G1 Y25.004
X85.278 Y46.484
G3 X84.647 Y47.101 I-0.635 J-0.019
G1 X82.74 Y47.114
G3 X82.1 Y46.479 I-0.005 J-0.636
G1 Y3.52
G3 X83.053 Y2.97 I0.636 J0.
X83.371 Y3.52 I-0.318 J0.55
G1 Y24.999
X82.735 Y46.479
G3 X82.105 Y47.095 I-0.635 J-0.019
G1 X80.198 Y47.109
G3 X79.558 Y46.474 I-0.005 J-0.636
G1 Y3.515
G3 X80.511 Y2.965 I0.636 J0.
X80.829 Y3.515 I-0.318 J0.55
G1 Y24.994
X80.193 Y46.474
G3 X79.568 Y47.09 I-0.635 J-0.019
G1 X77.661 Y47.121
G3 X77.015 Y46.486 I-0.01 J-0.635
G1 Y3.527
G3 X77.969 Y2.977 I0.636 J0.
X78.286 Y3.527 I-0.318 J0.55
G1 Y25.007
X77.651 Y46.486
G3 X77.02 Y47.103 I-0.635 J-0.019
G1 X75.113 Y47.116
G3 X74.473 Y46.481 I-0.005 J-0.636
G1 Y3.522
G2 X74.173 Y3.349 I-0.2 J0.
X74.073 Y3.514 I0.1 J0.173
G1 X72.331 Y46.484
G3 X72.024 Y46.645 I-0.2 J-0.008
X71.931 Y46.476 I0.107 J-0.169
G1 Y28.506
Y21.487
Y3.517
G3 X72.884 Y2.967 I0.636 J0.
X73.202 Y3.517 I-0.318 J0.55
G1 Y12.502
X72.566 Y21.487
G3 X71.946 Y22.078 I-0.634 J-0.045
G1 X70.037 Y22.118
G3 X69.388 Y21.482 I-0.013 J-0.635
G1 Y3.529
G3 X70.342 Y2.979 I0.636 J0.
X70.66 Y3.529 I-0.318 J0.55
G1 Y12.506
X70.024 Y21.482
G3 X69.589 Y22.041 I-0.634 J-0.045
G1 X67.681 Y22.67
G3 X66.846 Y22.066 I-0.199 J-0.604
G1 Y3.524
G3 X67.146 Y3.351 I0.2 J0.
X67.246 Y3.516 I-0.1 J0.173
G1 X68.989 Y46.479
G2 X69.295 Y46.64 I0.2 J-0.008
X69.388 Y46.471 I-0.107 J-0.169
G1 Y28.518
G3 X70.342 Y27.967 I0.636 J0.
X70.66 Y28.518 I-0.318 J0.55
G1 Y37.494
X70.024 Y46.471
G3 X69.409 Y47.061 I-0.634 J-0.045
G1 X67.501 Y47.118
G3 X66.846 Y46.483 I-0.019 J-0.635
G1 Y27.941
G3 X67.8 Y27.39 I0.636 J0.
X68.117 Y27.941 I-0.318 J0.55
G1 Y37.212
X67.482 Y46.483
G3 X66.86 Y47.075 I-0.634 J-0.043
G1 X64.952 Y47.113
G3 X64.304 Y46.478 I-0.013 J-0.635
G1 Y3.519
G3 X65.257 Y2.969 I0.636 J0.
X65.575 Y3.519 I-0.318 J0.55
G1 Y24.999
X64.939 Y46.478
G3 X64.343 Y47.093 I-0.635 J-0.019
G1 X62.436 Y47.211
G3 X61.762 Y46.577 I-0.039 J-0.634
G1 Y3.428
G3 X62.715 Y2.877 I0.636 J0.
X63.033 Y3.428 I-0.318 J0.55
G1 Y25.002
X62.397 Y46.577
G3 X61.885 Y47.181 I-0.635 J-0.019
G1 X59.978 Y47.559
G3 X59.219 Y46.935 I-0.123 J-0.623
G1 Y3.059
G3 X60.173 Y2.508 I0.636 J0.
X60.49 Y3.059 I-0.318 J0.55
G1 Y24.997
X59.855 Y46.935
G3 X59.454 Y47.508 I-0.635 J-0.018
G1 X57.548 Y48.266
G3 X56.677 Y47.676 I-0.235 J-0.591
G1 Y2.326
Y2.313
Y2.243 Z-4.992
Y2.175 Z-4.969
Y2.115 Z-4.931
Y2.065 Z-4.88
Y2.027 Z-4.82
Y2.004 Z-4.753
Y1.996 Z-4.682
X54.135 Y51.234
Y51.226 Z-4.753
Y51.203 Z-4.82
Y51.165 Z-4.88
Y51.115 Z-4.931
Y51.055 Z-4.969
Y50.988 Z-4.992
Y50.917 Z-5.
Y48.901
Y1.108
Y1.095
Y1.024 Z-4.992
Y0.957 Z-4.969
Y0.897 Z-4.931
Y0.847 Z-4.88
Y0.809 Z-4.82
Y0.786 Z-4.753
Y0.778 Z-4.682
G0 Z5.
X51.932 Y52.847
G1 Z-4.714 F762.
X51.931 Y52.84 Z-4.778 F1000.
X51.927 Y52.819 Z-4.838
X51.922 Y52.785 Z-4.892
X51.915 Y52.741 Z-4.938
X51.907 Y52.687 Z-4.972
X51.897 Y52.627 Z-4.993
X51.887 Y52.565 Z-5.
X51.591 Y50.697
X51.588 Y50.648
Y0.
Y-0.641
X51.591 Y-0.691
X51.84 Y-2.259
X51.851 Y-2.329 Z-4.992
X51.861 Y-2.395 Z-4.969
X51.871 Y-2.454 Z-4.931
X51.879 Y-2.504 Z-4.88
X51.884 Y-2.541 Z-4.82
X51.888 Y-2.565 Z-4.753
X51.889 Y-2.572 Z-4.682
G0 Z15.

M9
M30
