(1001)
(T1 D=3.175 CR=0. - ZMIN=-11. - FLAT END MILL)
G0 G90 G94 G17
G21
(-ATTENTION- PROPERTY SAFE RETRACTS IS SET TO CLEARANCE HEIGHT.)
(ENSURE THE CLEARANCE HEIGHT WILL CLEAR THE PART AND OR FIXTURES.)
(RAISE THE Z-AXIS TO A SAFE HEIGHT BEFORE STARTING THE PROGRAM.)
M5

(2D CONTOUR1)
T1
M3 S15000
G90 G94 G17
G54
M8
G0 X150.318 Y4.048
Z15.
G0 Z5.
G1 Z2. F762.
Z-0.683
Y4.055 Z-0.753 F1000.
Y4.079 Z-0.82
Y4.117 Z-0.88
Y4.167 Z-0.931
Y4.227 Z-0.969
Y4.294 Z-0.992
Y4.365 Z-1.
Y4.682
G3 X150. Y5. I-0.318 J0.
G1 X63.229
G3 X50. Y0. I0. J-20.
G1 X0.
Y50.
X50.
G3 X63.229 Y45. I13.229 J15.
G1 X150.
Y5.
G3 X150.318 Y4.682 I0.318 J0.
G1 X150.635
X150.706 Z-0.992
X150.773 Z-0.969
X150.833 Z-0.931
X150.883 Z-0.88
X150.921 Z-0.82
X150.945 Z-0.753
X150.952 Z-0.683
X150.318 Y4.048
Z-1.683 F762.
Y4.055 Z-1.753 F1000.
Y4.079 Z-1.82
Y4.117 Z-1.88
Y4.167 Z-1.931
Y4.227 Z-1.969
Y4.294 Z-1.992
Y4.365 Z-2.
Y4.682
G3 X150. Y5. I-0.318 J0.
G1 X63.229
G3 X50. Y0. I0. J-20.
G1 X0.
Y50.
X50.
G3 X63.229 Y45. I13.229 J15.
G1 X150.
Y5.
G3 X150.318 Y4.682 I0.318 J0.
G1 X150.635
X150.706 Z-1.992
X150.773 Z-1.969
X150.833 Z-1.931
X150.883 Z-1.88
X150.921 Z-1.82
X150.945 Z-1.753
X150.952 Z-1.683
X150.318 Y4.048
Z-2.683 F762.
Y4.055 Z-2.753 F1000.
Y4.079 Z-2.82
Y4.117 Z-2.88
Y4.167 Z-2.931
Y4.227 Z-2.969
Y4.294 Z-2.992
Y4.365 Z-3.
Y4.682
G3 X150. Y5. I-0.318 J0.
G1 X63.229
G3 X50. Y0. I0. J-20.
G1 X0.
Y50.
X50.
G3 X63.229 Y45. I13.229 J15.
G1 X150.
Y5.
G3 X150.318 Y4.682 I0.318 J0.
G1 X150.635
X150.706 Z-2.992
X150.773 Z-2.969
X150.833 Z-2.931
X150.883 Z-2.88
X150.921 Z-2.82
X150.945 Z-2.753
X150.952 Z-2.683
X150.318 Y4.048
Z-3.683 F762.
Y4.055 Z-3.753 F1000.
Y4.079 Z-3.82
Y4.117 Z-3.88
Y4.167 Z-3.931
Y4.227 Z-3.969
Y4.294 Z-3.992
Y4.365 Z-4.
Y4.682
G3 X150. Y5. I-0.318 J0.
G1 X63.229
G3 X50. Y0. I0. J-20.
G1 X0.
Y50.
X50.
G3 X63.229 Y45. I13.229 J15.
G1 X150.
Y5.
G3 X150.318 Y4.682 I0.318 J0.
G1 X150.635
X150.706 Z-3.992
X150.773 Z-3.969
X150.833 Z-3.931
X150.883 Z-3.88
X150.921 Z-3.82
X150.945 Z-3.753
X150.952 Z-3.683
X150.318 Y4.048
Z-4.683 F762.
Y4.055 Z-4.753 F1000.
Y4.079 Z-4.82
Y4.117 Z-4.88
Y4.167 Z-4.931
Y4.227 Z-4.969
Y4.294 Z-4.992
Y4.365 Z-5.
Y4.682
G3 X150. Y5. I-0.318 J0.
G1 X63.229
G3 X50. Y0. I0. J-20.
G1 X0.
Y50.
X50.
G3 X63.229 Y45. I13.229 J15.
G1 X150.
Y5.
G3 X150.318 Y4.682 I0.318 J0.
G1 X150.635
X150.706 Z-4.992
X150.773 Z-4.969
X150.833 Z-4.931
X150.883 Z-4.88
X150.921 Z-4.82
X150.945 Z-4.753
X150.952 Z-4.683
X150.318 Y4.048
Z-5.683 F762.
Y4.055 Z-5.753 F1000.
Y4.079 Z-5.82
Y4.117 Z-5.88
Y4.167 Z-5.931
Y4.227 Z-5.969
Y4.294 Z-5.992
Y4.365 Z-6.
Y4.682
G3 X150. Y5. I-0.318 J0.
G1 X63.229
G3 X50. Y0. I0. J-20.
G1 X0.
Y50.
X50.
G3 X63.229 Y45. I13.229 J15.
G1 X150.
Y5.
G3 X150.318 Y4.682 I0.318 J0.
G1 X150.635
X150.706 Z-5.992
X150.773 Z-5.969
X150.833 Z-5.931
X150.883 Z-5.88
X150.921 Z-5.82
X150.945 Z-5.753
X150.952 Z-5.683
X150.318 Y4.048
Z-6.683 F762.
Y4.055 Z-6.753 F1000.
Y4.079 Z-6.82
Y4.117 Z-6.88
Y4.167 Z-6.931
Y4.227 Z-6.969
Y4.294 Z-6.992
Y4.365 Z-7.
Y4.682
G3 X150. Y5. I-0.318 J0.
G1 X63.229
G3 X50. Y0. I0. J-20.
G1 X0.
Y50.
X50.
G3 X63.229 Y45. I13.229 J15.
G1 X150.
Y5.
G3 X150.318 Y4.682 I0.318 J0.
G1 X150.635
X150.706 Z-6.992
X150.773 Z-6.969
X150.833 Z-6.931
X150.883 Z-6.88
X150.921 Z-6.82
X150.945 Z-6.753
X150.952 Z-6.683
X150.318 Y4.048
Z-7.683 F762.
Y4.055 Z-7.753 F1000.
Y4.079 Z-7.82
Y4.117 Z-7.88
Y4.167 Z-7.931
Y4.227 Z-7.969
Y4.294 Z-7.992
Y4.365 Z-8.
Y4.682
G3 X150. Y5. I-0.318 J0.
G1 X63.229
G3 X50. Y0. I0. J-20.
G1 X0.
Y50.
X50.
G3 X63.229 Y45. I13.229 J15.
G1 X150.
Y5.
G3 X150.318 Y4.682 I0.318 J0.
G1 X150.635
X150.706 Z-7.992
X150.773 Z-7.969
X150.833 Z-7.931
X150.883 Z-7.88
X150.921 Z-7.82
X150.945 Z-7.753
X150.952 Z-7.683
X150.318 Y4.048
Z-8.683 F762.
Y4.055 Z-8.753 F1000.
Y4.079 Z-8.82
Y4.117 Z-8.88
Y4.167 Z-8.931
Y4.227 Z-8.969
Y4.294 Z-8.992
Y4.365 Z-9.
Y4.682
G3 X150. Y5. I-0.318 J0.
G1 X63.229
G3 X50. Y0. I0. J-20.
G1 X0.
Y50.
X50.
G3 X63.229 Y45. I13.229 J15.
G1 X150.
Y5.
G3 X150.318 Y4.682 I0.318 J0.
G1 X150.635
X150.706 Z-8.992
X150.773 Z-8.969
X150.833 Z-8.931
X150.883 Z-8.88
X150.921 Z-8.82
X150.945 Z-8.753
X150.952 Z-8.683
X150.318 Y4.048
Z-9.683 F762.
Y4.055 Z-9.753 F1000.
Y4.079 Z-9.82
Y4.117 Z-9.88
Y4.167 Z-9.931
Y4.227 Z-9.969
Y4.294 Z-9.992
Y4.365 Z-10.
Y4.682
G3 X150. Y5. I-0.318 J0.
G1 X138.626
Z-9.
X132.451
Z-10. F762.
X109.701 F1000.
Z-9.
X103.526
Z-10. F762.
X80.778 F1000.
Z-9.
X74.603
Z-10. F762.
X63.229 F1000.
G3 X50. Y0. I0. J-20.
G1 X28.087
Z-9.
X21.913
Z-10. F762.
X0. F1000.
Y21.913
Z-9.
Y28.087
Z-10. F762.
Y50. F1000.
X21.913
Z-9.
X28.087
Z-10. F762.
X50. F1000.
G3 X63.229 Y45. I13.229 J15.
G1 X74.603
Z-9.
X80.778
Z-10. F762.
X103.526 F1000.
Z-9.
X109.701
Z-10. F762.
X132.451 F1000.
Z-9.
X138.626
Z-10. F762.
X150. F1000.
Y28.087
Z-9.
Y21.913
Z-10. F762.
Y5. F1000.
G3 X150.318 Y4.682 I0.318 J0.
G1 X150.635
X150.706 Z-9.992
X150.773 Z-9.969
X150.833 Z-9.931
X150.883 Z-9.88
X150.921 Z-9.82
X150.945 Z-9.753
X150.952 Z-9.683
X150.318 Y4.048
Z-10.683 F762.
Y4.055 Z-10.753 F1000.
Y4.079 Z-10.82
Y4.117 Z-10.88
Y4.167 Z-10.931
Y4.227 Z-10.969
Y4.294 Z-10.992
Y4.365 Z-11.
Y4.682
G3 X150. Y5. I-0.318 J0.
G1 X138.626
Z-9.
X132.451
Z-11. F762.
X109.701 F1000.
Z-9.
X103.526
Z-11. F762.
X80.778 F1000.
Z-9.
X74.603
Z-11. F762.
X63.229 F1000.
G3 X50. Y0. I0. J-20.
G1 X28.087
Z-9.
X21.913
Z-11. F762.
X0. F1000.
Y21.913
Z-9.
Y28.087
Z-11. F762.
Y50. F1000.
X21.913
Z-9.
X28.087
Z-11. F762.
X50. F1000.
G3 X63.229 Y45. I13.229 J15.
G1 X74.603
Z-9.
X80.778
Z-11. F762.
X103.526 F1000.
Z-9.
X109.701
Z-11. F762.
X132.451 F1000.
Z-9.
X138.626
Z-11. F762.
X150. F1000.
Y28.087
Z-9.
Y21.913
Z-11. F762.
Y5. F1000.
G3 X150.318 Y4.682 I0.318 J0.
G1 X150.635
X150.706 Z-10.992
X150.773 Z-10.969
X150.833 Z-10.931
X150.883 Z-10.88
X150.921 Z-10.82
X150.945 Z-10.753
X150.952 Z-10.683
G0 Z15.

M9
M30
