(1001)
(T1 D=3.175 CR=0. - ZMIN=-11. - FLAT END MILL)
G0 G90 G94 G17
G21
(-ATTENTION- PROPERTY SAFE RETRACTS IS SET TO CLEARANCE HEIGHT.)
(ENSURE THE CLEARANCE HEIGHT WILL CLEAR THE PART AND OR FIXTURES.)
(RAISE THE Z-AXIS TO A SAFE HEIGHT BEFORE STARTING THE PROGRAM.)
M5

(2D CONTOUR2)
T1
M3 S15000
G90 G94 G17
G54
M8
G0 X92.46 Y24.683
Z15.
G0 Z5.
G1 Z2. F762.
Z-0.683
X92.468 Z-0.753 F1000.
X92.491 Z-0.82
X92.529 Z-0.88
X92.58 Z-0.931
X92.64 Z-0.969
X92.707 Z-0.992
X92.777 Z-1.
X93.095
G3 X93.412 Y25. I0. J0.317
G1 Y27.
G3 X92. Y28.413 I-1.412 J0.
G1 X88.
G3 X86.588 Y27. I0. J-1.413
G1 Y23.
G3 X88. Y21.587 I1.412 J0.
G1 X92.
G3 X93.412 Y23. I0. J1.413
G1 Y25.
G3 X93.095 Y25.317 I-0.317 J0.
G1 X92.777
X92.707 Z-0.992
X92.64 Z-0.969
X92.58 Z-0.931
X92.529 Z-0.88
X92.491 Z-0.82
X92.468 Z-0.753
X92.46 Z-0.683
Y24.683
Z-1.683 F762.
X92.468 Z-1.753 F1000.
X92.491 Z-1.82
X92.529 Z-1.88
X92.58 Z-1.931
X92.64 Z-1.969
X92.707 Z-1.992
X92.777 Z-2.
X93.095
G3 X93.412 Y25. I0. J0.317
G1 Y27.
G3 X92. Y28.413 I-1.412 J0.
G1 X88.
G3 X86.588 Y27. I0. J-1.413
G1 Y23.
G3 X88. Y21.587 I1.412 J0.
G1 X92.
G3 X93.412 Y23. I0. J1.413
G1 Y25.
G3 X93.095 Y25.317 I-0.317 J0.
G1 X92.777
X92.707 Z-1.992
X92.64 Z-1.969
X92.58 Z-1.931
X92.529 Z-1.88
X92.491 Z-1.82
X92.468 Z-1.753
X92.46 Z-1.683
Y24.683
Z-2.683 F762.
X92.468 Z-2.753 F1000.
X92.491 Z-2.82
X92.529 Z-2.88
X92.58 Z-2.931
X92.64 Z-2.969
X92.707 Z-2.992
X92.777 Z-3.
X93.095
G3 X93.412 Y25. I0. J0.317
G1 Y27.
G3 X92. Y28.413 I-1.412 J0.
G1 X88.
G3 X86.588 Y27. I0. J-1.413
G1 Y23.
G3 X88. Y21.587 I1.412 J0.
G1 X92.
G3 X93.412 Y23. I0. J1.413
G1 Y25.
G3 X93.095 Y25.317 I-0.317 J0.
G1 X92.777
X92.707 Z-2.992
X92.64 Z-2.969
X92.58 Z-2.931
X92.529 Z-2.88
X92.491 Z-2.82
X92.468 Z-2.753
X92.46 Z-2.683
Y24.683
Z-3.683 F762.
X92.468 Z-3.753 F1000.
X92.491 Z-3.82
X92.529 Z-3.88
X92.58 Z-3.931
X92.64 Z-3.969
X92.707 Z-3.992
X92.777 Z-4.
X93.095
G3 X93.412 Y25. I0. J0.317
G1 Y27.
G3 X92. Y28.413 I-1.412 J0.
G1 X88.
G3 X86.588 Y27. I0. J-1.413
G1 Y23.
G3 X88. Y21.587 I1.412 J0.
G1 X92.
G3 X93.412 Y23. I0. J1.413
G1 Y25.
G3 X93.095 Y25.317 I-0.317 J0.
G1 X92.777
X92.707 Z-3.992
X92.64 Z-3.969
X92.58 Z-3.931
X92.529 Z-3.88
X92.491 Z-3.82
X92.468 Z-3.753
X92.46 Z-3.683
Y24.683
Z-4.683 F762.
X92.468 Z-4.753 F1000.
X92.491 Z-4.82
X92.529 Z-4.88
X92.58 Z-4.931
X92.64 Z-4.969
X92.707 Z-4.992
X92.777 Z-5.
X93.095
G3 X93.412 Y25. I0. J0.317
G1 Y27.
G3 X92. Y28.413 I-1.412 J0.
G1 X88.
G3 X86.588 Y27. I0. J-1.413
G1 Y23.
G3 X88. Y21.587 I1.412 J0.
G1 X92.
G3 X93.412 Y23. I0. J1.413
G1 Y25.
G3 X93.095 Y25.317 I-0.317 J0.
G1 X92.777
X92.707 Z-4.992
X92.64 Z-4.969
X92.58 Z-4.931
X92.529 Z-4.88
X92.491 Z-4.82
X92.468 Z-4.753
X92.46 Z-4.683
Y24.683
Z-5.683 F762.
X92.468 Z-5.753 F1000.
X92.491 Z-5.82
X92.529 Z-5.88
X92.58 Z-5.931
X92.64 Z-5.969
X92.707 Z-5.992
X92.777 Z-6.
X93.095
G3 X93.412 Y25. I0. J0.317
G1 Y27.
G3 X92. Y28.413 I-1.412 J0.
G1 X88.
G3 X86.588 Y27. I0. J-1.413
G1 Y23.
G3 X88. Y21.587 I1.412 J0.
G1 X92.
G3 X93.412 Y23. I0. J1.413
G1 Y25.
G3 X93.095 Y25.317 I-0.317 J0.
G1 X92.777
X92.707 Z-5.992
X92.64 Z-5.969
X92.58 Z-5.931
X92.529 Z-5.88
X92.491 Z-5.82
X92.468 Z-5.753
X92.46 Z-5.683
Y24.683
Z-6.683 F762.
X92.468 Z-6.753 F1000.
X92.491 Z-6.82
X92.529 Z-6.88
X92.58 Z-6.931
X92.64 Z-6.969
X92.707 Z-6.992
X92.777 Z-7.
X93.095
G3 X93.412 Y25. I0. J0.317
G1 Y27.
G3 X92. Y28.413 I-1.412 J0.
G1 X88.
G3 X86.588 Y27. I0. J-1.413
G1 Y23.
G3 X88. Y21.587 I1.412 J0.
G1 X92.
G3 X93.412 Y23. I0. J1.413
G1 Y25.
G3 X93.095 Y25.317 I-0.317 J0.
G1 X92.777
X92.707 Z-6.992
X92.64 Z-6.969
X92.58 Z-6.931
X92.529 Z-6.88
X92.491 Z-6.82
X92.468 Z-6.753
X92.46 Z-6.683
Y24.683
Z-7.683 F762.
X92.468 Z-7.753 F1000.
X92.491 Z-7.82
X92.529 Z-7.88
X92.58 Z-7.931
X92.64 Z-7.969
X92.707 Z-7.992
X92.777 Z-8.
X93.095
G3 X93.412 Y25. I0. J0.317
G1 Y27.
G3 X92. Y28.413 I-1.412 J0.
G1 X88.
G3 X86.588 Y27. I0. J-1.413
G1 Y23.
G3 X88. Y21.587 I1.412 J0.
G1 X92.
G3 X93.412 Y23. I0. J1.413
G1 Y25.
G3 X93.095 Y25.317 I-0.317 J0.
G1 X92.777
X92.707 Z-7.992
X92.64 Z-7.969
X92.58 Z-7.931
X92.529 Z-7.88
X92.491 Z-7.82
X92.468 Z-7.753
X92.46 Z-7.683
Y24.683
Z-8.683 F762.
X92.468 Z-8.753 F1000.
X92.491 Z-8.82
X92.529 Z-8.88
X92.58 Z-8.931
X92.64 Z-8.969
X92.707 Z-8.992
X92.777 Z-9.
X93.095
G3 X93.412 Y25. I0. J0.317
G1 Y27.
G3 X92. Y28.413 I-1.412 J0.
G1 X88.
G3 X86.588 Y27. I0. J-1.413
G1 Y23.
G3 X88. Y21.587 I1.412 J0.
G1 X92.
G3 X93.412 Y23. I0. J1.413
G1 Y25.
G3 X93.095 Y25.317 I-0.317 J0.
G1 X92.777
X92.707 Z-8.992
X92.64 Z-8.969
X92.58 Z-8.931
X92.529 Z-8.88
X92.491 Z-8.82
X92.468 Z-8.753
X92.46 Z-8.683
Y24.683
Z-9.683 F762.
X92.468 Z-9.753 F1000.
X92.491 Z-9.82
X92.529 Z-9.88
X92.58 Z-9.931
X92.64 Z-9.969
X92.707 Z-9.992
X92.777 Z-10.
X93.095
G3 X93.412 Y25. I0. J0.317
G1 Y27.
G3 X92. Y28.413 I-1.412 J0.
G1 X88.
G3 X86.588 Y27. I0. J-1.413
G1 Y23.
G3 X88. Y21.587 I1.412 J0.
G1 X92.
G3 X93.412 Y23. I0. J1.413
G1 Y25.
G3 X93.095 Y25.317 I-0.317 J0.
G1 X92.777
X92.707 Z-9.992
X92.64 Z-9.969
X92.58 Z-9.931
X92.529 Z-9.88
X92.491 Z-9.82
X92.468 Z-9.753
X92.46 Z-9.683
Y24.683
Z-10.683 F762.
X92.468 Z-10.753 F1000.
X92.491 Z-10.82
X92.529 Z-10.88
X92.58 Z-10.931
X92.64 Z-10.969
X92.707 Z-10.992
X92.777 Z-11.
X93.095
G3 X93.412 Y25. I0. J0.317
G1 Y27.
G3 X92. Y28.413 I-1.412 J0.
G1 X88.
G3 X86.588 Y27. I0. J-1.413
G1 Y23.
G3 X88. Y21.587 I1.412 J0.
G1 X92.
G3 X93.412 Y23. I0. J1.413
G1 Y25.
G3 X93.095 Y25.317 I-0.317 J0.
G1 X92.777
X92.707 Z-10.992
X92.64 Z-10.969
X92.58 Z-10.931
X92.529 Z-10.88
X92.491 Z-10.82
X92.468 Z-10.753
X92.46 Z-10.683
G0 Z5.
X112.46 Y24.683
G1 Z2. F762.
Z-0.683
X112.468 Z-0.753 F1000.
X112.491 Z-0.82
X112.529 Z-0.88
X112.58 Z-0.931
X112.64 Z-0.969
X112.707 Z-0.992
X112.777 Z-1.
X113.095
G3 X113.412 Y25. I0. J0.317
G1 Y27.
G3 X112. Y28.413 I-1.412 J0.
G1 X108.
G3 X106.588 Y27. I0. J-1.413
G1 Y23.
G3 X108. Y21.587 I1.412 J0.
G1 X112.
G3 X113.412 Y23. I0. J1.413
G1 Y25.
G3 X113.095 Y25.317 I-0.317 J0.
G1 X112.777
X112.707 Z-0.992
X112.64 Z-0.969
X112.58 Z-0.931
X112.529 Z-0.88
X112.491 Z-0.82
X112.468 Z-0.753
X112.46 Z-0.683
Y24.683
Z-1.683 F762.
X112.468 Z-1.753 F1000.
X112.491 Z-1.82
X112.529 Z-1.88
X112.58 Z-1.931
X112.64 Z-1.969
X112.707 Z-1.992
X112.777 Z-2.
X113.095
G3 X113.412 Y25. I0. J0.317
G1 Y27.
G3 X112. Y28.413 I-1.412 J0.
G1 X108.
G3 X106.588 Y27. I0. J-1.413
G1 Y23.
G3 X108. Y21.587 I1.412 J0.
G1 X112.
G3 X113.412 Y23. I0. J1.413
G1 Y25.
G3 X113.095 Y25.317 I-0.317 J0.
G1 X112.777
X112.707 Z-1.992
X112.64 Z-1.969
X112.58 Z-1.931
X112.529 Z-1.88
X112.491 Z-1.82
X112.468 Z-1.753
X112.46 Z-1.683
Y24.683
Z-2.683 F762.
X112.468 Z-2.753 F1000.
X112.491 Z-2.82
X112.529 Z-2.88
X112.58 Z-2.931
X112.64 Z-2.969
X112.707 Z-2.992
X112.777 Z-3.
X113.095
G3 X113.412 Y25. I0. J0.317
G1 Y27.
G3 X112. Y28.413 I-1.412 J0.
G1 X108.
G3 X106.588 Y27. I0. J-1.413
G1 Y23.
G3 X108. Y21.587 I1.412 J0.
G1 X112.
G3 X113.412 Y23. I0. J1.413
G1 Y25.
G3 X113.095 Y25.317 I-0.317 J0.
G1 X112.777
X112.707 Z-2.992
X112.64 Z-2.969
X112.58 Z-2.931
X112.529 Z-2.88
X112.491 Z-2.82
X112.468 Z-2.753
X112.46 Z-2.683
Y24.683
Z-3.683 F762.
X112.468 Z-3.753 F1000.
X112.491 Z-3.82
X112.529 Z-3.88
X112.58 Z-3.931
X112.64 Z-3.969
X112.707 Z-3.992
X112.777 Z-4.
X113.095
G3 X113.412 Y25. I0. J0.317
G1 Y27.
G3 X112. Y28.413 I-1.412 J0.
G1 X108.
G3 X106.588 Y27. I0. J-1.413
G1 Y23.
G3 X108. Y21.587 I1.412 J0.
G1 X112.
G3 X113.412 Y23. I0. J1.413
G1 Y25.
G3 X113.095 Y25.317 I-0.317 J0.
G1 X112.777
X112.707 Z-3.992
X112.64 Z-3.969
X112.58 Z-3.931
X112.529 Z-3.88
X112.491 Z-3.82
X112.468 Z-3.753
X112.46 Z-3.683
Y24.683
Z-4.683 F762.
X112.468 Z-4.753 F1000.
X112.491 Z-4.82
X112.529 Z-4.88
X112.58 Z-4.931
X112.64 Z-4.969
X112.707 Z-4.992
X112.777 Z-5.
X113.095
G3 X113.412 Y25. I0. J0.317
G1 Y27.
G3 X112. Y28.413 I-1.412 J0.
G1 X108.
G3 X106.588 Y27. I0. J-1.413
G1 Y23.
G3 X108. Y21.587 I1.412 J0.
G1 X112.
G3 X113.412 Y23. I0. J1.413
G1 Y25.
G3 X113.095 Y25.317 I-0.317 J0.
G1 X112.777
X112.707 Z-4.992
X112.64 Z-4.969
X112.58 Z-4.931
X112.529 Z-4.88
X112.491 Z-4.82
X112.468 Z-4.753
X112.46 Z-4.683
Y24.683
Z-5.683 F762.
X112.468 Z-5.753 F1000.
X112.491 Z-5.82
X112.529 Z-5.88
X112.58 Z-5.931
X112.64 Z-5.969
X112.707 Z-5.992
X112.777 Z-6.
X113.095
G3 X113.412 Y25. I0. J0.317
G1 Y27.
G3 X112. Y28.413 I-1.412 J0.
G1 X108.
G3 X106.588 Y27. I0. J-1.413
G1 Y23.
G3 X108. Y21.587 I1.412 J0.
G1 X112.
G3 X113.412 Y23. I0. J1.413
G1 Y25.
G3 X113.095 Y25.317 I-0.317 J0.
G1 X112.777
X112.707 Z-5.992
X112.64 Z-5.969
X112.58 Z-5.931
X112.529 Z-5.88
X112.491 Z-5.82
X112.468 Z-5.753
X112.46 Z-5.683
Y24.683
Z-6.683 F762.
X112.468 Z-6.753 F1000.
X112.491 Z-6.82
X112.529 Z-6.88
X112.58 Z-6.931
X112.64 Z-6.969
X112.707 Z-6.992
X112.777 Z-7.
X113.095
G3 X113.412 Y25. I0. J0.317
G1 Y27.
G3 X112. Y28.413 I-1.412 J0.
G1 X108.
G3 X106.588 Y27. I0. J-1.413
G1 Y23.
G3 X108. Y21.587 I1.412 J0.
G1 X112.
G3 X113.412 Y23. I0. J1.413
G1 Y25.
G3 X113.095 Y25.317 I-0.317 J0.
G1 X112.777
X112.707 Z-6.992
X112.64 Z-6.969
X112.58 Z-6.931
X112.529 Z-6.88
X112.491 Z-6.82
X112.468 Z-6.753
X112.46 Z-6.683
Y24.683
Z-7.683 F762.
X112.468 Z-7.753 F1000.
X112.491 Z-7.82
X112.529 Z-7.88
X112.58 Z-7.931
X112.64 Z-7.969
X112.707 Z-7.992
X112.777 Z-8.
X113.095
G3 X113.412 Y25. I0. J0.317
G1 Y27.
G3 X112. Y28.413 I-1.412 J0.
G1 X108.
G3 X106.588 Y27. I0. J-1.413
G1 Y23.
G3 X108. Y21.587 I1.412 J0.
G1 X112.
G3 X113.412 Y23. I0. J1.413
G1 Y25.
G3 X113.095 Y25.317 I-0.317 J0.
G1 X112.777
X112.707 Z-7.992
X112.64 Z-7.969
X112.58 Z-7.931
X112.529 Z-7.88
X112.491 Z-7.82
X112.468 Z-7.753
X112.46 Z-7.683
Y24.683
Z-8.683 F762.
X112.468 Z-8.753 F1000.
X112.491 Z-8.82
X112.529 Z-8.88
X112.58 Z-8.931
X112.64 Z-8.969
X112.707 Z-8.992
X112.777 Z-9.
X113.095
G3 X113.412 Y25. I0. J0.317
G1 Y27.
G3 X112. Y28.413 I-1.412 J0.
G1 X108.
G3 X106.588 Y27. I0. J-1.413
G1 Y23.
G3 X108. Y21.587 I1.412 J0.
G1 X112.
G3 X113.412 Y23. I0. J1.413
G1 Y25.
G3 X113.095 Y25.317 I-0.317 J0.
G1 X112.777
X112.707 Z-8.992
X112.64 Z-8.969
X112.58 Z-8.931
X112.529 Z-8.88
X112.491 Z-8.82
X112.468 Z-8.753
X112.46 Z-8.683
Y24.683
Z-9.683 F762.
X112.468 Z-9.753 F1000.
X112.491 Z-9.82
X112.529 Z-9.88
X112.58 Z-9.931
X112.64 Z-9.969
X112.707 Z-9.992
X112.777 Z-10.
X113.095
G3 X113.412 Y25. I0. J0.317
G1 Y27.
G3 X112. Y28.413 I-1.412 J0.
G1 X108.
G3 X106.588 Y27. I0. J-1.413
G1 Y23.
G3 X108. Y21.587 I1.412 J0.
G1 X112.
G3 X113.412 Y23. I0. J1.413
G1 Y25.
G3 X113.095 Y25.317 I-0.317 J0.
G1 X112.777
X112.707 Z-9.992
X112.64 Z-9.969
X112.58 Z-9.931
X112.529 Z-9.88
X112.491 Z-9.82
X112.468 Z-9.753
X112.46 Z-9.683
Y24.683
Z-10.683 F762.
X112.468 Z-10.753 F1000.
X112.491 Z-10.82
X112.529 Z-10.88
X112.58 Z-10.931
X112.64 Z-10.969
X112.707 Z-10.992
X112.777 Z-11.
X113.095
G3 X113.412 Y25. I0. J0.317
G1 Y27.
G3 X112. Y28.413 I-1.412 J0.
G1 X108.
G3 X106.588 Y27. I0. J-1.413
G1 Y23.
G3 X108. Y21.587 I1.412 J0.
G1 X112.
G3 X113.412 Y23. I0. J1.413
G1 Y25.
G3 X113.095 Y25.317 I-0.317 J0.
G1 X112.777
X112.707 Z-10.992
X112.64 Z-10.969
X112.58 Z-10.931
X112.529 Z-10.88
X112.491 Z-10.82
X112.468 Z-10.753
X112.46 Z-10.683
G0 Z5.
X132.46 Y24.683
G1 Z2. F762.
Z-0.683
X132.468 Z-0.753 F1000.
X132.491 Z-0.82
X132.529 Z-0.88
X132.58 Z-0.931
X132.64 Z-0.969
X132.707 Z-0.992
X132.777 Z-1.
X133.095
G3 X133.413 Y25. I0. J0.317
G1 Y27.
G3 X132. Y28.413 I-1.413 J0.
G1 X128.
G3 X126.588 Y27. I0. J-1.413
G1 Y23.
G3 X128. Y21.587 I1.412 J0.
G1 X132.
G3 X133.413 Y23. I0. J1.413
G1 Y25.
G3 X133.095 Y25.317 I-0.318 J0.
G1 X132.777
X132.707 Z-0.992
X132.64 Z-0.969
X132.58 Z-0.931
X132.529 Z-0.88
X132.491 Z-0.82
X132.468 Z-0.753
X132.46 Z-0.683
Y24.683
Z-1.683 F762.
X132.468 Z-1.753 F1000.
X132.491 Z-1.82
X132.529 Z-1.88
X132.58 Z-1.931
X132.64 Z-1.969
X132.707 Z-1.992
X132.777 Z-2.
X133.095
G3 X133.413 Y25. I0. J0.317
G1 Y27.
G3 X132. Y28.413 I-1.413 J0.
G1 X128.
G3 X126.588 Y27. I0. J-1.413
G1 Y23.
G3 X128. Y21.587 I1.412 J0.
G1 X132.
G3 X133.413 Y23. I0. J1.413
G1 Y25.
G3 X133.095 Y25.317 I-0.318 J0.
G1 X132.777
X132.707 Z-1.992
X132.64 Z-1.969
X132.58 Z-1.931
X132.529 Z-1.88
X132.491 Z-1.82
X132.468 Z-1.753
X132.46 Z-1.683
Y24.683
Z-2.683 F762.
X132.468 Z-2.753 F1000.
X132.491 Z-2.82
X132.529 Z-2.88
X132.58 Z-2.931
X132.64 Z-2.969
X132.707 Z-2.992
X132.777 Z-3.
X133.095
G3 X133.413 Y25. I0. J0.317
G1 Y27.
G3 X132. Y28.413 I-1.413 J0.
G1 X128.
G3 X126.588 Y27. I0. J-1.413
G1 Y23.
G3 X128. Y21.587 I1.412 J0.
G1 X132.
G3 X133.413 Y23. I0. J1.413
G1 Y25.
G3 X133.095 Y25.317 I-0.318 J0.
G1 X132.777
X132.707 Z-2.992
X132.64 Z-2.969
X132.58 Z-2.931
X132.529 Z-2.88
X132.491 Z-2.82
X132.468 Z-2.753
X132.46 Z-2.683
Y24.683
Z-3.683 F762.
X132.468 Z-3.753 F1000.
X132.491 Z-3.82
X132.529 Z-3.88
X132.58 Z-3.931
X132.64 Z-3.969
X132.707 Z-3.992
X132.777 Z-4.
X133.095
G3 X133.413 Y25. I0. J0.317
G1 Y27.
G3 X132. Y28.413 I-1.413 J0.
G1 X128.
G3 X126.588 Y27. I0. J-1.413
G1 Y23.
G3 X128. Y21.587 I1.412 J0.
G1 X132.
G3 X133.413 Y23. I0. J1.413
G1 Y25.
G3 X133.095 Y25.317 I-0.318 J0.
G1 X132.777
X132.707 Z-3.992
X132.64 Z-3.969
X132.58 Z-3.931
X132.529 Z-3.88
X132.491 Z-3.82
X132.468 Z-3.753
X132.46 Z-3.683
Y24.683
Z-4.683 F762.
X132.468 Z-4.753 F1000.
X132.491 Z-4.82
X132.529 Z-4.88
X132.58 Z-4.931
X132.64 Z-4.969
X132.707 Z-4.992
X132.777 Z-5.
X133.095
G3 X133.413 Y25. I0. J0.317
G1 Y27.
G3 X132. Y28.413 I-1.413 J0.
G1 X128.
G3 X126.588 Y27. I0. J-1.413
G1 Y23.
G3 X128. Y21.587 I1.412 J0.
G1 X132.
G3 X133.413 Y23. I0. J1.413
G1 Y25.
G3 X133.095 Y25.317 I-0.318 J0.
G1 X132.777
X132.707 Z-4.992
X132.64 Z-4.969
X132.58 Z-4.931
X132.529 Z-4.88
X132.491 Z-4.82
X132.468 Z-4.753
X132.46 Z-4.683
Y24.683
Z-5.683 F762.
X132.468 Z-5.753 F1000.
X132.491 Z-5.82
X132.529 Z-5.88
X132.58 Z-5.931
X132.64 Z-5.969
X132.707 Z-5.992
X132.777 Z-6.
X133.095
G3 X133.413 Y25. I0. J0.317
G1 Y27.
G3 X132. Y28.413 I-1.413 J0.
G1 X128.
G3 X126.588 Y27. I0. J-1.413
G1 Y23.
G3 X128. Y21.587 I1.412 J0.
G1 X132.
G3 X133.413 Y23. I0. J1.413
G1 Y25.
G3 X133.095 Y25.317 I-0.318 J0.
G1 X132.777
X132.707 Z-5.992
X132.64 Z-5.969
X132.58 Z-5.931
X132.529 Z-5.88
X132.491 Z-5.82
X132.468 Z-5.753
X132.46 Z-5.683
Y24.683
Z-6.683 F762.
X132.468 Z-6.753 F1000.
X132.491 Z-6.82
X132.529 Z-6.88
X132.58 Z-6.931
X132.64 Z-6.969
X132.707 Z-6.992
X132.777 Z-7.
X133.095
G3 X133.413 Y25. I0. J0.317
G1 Y27.
G3 X132. Y28.413 I-1.413 J0.
G1 X128.
G3 X126.588 Y27. I0. J-1.413
G1 Y23.
G3 X128. Y21.587 I1.412 J0.
G1 X132.
G3 X133.413 Y23. I0. J1.413
G1 Y25.
G3 X133.095 Y25.317 I-0.318 J0.
G1 X132.777
X132.707 Z-6.992
X132.64 Z-6.969
X132.58 Z-6.931
X132.529 Z-6.88
X132.491 Z-6.82
X132.468 Z-6.753
X132.46 Z-6.683
Y24.683
Z-7.683 F762.
X132.468 Z-7.753 F1000.
X132.491 Z-7.82
X132.529 Z-7.88
X132.58 Z-7.931
X132.64 Z-7.969
X132.707 Z-7.992
X132.777 Z-8.
X133.095
G3 X133.413 Y25. I0. J0.317
G1 Y27.
G3 X132. Y28.413 I-1.413 J0.
G1 X128.
G3 X126.588 Y27. I0. J-1.413
G1 Y23.
G3 X128. Y21.587 I1.412 J0.
G1 X132.
G3 X133.413 Y23. I0. J1.413
G1 Y25.
G3 X133.095 Y25.317 I-0.318 J0.
G1 X132.777
X132.707 Z-7.992
X132.64 Z-7.969
X132.58 Z-7.931
X132.529 Z-7.88
X132.491 Z-7.82
X132.468 Z-7.753
X132.46 Z-7.683
Y24.683
Z-8.683 F762.
X132.468 Z-8.753 F1000.
X132.491 Z-8.82
X132.529 Z-8.88
X132.58 Z-8.931
X132.64 Z-8.969
X132.707 Z-8.992
X132.777 Z-9.
X133.095
G3 X133.413 Y25. I0. J0.317
G1 Y27.
G3 X132. Y28.413 I-1.413 J0.
G1 X128.
G3 X126.588 Y27. I0. J-1.413
G1 Y23.
G3 X128. Y21.587 I1.412 J0.
G1 X132.
G3 X133.413 Y23. I0. J1.413
G1 Y25.
G3 X133.095 Y25.317 I-0.318 J0.
G1 X132.777
X132.707 Z-8.992
X132.64 Z-8.969
X132.58 Z-8.931
X132.529 Z-8.88
X132.491 Z-8.82
X132.468 Z-8.753
X132.46 Z-8.683
Y24.683
Z-9.683 F762.
X132.468 Z-9.753 F1000.
X132.491 Z-9.82
X132.529 Z-9.88
X132.58 Z-9.931
X132.64 Z-9.969
X132.707 Z-9.992
X132.777 Z-10.
X133.095
G3 X133.413 Y25. I0. J0.317
G1 Y27.
G3 X132. Y28.413 I-1.413 J0.
G1 X128.
G3 X126.588 Y27. I0. J-1.413
G1 Y23.
G3 X128. Y21.587 I1.412 J0.
G1 X132.
G3 X133.413 Y23. I0. J1.413
G1 Y25.
G3 X133.095 Y25.317 I-0.318 J0.
G1 X132.777
X132.707 Z-9.992
X132.64 Z-9.969
X132.58 Z-9.931
X132.529 Z-9.88
X132.491 Z-9.82
X132.468 Z-9.753
X132.46 Z-9.683
Y24.683
Z-10.683 F762.
X132.468 Z-10.753 F1000.
X132.491 Z-10.82
X132.529 Z-10.88
X132.58 Z-10.931
X132.64 Z-10.969
X132.707 Z-10.992
X132.777 Z-11.
X133.095
G3 X133.413 Y25. I0. J0.317
G1 Y27.
G3 X132. Y28.413 I-1.413 J0.
G1 X128.
G3 X126.588 Y27. I0. J-1.413
G1 Y23.
G3 X128. Y21.587 I1.412 J0.
G1 X132.
G3 X133.413 Y23. I0. J1.413
G1 Y25.
G3 X133.095 Y25.317 I-0.318 J0.
G1 X132.777
X132.707 Z-10.992
X132.64 Z-10.969
X132.58 Z-10.931
X132.529 Z-10.88
X132.491 Z-10.82
X132.468 Z-10.753
X132.46 Z-10.683
G0 Z5.
X72.46 Y24.683
G1 Z2. F762.
Z-0.683
X72.468 Z-0.753 F1000.
X72.491 Z-0.82
X72.529 Z-0.88
X72.58 Z-0.931
X72.64 Z-0.969
X72.707 Z-0.992
X72.777 Z-1.
X73.095
G3 X73.412 Y25. I0. J0.317
G1 Y27.
G3 X72. Y28.413 I-1.412 J0.
G1 X68.
G3 X66.588 Y27. I0. J-1.413
G1 Y23.
G3 X68. Y21.587 I1.412 J0.
G1 X72.
G3 X73.412 Y23. I0. J1.413
G1 Y25.
G3 X73.095 Y25.317 I-0.317 J0.
G1 X72.777
X72.707 Z-0.992
X72.64 Z-0.969
X72.58 Z-0.931
X72.529 Z-0.88
X72.491 Z-0.82
X72.468 Z-0.753
X72.46 Z-0.683
Y24.683
Z-1.683 F762.
X72.468 Z-1.753 F1000.
X72.491 Z-1.82
X72.529 Z-1.88
X72.58 Z-1.931
X72.64 Z-1.969
X72.707 Z-1.992
X72.777 Z-2.
X73.095
G3 X73.412 Y25. I0. J0.317
G1 Y27.
G3 X72. Y28.413 I-1.412 J0.
G1 X68.
G3 X66.588 Y27. I0. J-1.413
G1 Y23.
G3 X68. Y21.587 I1.412 J0.
G1 X72.
G3 X73.412 Y23. I0. J1.413
G1 Y25.
G3 X73.095 Y25.317 I-0.317 J0.
G1 X72.777
X72.707 Z-1.992
X72.64 Z-1.969
X72.58 Z-1.931
X72.529 Z-1.88
X72.491 Z-1.82
X72.468 Z-1.753
X72.46 Z-1.683
Y24.683
Z-2.683 F762.
X72.468 Z-2.753 F1000.
X72.491 Z-2.82
X72.529 Z-2.88
X72.58 Z-2.931
X72.64 Z-2.969
X72.707 Z-2.992
X72.777 Z-3.
X73.095
G3 X73.412 Y25. I0. J0.317
G1 Y27.
G3 X72. Y28.413 I-1.412 J0.
G1 X68.
G3 X66.588 Y27. I0. J-1.413
G1 Y23.
G3 X68. Y21.587 I1.412 J0.
G1 X72.
G3 X73.412 Y23. I0. J1.413
G1 Y25.
G3 X73.095 Y25.317 I-0.317 J0.
G1 X72.777
X72.707 Z-2.992
X72.64 Z-2.969
X72.58 Z-2.931
X72.529 Z-2.88
X72.491 Z-2.82
X72.468 Z-2.753
X72.46 Z-2.683
Y24.683
Z-3.683 F762.
X72.468 Z-3.753 F1000.
X72.491 Z-3.82
X72.529 Z-3.88
X72.58 Z-3.931
X72.64 Z-3.969
X72.707 Z-3.992
X72.777 Z-4.
X73.095
G3 X73.412 Y25. I0. J0.317
G1 Y27.
G3 X72. Y28.413 I-1.412 J0.
G1 X68.
G3 X66.588 Y27. I0. J-1.413
G1 Y23.
G3 X68. Y21.587 I1.412 J0.
G1 X72.
G3 X73.412 Y23. I0. J1.413
G1 Y25.
G3 X73.095 Y25.317 I-0.317 J0.
G1 X72.777
X72.707 Z-3.992
X72.64 Z-3.969
X72.58 Z-3.931
X72.529 Z-3.88
X72.491 Z-3.82
X72.468 Z-3.753
X72.46 Z-3.683
Y24.683
Z-4.683 F762.
X72.468 Z-4.753 F1000.
X72.491 Z-4.82
X72.529 Z-4.88
X72.58 Z-4.931
X72.64 Z-4.969
X72.707 Z-4.992
X72.777 Z-5.
X73.095
G3 X73.412 Y25. I0. J0.317
G1 Y27.
G3 X72. Y28.413 I-1.412 J0.
G1 X68.
G3 X66.588 Y27. I0. J-1.413
G1 Y23.
G3 X68. Y21.587 I1.412 J0.
G1 X72.
G3 X73.412 Y23. I0. J1.413
G1 Y25.
G3 X73.095 Y25.317 I-0.317 J0.
G1 X72.777
X72.707 Z-4.992
X72.64 Z-4.969
X72.58 Z-4.931
X72.529 Z-4.88
X72.491 Z-4.82
X72.468 Z-4.753
X72.46 Z-4.683
Y24.683
Z-5.683 F762.
X72.468 Z-5.753 F1000.
X72.491 Z-5.82
X72.529 Z-5.88
X72.58 Z-5.931
X72.64 Z-5.969
X72.707 Z-5.992
X72.777 Z-6.
X73.095
G3 X73.412 Y25. I0. J0.317
G1 Y27.
G3 X72. Y28.413 I-1.412 J0.
G1 X68.
G3 X66.588 Y27. I0. J-1.413
G1 Y23.
G3 X68. Y21.587 I1.412 J0.
G1 X72.
G3 X73.412 Y23. I0. J1.413
G1 Y25.
G3 X73.095 Y25.317 I-0.317 J0.
G1 X72.777
X72.707 Z-5.992
X72.64 Z-5.969
X72.58 Z-5.931
X72.529 Z-5.88
X72.491 Z-5.82
X72.468 Z-5.753
X72.46 Z-5.683
Y24.683
Z-6.683 F762.
X72.468 Z-6.753 F1000.
X72.491 Z-6.82
X72.529 Z-6.88
X72.58 Z-6.931
X72.64 Z-6.969
X72.707 Z-6.992
X72.777 Z-7.
X73.095
G3 X73.412 Y25. I0. J0.317
G1 Y27.
G3 X72. Y28.413 I-1.412 J0.
G1 X68.
G3 X66.588 Y27. I0. J-1.413
G1 Y23.
G3 X68. Y21.587 I1.412 J0.
G1 X72.
G3 X73.412 Y23. I0. J1.413
G1 Y25.
G3 X73.095 Y25.317 I-0.317 J0.
G1 X72.777
X72.707 Z-6.992
X72.64 Z-6.969
X72.58 Z-6.931
X72.529 Z-6.88
X72.491 Z-6.82
X72.468 Z-6.753
X72.46 Z-6.683
Y24.683
Z-7.683 F762.
X72.468 Z-7.753 F1000.
X72.491 Z-7.82
X72.529 Z-7.88
X72.58 Z-7.931
X72.64 Z-7.969
X72.707 Z-7.992
X72.777 Z-8.
X73.095
G3 X73.412 Y25. I0. J0.317
G1 Y27.
G3 X72. Y28.413 I-1.412 J0.
G1 X68.
G3 X66.588 Y27. I0. J-1.413
G1 Y23.
G3 X68. Y21.587 I1.412 J0.
G1 X72.
G3 X73.412 Y23. I0. J1.413
G1 Y25.
G3 X73.095 Y25.317 I-0.317 J0.
G1 X72.777
X72.707 Z-7.992
X72.64 Z-7.969
X72.58 Z-7.931
X72.529 Z-7.88
X72.491 Z-7.82
X72.468 Z-7.753
X72.46 Z-7.683
Y24.683
Z-8.683 F762.
X72.468 Z-8.753 F1000.
X72.491 Z-8.82
X72.529 Z-8.88
X72.58 Z-8.931
X72.64 Z-8.969
X72.707 Z-8.992
X72.777 Z-9.
X73.095
G3 X73.412 Y25. I0. J0.317
G1 Y27.
G3 X72. Y28.413 I-1.412 J0.
G1 X68.
G3 X66.588 Y27. I0. J-1.413
G1 Y23.
G3 X68. Y21.587 I1.412 J0.
G1 X72.
G3 X73.412 Y23. I0. J1.413
G1 Y25.
G3 X73.095 Y25.317 I-0.317 J0.
G1 X72.777
X72.707 Z-8.992
X72.64 Z-8.969
X72.58 Z-8.931
X72.529 Z-8.88
X72.491 Z-8.82
X72.468 Z-8.753
X72.46 Z-8.683
Y24.683
Z-9.683 F762.
X72.468 Z-9.753 F1000.
X72.491 Z-9.82
X72.529 Z-9.88
X72.58 Z-9.931
X72.64 Z-9.969
X72.707 Z-9.992
X72.777 Z-10.
X73.095
G3 X73.412 Y25. I0. J0.317
G1 Y27.
G3 X72. Y28.413 I-1.412 J0.
G1 X68.
G3 X66.588 Y27. I0. J-1.413
G1 Y23.
G3 X68. Y21.587 I1.412 J0.
G1 X72.
G3 X73.412 Y23. I0. J1.413
G1 Y25.
G3 X73.095 Y25.317 I-0.317 J0.
G1 X72.777
X72.707 Z-9.992
X72.64 Z-9.969
X72.58 Z-9.931
X72.529 Z-9.88
X72.491 Z-9.82
X72.468 Z-9.753
X72.46 Z-9.683
Y24.683
Z-10.683 F762.
X72.468 Z-10.753 F1000.
X72.491 Z-10.82
X72.529 Z-10.88
X72.58 Z-10.931
X72.64 Z-10.969
X72.707 Z-10.992
X72.777 Z-11.
X73.095
G3 X73.412 Y25. I0. J0.317
G1 Y27.
G3 X72. Y28.413 I-1.412 J0.
G1 X68.
G3 X66.588 Y27. I0. J-1.413
G1 Y23.
G3 X68. Y21.587 I1.412 J0.
G1 X72.
G3 X73.412 Y23. I0. J1.413
G1 Y25.
G3 X73.095 Y25.317 I-0.317 J0.
G1 X72.777
X72.707 Z-10.992
X72.64 Z-10.969
X72.58 Z-10.931
X72.529 Z-10.88
X72.491 Z-10.82
X72.468 Z-10.753
X72.46 Z-10.683
G0 Z15.

M9
M30
