(1001)
(T1 D=3.175 CR=0. - ZMIN=-11. - FLAT END MILL)
G0 G90 G94 G17
G21
(-ATTENTION- PROPERTY SAFE RETRACTS IS SET TO CLEARANCE HEIGHT.)
(ENSURE THE CLEARANCE HEIGHT WILL CLEAR THE PART AND OR FIXTURES.)
(RAISE THE Z-AXIS TO A SAFE HEIGHT BEFORE STARTING THE PROGRAM.)
M5

(2D CONTOUR2)
T1
M3 S15000
G90 G94 G17
G54
M8
G0 X-2.54 Y4.682
Z15.
G0 Z5.
G1 Z2. F762.
Z-0.683
X-2.532 Z-0.753 F1000.
X-2.509 Z-0.82
X-2.471 Z-0.88
X-2.42 Z-0.931
X-2.36 Z-0.969
X-2.293 Z-0.992
X-2.223 Z-1.
X-1.905
G3 X-1.587 Y5. I0. J0.318
G1 Y7.
G2 X3. Y11.587 I4.587 J0.
G1 X7.
G2 X11.587 Y7. I0. J-4.587
G1 Y3.
G2 X7. Y-1.587 I-4.587 J0.
G1 X3.
G2 X-1.587 Y3. I0. J4.587
G1 Y5.
G3 X-1.905 Y5.318 I-0.317 J0.
G1 X-2.223
X-2.293 Z-0.992
X-2.36 Z-0.969
X-2.42 Z-0.931
X-2.471 Z-0.88
X-2.509 Z-0.82
X-2.532 Z-0.753
X-2.54 Z-0.683
Y4.682
Z-1.683 F762.
X-2.532 Z-1.753 F1000.
X-2.509 Z-1.82
X-2.471 Z-1.88
X-2.42 Z-1.931
X-2.36 Z-1.969
X-2.293 Z-1.992
X-2.223 Z-2.
X-1.905
G3 X-1.587 Y5. I0. J0.318
G1 Y7.
G2 X3. Y11.587 I4.587 J0.
G1 X7.
G2 X11.587 Y7. I0. J-4.587
G1 Y3.
G2 X7. Y-1.587 I-4.587 J0.
G1 X3.
G2 X-1.587 Y3. I0. J4.587
G1 Y5.
G3 X-1.905 Y5.318 I-0.317 J0.
G1 X-2.223
X-2.293 Z-1.992
X-2.36 Z-1.969
X-2.42 Z-1.931
X-2.471 Z-1.88
X-2.509 Z-1.82
X-2.532 Z-1.753
X-2.54 Z-1.683
Y4.682
Z-2.683 F762.
X-2.532 Z-2.753 F1000.
X-2.509 Z-2.82
X-2.471 Z-2.88
X-2.42 Z-2.931
X-2.36 Z-2.969
X-2.293 Z-2.992
X-2.223 Z-3.
X-1.905
G3 X-1.587 Y5. I0. J0.318
G1 Y7.
G2 X3. Y11.587 I4.587 J0.
G1 X7.
G2 X11.587 Y7. I0. J-4.587
G1 Y3.
G2 X7. Y-1.587 I-4.587 J0.
G1 X3.
G2 X-1.587 Y3. I0. J4.587
G1 Y5.
G3 X-1.905 Y5.318 I-0.317 J0.
G1 X-2.223
X-2.293 Z-2.992
X-2.36 Z-2.969
X-2.42 Z-2.931
X-2.471 Z-2.88
X-2.509 Z-2.82
X-2.532 Z-2.753
X-2.54 Z-2.683
Y4.682
Z-3.683 F762.
X-2.532 Z-3.753 F1000.
X-2.509 Z-3.82
X-2.471 Z-3.88
X-2.42 Z-3.931
X-2.36 Z-3.969
X-2.293 Z-3.992
X-2.223 Z-4.
X-1.905
G3 X-1.587 Y5. I0. J0.318
G1 Y7.
G2 X3. Y11.587 I4.587 J0.
G1 X7.
G2 X11.587 Y7. I0. J-4.587
G1 Y3.
G2 X7. Y-1.587 I-4.587 J0.
G1 X3.
G2 X-1.587 Y3. I0. J4.587
G1 Y5.
G3 X-1.905 Y5.318 I-0.317 J0.
G1 X-2.223
X-2.293 Z-3.992
X-2.36 Z-3.969
X-2.42 Z-3.931
X-2.471 Z-3.88
X-2.509 Z-3.82
X-2.532 Z-3.753
X-2.54 Z-3.683
Y4.682
Z-4.683 F762.
X-2.532 Z-4.753 F1000.
X-2.509 Z-4.82
X-2.471 Z-4.88
X-2.42 Z-4.931
X-2.36 Z-4.969
X-2.293 Z-4.992
X-2.223 Z-5.
X-1.905
G3 X-1.587 Y5. I0. J0.318
G1 Y7.
G2 X3. Y11.587 I4.587 J0.
G1 X7.
G2 X11.587 Y7. I0. J-4.587
G1 Y3.
G2 X7. Y-1.587 I-4.587 J0.
G1 X3.
G2 X-1.587 Y3. I0. J4.587
G1 Y5.
G3 X-1.905 Y5.318 I-0.317 J0.
G1 X-2.223
X-2.293 Z-4.992
X-2.36 Z-4.969
X-2.42 Z-4.931
X-2.471 Z-4.88
X-2.509 Z-4.82
X-2.532 Z-4.753
X-2.54 Z-4.683
Y4.682
Z-5.683 F762.
X-2.532 Z-5.753 F1000.
X-2.509 Z-5.82
X-2.471 Z-5.88
X-2.42 Z-5.931
X-2.36 Z-5.969
X-2.293 Z-5.992
X-2.223 Z-6.
X-1.905
G3 X-1.587 Y5. I0. J0.318
G1 Y7.
G2 X3. Y11.587 I4.587 J0.
G1 X7.
G2 X11.587 Y7. I0. J-4.587
G1 Y3.
G2 X7. Y-1.587 I-4.587 J0.
G1 X3.
G2 X-1.587 Y3. I0. J4.587
G1 Y5.
G3 X-1.905 Y5.318 I-0.317 J0.
G1 X-2.223
X-2.293 Z-5.992
X-2.36 Z-5.969
X-2.42 Z-5.931
X-2.471 Z-5.88
X-2.509 Z-5.82
X-2.532 Z-5.753
X-2.54 Z-5.683
Y4.682
Z-6.683 F762.
X-2.532 Z-6.753 F1000.
X-2.509 Z-6.82
X-2.471 Z-6.88
X-2.42 Z-6.931
X-2.36 Z-6.969
X-2.293 Z-6.992
X-2.223 Z-7.
X-1.905
G3 X-1.587 Y5. I0. J0.318
G1 Y7.
G2 X3. Y11.587 I4.587 J0.
G1 X7.
G2 X11.587 Y7. I0. J-4.587
G1 Y3.
G2 X7. Y-1.587 I-4.587 J0.
G1 X3.
G2 X-1.587 Y3. I0. J4.587
G1 Y5.
G3 X-1.905 Y5.318 I-0.317 J0.
G1 X-2.223
X-2.293 Z-6.992
X-2.36 Z-6.969
X-2.42 Z-6.931
X-2.471 Z-6.88
X-2.509 Z-6.82
X-2.532 Z-6.753
X-2.54 Z-6.683
Y4.682
Z-7.683 F762.
X-2.532 Z-7.753 F1000.
X-2.509 Z-7.82
X-2.471 Z-7.88
X-2.42 Z-7.931
X-2.36 Z-7.969
X-2.293 Z-7.992
X-2.223 Z-8.
X-1.905
G3 X-1.587 Y5. I0. J0.318
G1 Y7.
G2 X3. Y11.587 I4.587 J0.
G1 X7.
G2 X11.587 Y7. I0. J-4.587
G1 Y3.
G2 X7. Y-1.587 I-4.587 J0.
G1 X3.
G2 X-1.587 Y3. I0. J4.587
G1 Y5.
G3 X-1.905 Y5.318 I-0.317 J0.
G1 X-2.223
X-2.293 Z-7.992
X-2.36 Z-7.969
X-2.42 Z-7.931
X-2.471 Z-7.88
X-2.509 Z-7.82
X-2.532 Z-7.753
X-2.54 Z-7.683
Y4.682
Z-8.683 F762.
X-2.532 Z-8.753 F1000.
X-2.509 Z-8.82
X-2.471 Z-8.88
X-2.42 Z-8.931
X-2.36 Z-8.969
X-2.293 Z-8.992
X-2.223 Z-9.
X-1.905
G3 X-1.587 Y5. I0. J0.318
G1 Y7.
G2 X3. Y11.587 I4.587 J0.
G1 X7.
G2 X11.587 Y7. I0. J-4.587
G1 Y3.
G2 X7. Y-1.587 I-4.587 J0.
G1 X3.
G2 X-1.587 Y3. I0. J4.587
G1 Y5.
G3 X-1.905 Y5.318 I-0.317 J0.
G1 X-2.223
X-2.293 Z-8.992
X-2.36 Z-8.969
X-2.42 Z-8.931
X-2.471 Z-8.88
X-2.509 Z-8.82
X-2.532 Z-8.753
X-2.54 Z-8.683
Y4.682
Z-9. F762.
X-2.223 F1000.
X-1.905
G3 X-1.587 Y5. I0. J0.318
G1 Y7.
G2 X-1.47 Y8.03 I4.587 J0.
G1 Z-10. F762.
G2 X1.885 Y11.45 I4.47 J-1.03 F1000.
G1 Z-9.
G2 X3. Y11.587 I1.115 J-4.45
G1 X7.
G2 X8.06 Y11.463 I0. J-4.587
G1 Z-10. F762.
G2 X11.5 Y7.891 I-1.06 J-4.463 F1000.
G1 Z-9.
G2 X11.587 Y7. I-4.5 J-0.891
G1 Y3.
G2 X11.404 Y1.716 I-4.587 J0.
G1 Z-10. F762.
G2 X8.053 Y-1.465 I-4.404 J1.284 F1000.
G1 Z-9.
G2 X7. Y-1.587 I-1.053 J4.465
G1 X3.
G2 X1.878 Y-1.448 I0. J4.587
G1 Z-10. F762.
G2 X-1.442 Y1.855 I1.122 J4.448 F1000.
G1 Z-9.
G2 X-1.587 Y3. I4.442 J1.145
G1 Y5.
G3 X-1.905 Y5.318 I-0.317 J0.
G1 X-2.54
Y4.682
X-2.223
X-1.905
G3 X-1.587 Y5. I0. J0.318
G1 Y7.
G2 X-1.47 Y8.03 I4.587 J0.
G1 Z-11. F762.
G2 X1.885 Y11.45 I4.47 J-1.03 F1000.
G1 Z-9.
G2 X3. Y11.587 I1.115 J-4.45
G1 X7.
G2 X8.06 Y11.463 I0. J-4.587
G1 Z-11. F762.
G2 X11.5 Y7.891 I-1.06 J-4.463 F1000.
G1 Z-9.
G2 X11.587 Y7. I-4.5 J-0.891
G1 Y3.
G2 X11.404 Y1.716 I-4.587 J0.
G1 Z-11. F762.
G2 X8.053 Y-1.465 I-4.404 J1.284 F1000.
G1 Z-9.
G2 X7. Y-1.587 I-1.053 J4.465
G1 X3.
G2 X1.878 Y-1.448 I0. J4.587
G1 Z-11. F762.
G2 X-1.442 Y1.855 I1.122 J4.448 F1000.
G1 Z-9.
G2 X-1.587 Y3. I4.442 J1.145
G1 Y5.
G3 X-1.905 Y5.318 I-0.317 J0.
G1 X-2.54
G0 Z15.

M9
M30
