(1001)
(T1 D=3.175 CR=0. - ZMIN=-11. - FLAT END MILL)
G0 G90 G94 G17
G21
(-ATTENTION- PROPERTY SAFE RETRACTS IS SET TO CLEARANCE HEIGHT.)
(ENSURE THE CLEARANCE HEIGHT WILL CLEAR THE PART AND OR FIXTURES.)
(RAISE THE Z-AXIS TO A SAFE HEIGHT BEFORE STARTING THE PROGRAM.)
M5

(2D CONTOUR2)
T1
M3 S15000
G90 G94 G17
G54
M8
G0 X-2.54 Y4.633
Z15.
G0 Z5.
G1 Z2. F762.
Z-0.683
X-2.532 Z-0.753 F1000.
X-2.509 Z-0.82
X-2.471 Z-0.88
X-2.42 Z-0.931
X-2.36 Z-0.969
X-2.293 Z-0.992
X-2.223 Z-1.
X-1.905
G3 X-1.587 Y4.95 I0. J0.317
G1 Y6.9
G2 X3. Y11.488 I4.587 J0.
G1 X6.9
G2 X11.488 Y6.9 I0. J-4.588
G1 Y3.
G2 X6.9 Y-1.587 I-4.588 J0.
G1 X3.
G2 X-1.587 Y3. I0. J4.587
G1 Y4.95
G3 X-1.905 Y5.267 I-0.317 J0.
G1 X-2.223
X-2.293 Z-0.992
X-2.36 Z-0.969
X-2.42 Z-0.931
X-2.471 Z-0.88
X-2.509 Z-0.82
X-2.532 Z-0.753
X-2.54 Z-0.683
Y4.633
Z-1.683 F762.
X-2.532 Z-1.753 F1000.
X-2.509 Z-1.82
X-2.471 Z-1.88
X-2.42 Z-1.931
X-2.36 Z-1.969
X-2.293 Z-1.992
X-2.223 Z-2.
X-1.905
G3 X-1.587 Y4.95 I0. J0.317
G1 Y6.9
G2 X3. Y11.488 I4.587 J0.
G1 X6.9
G2 X11.488 Y6.9 I0. J-4.588
G1 Y3.
G2 X6.9 Y-1.587 I-4.588 J0.
G1 X3.
G2 X-1.587 Y3. I0. J4.587
G1 Y4.95
G3 X-1.905 Y5.267 I-0.317 J0.
G1 X-2.223
X-2.293 Z-1.992
X-2.36 Z-1.969
X-2.42 Z-1.931
X-2.471 Z-1.88
X-2.509 Z-1.82
X-2.532 Z-1.753
X-2.54 Z-1.683
Y4.633
Z-2.683 F762.
X-2.532 Z-2.753 F1000.
X-2.509 Z-2.82
X-2.471 Z-2.88
X-2.42 Z-2.931
X-2.36 Z-2.969
X-2.293 Z-2.992
X-2.223 Z-3.
X-1.905
G3 X-1.587 Y4.95 I0. J0.317
G1 Y6.9
G2 X3. Y11.488 I4.587 J0.
G1 X6.9
G2 X11.488 Y6.9 I0. J-4.588
G1 Y3.
G2 X6.9 Y-1.587 I-4.588 J0.
G1 X3.
G2 X-1.587 Y3. I0. J4.587
G1 Y4.95
G3 X-1.905 Y5.267 I-0.317 J0.
G1 X-2.223
X-2.293 Z-2.992
X-2.36 Z-2.969
X-2.42 Z-2.931
X-2.471 Z-2.88
X-2.509 Z-2.82
X-2.532 Z-2.753
X-2.54 Z-2.683
Y4.633
Z-3.683 F762.
X-2.532 Z-3.753 F1000.
X-2.509 Z-3.82
X-2.471 Z-3.88
X-2.42 Z-3.931
X-2.36 Z-3.969
X-2.293 Z-3.992
X-2.223 Z-4.
X-1.905
G3 X-1.587 Y4.95 I0. J0.317
G1 Y6.9
G2 X3. Y11.488 I4.587 J0.
G1 X6.9
G2 X11.488 Y6.9 I0. J-4.588
G1 Y3.
G2 X6.9 Y-1.587 I-4.588 J0.
G1 X3.
G2 X-1.587 Y3. I0. J4.587
G1 Y4.95
G3 X-1.905 Y5.267 I-0.317 J0.
G1 X-2.223
X-2.293 Z-3.992
X-2.36 Z-3.969
X-2.42 Z-3.931
X-2.471 Z-3.88
X-2.509 Z-3.82
X-2.532 Z-3.753
X-2.54 Z-3.683
Y4.633
Z-4.683 F762.
X-2.532 Z-4.753 F1000.
X-2.509 Z-4.82
X-2.471 Z-4.88
X-2.42 Z-4.931
X-2.36 Z-4.969
X-2.293 Z-4.992
X-2.223 Z-5.
X-1.905
G3 X-1.587 Y4.95 I0. J0.317
G1 Y6.9
G2 X3. Y11.488 I4.587 J0.
G1 X6.9
G2 X11.488 Y6.9 I0. J-4.588
G1 Y3.
G2 X6.9 Y-1.587 I-4.588 J0.
G1 X3.
G2 X-1.587 Y3. I0. J4.587
G1 Y4.95
G3 X-1.905 Y5.267 I-0.317 J0.
G1 X-2.223
X-2.293 Z-4.992
X-2.36 Z-4.969
X-2.42 Z-4.931
X-2.471 Z-4.88
X-2.509 Z-4.82
X-2.532 Z-4.753
X-2.54 Z-4.683
Y4.633
Z-5.683 F762.
X-2.532 Z-5.753 F1000.
X-2.509 Z-5.82
X-2.471 Z-5.88
X-2.42 Z-5.931
X-2.36 Z-5.969
X-2.293 Z-5.992
X-2.223 Z-6.
X-1.905
G3 X-1.587 Y4.95 I0. J0.317
G1 Y6.9
G2 X3. Y11.488 I4.587 J0.
G1 X6.9
G2 X11.488 Y6.9 I0. J-4.588
G1 Y3.
G2 X6.9 Y-1.587 I-4.588 J0.
G1 X3.
G2 X-1.587 Y3. I0. J4.587
G1 Y4.95
G3 X-1.905 Y5.267 I-0.317 J0.
G1 X-2.223
X-2.293 Z-5.992
X-2.36 Z-5.969
X-2.42 Z-5.931
X-2.471 Z-5.88
X-2.509 Z-5.82
X-2.532 Z-5.753
X-2.54 Z-5.683
Y4.633
Z-6.683 F762.
X-2.532 Z-6.753 F1000.
X-2.509 Z-6.82
X-2.471 Z-6.88
X-2.42 Z-6.931
X-2.36 Z-6.969
X-2.293 Z-6.992
X-2.223 Z-7.
X-1.905
G3 X-1.587 Y4.95 I0. J0.317
G1 Y6.9
G2 X3. Y11.488 I4.587 J0.
G1 X6.9
G2 X11.488 Y6.9 I0. J-4.588
G1 Y3.
G2 X6.9 Y-1.587 I-4.588 J0.
G1 X3.
G2 X-1.587 Y3. I0. J4.587
G1 Y4.95
G3 X-1.905 Y5.267 I-0.317 J0.
G1 X-2.223
X-2.293 Z-6.992
X-2.36 Z-6.969
X-2.42 Z-6.931
X-2.471 Z-6.88
X-2.509 Z-6.82
X-2.532 Z-6.753
X-2.54 Z-6.683
Y4.633
Z-7.683 F762.
X-2.532 Z-7.753 F1000.
X-2.509 Z-7.82
X-2.471 Z-7.88
X-2.42 Z-7.931
X-2.36 Z-7.969
X-2.293 Z-7.992
X-2.223 Z-8.
X-1.905
G3 X-1.587 Y4.95 I0. J0.317
G1 Y6.9
G2 X3. Y11.488 I4.587 J0.
G1 X6.9
G2 X11.488 Y6.9 I0. J-4.588
G1 Y3.
G2 X6.9 Y-1.587 I-4.588 J0.
G1 X3.
G2 X-1.587 Y3. I0. J4.587
G1 Y4.95
G3 X-1.905 Y5.267 I-0.317 J0.
G1 X-2.223
X-2.293 Z-7.992
X-2.36 Z-7.969
X-2.42 Z-7.931
X-2.471 Z-7.88
X-2.509 Z-7.82
X-2.532 Z-7.753
X-2.54 Z-7.683
Y4.633
Z-8.683 F762.
X-2.532 Z-8.753 F1000.
X-2.509 Z-8.82
X-2.471 Z-8.88
X-2.42 Z-8.931
X-2.36 Z-8.969
X-2.293 Z-8.992
X-2.223 Z-9.
X-1.905
G3 X-1.587 Y4.95 I0. J0.317
G1 Y6.9
G2 X3. Y11.488 I4.587 J0.
G1 X6.9
G2 X11.488 Y6.9 I0. J-4.588
G1 Y3.
G2 X6.9 Y-1.587 I-4.588 J0.
G1 X3.
G2 X-1.587 Y3. I0. J4.587
G1 Y4.95
G3 X-1.905 Y5.267 I-0.317 J0.
G1 X-2.223
X-2.293 Z-8.992
X-2.36 Z-8.969
X-2.42 Z-8.931
X-2.471 Z-8.88
X-2.509 Z-8.82
X-2.532 Z-8.753
X-2.54 Z-8.683
Y4.633
Z-9. F762.
X-2.223 F1000.
X-1.905
G3 X-1.587 Y4.95 I0. J0.317
G1 Y6.9
G2 X-1.458 Y7.981 I4.587 J0.
G1 Z-10. F762.
G2 X1.835 Y11.337 I4.458 J-1.081 F1000.
G1 Z-9.
G2 X3. Y11.488 I1.165 J-4.437
G1 X6.9
G2 X8.01 Y11.351 I0. J-4.588
G1 Z-10. F762.
G2 X11.389 Y7.846 I-1.11 J-4.451 F1000.
G1 Z-9.
G2 X11.488 Y6.9 I-4.489 J-0.946
G1 Y3.
G2 X11.291 Y1.671 I-4.588 J0.
G1 Z-10. F762.
G2 X8.004 Y-1.453 I-4.391 J1.329 F1000.
G1 Z-9.
G2 X6.9 Y-1.587 I-1.104 J4.453
G1 X3.
G2 X1.829 Y-1.435 I0. J4.587
G1 Z-10. F762.
G2 X-1.429 Y1.806 I1.171 J4.435 F1000.
G1 Z-9.
G2 X-1.587 Y3. I4.429 J1.194
G1 Y4.95
G3 X-1.905 Y5.267 I-0.317 J0.
G1 X-2.54
Y4.633
X-2.223
X-1.905
G3 X-1.587 Y4.95 I0. J0.317
G1 Y6.9
G2 X-1.458 Y7.981 I4.587 J0.
G1 Z-11. F762.
G2 X1.835 Y11.337 I4.458 J-1.081 F1000.
G1 Z-9.
G2 X3. Y11.488 I1.165 J-4.437
G1 X6.9
G2 X8.01 Y11.351 I0. J-4.588
G1 Z-11. F762.
G2 X11.389 Y7.846 I-1.11 J-4.451 F1000.
G1 Z-9.
G2 X11.488 Y6.9 I-4.489 J-0.946
G1 Y3.
G2 X11.291 Y1.671 I-4.588 J0.
G1 Z-11. F762.
G2 X8.004 Y-1.453 I-4.391 J1.329 F1000.
G1 Z-9.
G2 X6.9 Y-1.587 I-1.104 J4.453
G1 X3.
G2 X1.829 Y-1.435 I0. J4.587
G1 Z-11. F762.
G2 X-1.429 Y1.806 I1.171 J4.435 F1000.
G1 Z-9.
G2 X-1.587 Y3. I4.429 J1.194
G1 Y4.95
G3 X-1.905 Y5.267 I-0.317 J0.
G1 X-2.54
G0 Z15.

M9
M30
